!!!!SEGMENT: pl-stab--5a--001-003_dankowski-adalbert--vespere-ex-c-de-confessoribus-confitebor.krn
!!!cenid: 18xx:3501
!!!COM: Dankowski, Adalbert
!!!COM-rismid: pe30000793
!!!CDT: ~1760-~1836
!!!CNT: Polish
!!!OPR: Vespere ex C de Confessoribus
!!!OTL: Confitebor
!!!OMV: 003
!!!PDT:
!!!AGN: Sacred; Vespers
!!!SMS-siglum: PL-STAb
!!!SMS-shelfmark: 5a
!!!SMS-shelfwork: 001-003 M
!!!SMS-variant:
!!!SMS-altvar:
!!!NIFC-rismid: 301050557
!!!URL-scan: https://repozytorium.nifc.pl/islandora/object/pl-stab%3A1317/datastream/PDF/view
!!!ONB-nifc: UWAGA: części Nieszporów: 1. Domine ad adjuvandum, 2. Dixit Dominus, 3. Confitebor, 4. Beatus vir, 5. Laudate pueri, 6. Laudate Dominum, 7. In Exitu, 8. Magnificat, 9. Quia fecit, 10. Fecit potentiam, 11. Suscepit Israel, 12. Gloria patri
!!!OMD: allo moderato
!!!key:
**kern	**fba	**dynam	**kern	**dynam	**kern	**dynam	**kern	**text	**kern	**text	**kern	**text	**kern	**text	**kern	**kern
*part9	*part9	*part9	*part8	*part8	*part7	*part7	*part6	*part6	*part5	*part5	*part4	*part4	*part3	*part3	*part2	*part1
*staff9	*staff9	*	*staff8	*	*staff7	*	*staff6	*staff6	*staff5	*staff5	*staff4	*staff4	*staff3	*staff3	*staff2	*staff1
*Iorgan	*	*	*Ivioln	*	*Ivioln	*	*Iempty	*	*Itenor	*	*Ialto	*	*Ivox	*	*Iempty	*Iempty
*I"Organo	*	*	*I"Violino Secondo	*	*I"Violino Primo	*	*I"Baſso.	*	*I"Tenore.	*	*I"Alto.	*	*I"Canto	*	*I"Cornu Secondo Ex C.	*I"Cornu Primo Ex C.
*I'Org	*	*	*I'Vn II	*	*I'Vn I	*	*I'B.	*	*I'T	*	*I'A.	*	*I'C.	*	*I'Cor 2	*I'Cor 1
*ICklav	*	*	*ICstr	*	*ICstr	*	*ICvox	*	*ICvox	*	*ICvox	*	*ICvox	*	*ICbras	*ICbras
*clefF4	*	*	*clefG2	*	*clefG2	*	*clefF4	*	*clefC4	*	*clefC3	*	*clefC1	*	*clefG2	*clefG2
*k[]	*	*	*k[]	*	*k[]	*	*k[]	*	*k[]	*	*k[]	*	*k[]	*	*k[]	*k[]
*a:	*	*	*a:	*	*a:	*	*a:	*	*a:	*	*a:	*	*a:	*	*a:	*a:
*M3/4	*	*	*M3/4	*	*M3/4	*	*M3/4	*	*M3/4	*	*M3/4	*	*M3/4	*	*M3/4	*M3/4
=1	=1	=1	=1	=1	=1	=1	=1	=1	=1	=1	=1	=1	=1	=1	=1	=1
*	*	*	*	*	*	*	*	*	*	*	*	*	*2\right	*	*	*
!	!	!	!	!	!	!	!	!	!	!	!	!	!	!	!	!LO:TX:a:B:t=allo moderatto
!LO:TX:a:i:t=Solo	!	!	!LO:TX:a:i:t=Solo	!	!	!	!	!	!	!	!LO:TX:a:i:t=Solo	!	!LO:TX:a:i:t=Solo.	!	!LO:TX:a:i:t=Confitebor Tacet	!LO:TX:a:i:t=Confitebor Tacet
4A\	.	.	8c/L	.	2a/	.	0.r	.	0.r	.	0.r	.	2a\	Con-	2.ryy	2.ryy
.	.	.	8e/	.	.	.	.	.	.	.	.	.	.	.	.	.
4AA/	.	.	8c/	.	.	.	.	.	.	.	.	.	.	.	.	.
.	.	.	8e/	.	.	.	.	.	.	.	.	.	.	.	.	.
!	!	!	!	!LO:DY:a	!	!	!	!	!	!	!	!	!	!	!	!
4A\	.	.	8c/	p	8b/L	.	.	.	.	.	.	.	8b\L	-fi-	.	.
.	.	.	8e/J	.	8a/J	.	.	.	.	.	.	.	8a\J	.	.	.
=2	=2	=2	=2	=2	=2	=2	=2	=2	=2	=2	=2	=2	=2	=2	=2	=2
*	*	*	*tremolo	*	*	*	*	*	*	*	*	*	*	*	*	*
4B\	6\ 3	.	8d/L	.	2g#X/	.	.	.	.	.	.	.	2g#X\	-te-	2.ryy	2.ryy
.	.	.	8e/	.	.	.	.	.	.	.	.	.	.	.	.	.
4B\	_ _	.	8d/	.	.	.	.	.	.	.	.	.	.	.	.	.
.	.	.	8e/J	.	.	.	.	.	.	.	.	.	.	.	.	.
4A\	x	.	8c/L	.	4a/	.	.	.	.	.	.	.	4a\	-bor	.	.
.	.	.	8e/J	.	.	.	.	.	.	.	.	.	.	.	.	.
=3	=3	=3	=3	=3	=3	=3	=3	=3	=3	=3	=3	=3	=3	=3	=3	=3
4G#X\	6 5	.	8d/L	.	4.b\	.	.	.	.	.	.	.	4.b\	ti-	2.ryy	2.ryy
.	.	.	8e/	.	.	.	.	.	.	.	.	.	.	.	.	.
4G#\	_ _	.	8d/	.	.	.	.	.	.	.	.	.	.	.	.	.
.	.	.	8e/J	.	16dd\LL	.	.	.	.	.	.	.	16dd\LL	.	.	.
.	.	.	.	.	16cc\JJ	.	.	.	.	.	.	.	16cc\JJ	.	.	.
4G#\	x	.	8B/L	.	16ee\LL	.	.	.	.	.	.	.	16ee\LL	.	.	.
.	.	.	.	.	16dd\	.	.	.	.	.	.	.	16dd\JJ	.	.	.
.	.	.	8e/J	.	16cc\	.	.	.	.	.	.	.	16cc\LL	-bi	.	.
.	.	.	.	.	16b\JJ	.	.	.	.	.	.	.	16b\JJ	.	.	.
=4	=4	=4	=4	=4	=4	=4	=4	=4	=4	=4	=4	=4	=4	=4	=4	=4
4A\	.	.	8c/L	.	8b/L	.	.	.	.	.	.	.	8b\	Do-	2.ryy	2.ryy
.	.	.	8e/	.	8a/J	.	.	.	.	.	.	.	8a\	-mi-	.	.
4AA/	.	.	8c/	.	4a/	.	.	.	.	.	.	.	4a\	-no	.	.
.	.	.	8e/	.	.	.	.	.	.	.	.	.	.	.	.	.
4A\	.	.	8c/	.	8r	.	.	.	.	.	.	.	8r	.	.	.
.	.	.	8e/J	.	8cc\	.	.	.	.	.	.	.	8cc\	in	.	.
!	!	!	!	!	!	!	!	!	!	!	!	!	!LO:LB:g=original	!	!	!
=5	=5	=5	=5	=5	=5	=5	=5	=5	=5	=5	=5	=5	=5	=5	=5	=5
4r	.	.	8c/L	.	8.ee\L	.	0.r	.	0.r	.	0.r	.	8.ee\L	to-	2.ryy	2.ryy
.	.	.	8e/	.	.	.	.	.	.	.	.	.	.	.	.	.
.	.	.	.	.	16cc\Jk	.	.	.	.	.	.	.	16cc\Jk	.	.	.
4C/	6	.	8c/	.	4a/	.	.	.	.	.	.	.	4a\	-to	.	.
.	.	.	8e/	.	.	.	.	.	.	.	.	.	.	.	.	.
4C/	.	.	8c/	.	8r	.	.	.	.	.	.	.	8r	.	.	.
.	.	.	8e/J	.	8a/	.	.	.	.	.	.	.	8a\	in	.	.
=6	=6	=6	=6	=6	=6	=6	=6	=6	=6	=6	=6	=6	=6	=6	=6	=6
4r	.	.	8d/L	.	8.ff\L	.	.	.	.	.	.	.	8.ff\L	to-	2.ryy	2.ryy
.	.	.	8f/	.	.	.	.	.	.	.	.	.	.	.	.	.
.	.	.	.	.	16dd\Jk	.	.	.	.	.	.	.	16dd\Jk	.	.	.
4D\	6	.	8d/	.	4b\	.	.	.	.	.	.	.	4b\	-to	.	.
.	.	.	8f/	.	.	.	.	.	.	.	.	.	.	.	.	.
!	!	!	!	!	!LO:LB:g=original	!	!	!	!	!	!	!	!	!	!	!
4D\	.	.	8d/	.	8r	.	.	.	.	.	.	.	8r	.	.	.
.	.	.	8f/J	.	8b\	.	.	.	.	.	.	.	8b\	in	.	.
=7	=7	=7	=7	=7	=7	=7	=7	=7	=7	=7	=7	=7	=7	=7	=7	=7
4r	.	.	8B/L	.	8dd\L	.	.	.	.	.	.	.	8dd\	to-	2.ryy	2.ryy
.	.	.	8d/	.	8b\J	.	.	.	.	.	.	.	8b\	-to	.	.
4E\	#	.	8B/	.	4.g#X/	.	.	.	.	.	.	.	4.g#X\	Cor-	.	.
.	.	.	8d/	.	.	.	.	.	.	.	.	.	.	.	.	.
4E\	.	.	8B/	.	.	.	.	.	.	.	.	.	.	.	.	.
.	.	.	8d/J	.	16a/LL	.	.	.	.	.	.	.	16a\LL	-de	.	.
.	.	.	.	.	16b/JJ	.	.	.	.	.	.	.	16b\JJ	.	.	.
!LO:LB:g=original	!	!	!	!	!	!	!	!	!	!	!	!	!	!	!	!
=8	=8	=8	=8	=8	=8	=8	=8	=8	=8	=8	=8	=8	=8	=8	=8	=8
4AA/	.	.	8c/L	.	8b/L	.	.	.	.	.	.	.	16b\KL	me-	2.ryy	2.ryy
.	.	.	.	.	.	.	.	.	.	.	.	.	8.a\J	.	.	.
.	.	.	8e/	.	8a/J	.	.	.	.	.	.	.	.	.	.	.
4A\	.	.	8c/	.	4a/	.	.	.	.	.	.	.	4a\	-o	.	.
.	.	.	8e/	.	.	.	.	.	.	.	.	.	.	.	.	.
4AA/	.	.	8c/	.	4ee\	.	.	.	.	.	.	.	4ee\	in	.	.
.	.	.	8e/J	.	.	.	.	.	.	.	.	.	.	.	.	.
*	*	*	*Xtremolo	*	*	*	*	*	*	*	*	*	*	*	*	*
!	!	!	!LO:LB:g=original	!	!	!	!	!	!	!	!	!	!	!	!	!
=9	=9	=9	=9	=9	=9	=9	=9	=9	=9	=9	=9	=9	=9	=9	=9	=9
2.C/	6	.	4a/	.	4ee\	.	0.r	.	0.r	.	4r	.	4ee\	Con-	2.ryy	2.ryy
*	*	*	*2\right	*	*	*	*	*	*	*	*2\right	*	*	*	*	*
.	.	.	2ee\	.	8ff\L	.	.	.	.	.	2ee\	In	8ff\L	-ſi-	.	.
.	.	.	.	.	8gg\	.	.	.	.	.	.	.	8gg\J	.	.	.
.	.	.	.	.	8aa\	.	.	.	.	.	.	.	8aa\L	-li-	.	.
.	.	.	.	.	8gg\J	.	.	.	.	.	.	.	8gg\J	.	.	.
!	!	!	!	!	!	!	!	!	!	!	!	!	!LO:LB:g=original	!	!	!
=10	=10	=10	=10	=10	=10	=10	=10	=10	=10	=10	=10	=10	=10	=10	=10	=10
*2\right	*	*	*	*	*2\right	*	*	*	*	*	*	*	*	*	*	*
2.D\	9	.	4ee\	.	2.ff\	.	.	.	.	.	4ee\	Con-	2.ff\	-o	2.ryy	2.ryy
.	x 3	.	8dd\L	.	.	.	.	.	.	.	8dd\L	-ſi-	.	.	.	.
.	8	.	8cc\	.	.	.	.	.	.	.	8cc\J	.	.	.	.	.
.	.	.	8b\	.	.	.	.	.	.	.	8b\L	-li-	.	.	.	.
.	.	.	8a\J	.	.	.	.	.	.	.	8a\J	.	.	.	.	.
=11	=11	=11	=11	=11	=11	=11	=11	=11	=11	=11	=11	=11	=11	=11	=11	=11
2.E\	9	.	2.g#X/	.	4ff\	.	.	.	.	.	2g#X\	-o	4ff\	.	2.ryy	2.ryy
.	x #	.	.	.	8ee\L	.	.	.	.	.	.	.	8ee\L	.	.	.
.	8	.	.	.	8dd\	.	.	.	.	.	.	.	8dd\	.	.	.
.	.	.	.	.	8cc\	.	.	.	.	.	4g#\	Juſ-	8cc\	Juſ-	.	.
.	.	.	.	.	8b\J	.	.	.	.	.	.	.	8b\J	.	.	.
=12	=12	=12	=12	=12	=12	=12	=12	=12	=12	=12	=12	=12	=12	=12	=12	=12
4A\	3	.	8b/L	.	8dd\L	.	.	.	.	.	8b\L	-to-	8dd\L	-to-	2.ryy	2.ryy
.	.	.	8a/J	.	8cc\J	.	.	.	.	.	8a\J	.	8cc\J	.	.	.
4AA/	.	.	4a/	.	4cc\	.	.	.	.	.	4a\	-rum	4cc\	-rum	.	.
4r	.	.	4r	.	4aa\ 4cc\	.	.	.	.	.	4cc\	e(t)	4aa\	et	.	.
=13	=13	=13	=13	=13	=13	=13	=13	=13	=13	=13	=13	=13	=13	=13	=13	=13
8AA/L	8 3	.	2.r	.	8aa\ 8cc\	.	0.r	.	0.r	.	2cc\	Con-	2aa\	Con-	2.ryy	2.ryy
16C/L	_ _	.	.	.	4aa\ 4cc\	.	.	.	.	.	.	.	.	.	.	.
16E/JJ	.	.	.	.	.	.	.	.	.	.	.	.	.	.	.	.
8A\L	.	.	.	.	.	.	.	.	.	.	.	.	.	.	.	.
8G#X\	.	.	.	.	4aa\ 4cc\	.	.	.	.	.	.	.	.	.	.	.
8F\	.	.	.	.	.	.	.	.	.	.	4cc\	-gre-	4aa\	-gre-	.	.
8E\J	.	.	.	.	8aa\ 8cc\	.	.	.	.	.	.	.	.	.	.	.
!	!	!	!	!	!LO:LB:g=original	!	!	!	!	!	!LO:LB:g=original	!	!	!	!	!
=14	=14	=14	=14	=14	=14	=14	=14	=14	=14	=14	=14	=14	=14	=14	=14	=14
4.F\	.	.	8A/L	.	8aa\ 8cc\	.	.	.	.	.	2cc\	-ga-	2aa\	-ga-	2.ryy	2.ryy
.	.	.	16c/L	.	4aa\ 4cc\	.	.	.	.	.	.	.	.	.	.	.
.	.	.	16f/JJ	.	.	.	.	.	.	.	.	.	.	.	.	.
.	.	.	8a/L	.	.	.	.	.	.	.	.	.	.	.	.	.
8E\L	.	.	8g/	.	4aa\ 4cc\	.	.	.	.	.	.	.	.	.	.	.
8D\	.	.	8f/	.	.	.	.	.	.	.	4cc\	-ci-	4aa\	-ti-	.	.
8C\J	.	.	8e/J	.	8aa\ 8cc\	.	.	.	.	.	.	.	.	.	.	.
=15	=15	=15	=15	=15	=15	=15	=15	=15	=15	=15	=15	=15	=15	=15	=15	=15
8D\L	.	.	8f/L	.	8aa\ 8cc\	.	.	.	.	.	2.cc\	-o-	2.aa\	-o-	2.ryy	2.ryy
8C\	.	.	8e/	.	4aa\ 4cc\	.	.	.	.	.	.	.	.	.	.	.
8D\	.	.	8f/	.	.	.	.	.	.	.	.	.	.	.	.	.
8E\	.	.	8g#X/	.	4aa\ 4cc\	.	.	.	.	.	.	.	.	.	.	.
8F\	.	.	8a/	.	.	.	.	.	.	.	.	.	.	.	.	.
8D#X\J	.	.	8f#X/J	.	8aa\ 8cc\	.	.	.	.	.	.	.	.	.	.	.
=16	=16	=16	=16	=16	=16	=16	=16	=16	=16	=16	=16	=16	=16	=16	=16	=16
!	!	!	!	!	!LO:TX:a:i:t=Solo	!	!	!	!	!	!	!	!	!	!	!
4E\	_ #	.	4e/	.	4gg#X\ 4b\	.	.	.	.	.	4b\	-ne	4gg#X\	-ne	2.ryy	2.ryy
!	!	!	!LO:TX:a:i:t=Solo	!	!	!	!	!	!	!	!	!	!	!	!	!
!	!	!	!LO:TX:b:i:t=Verte Cito	!	!	!	!	!	!	!	!	!	!	!	!	!
4EE/	x	.	4g#X/ 4B/	.	8r	.	.	.	.	.	4r	.	4r	.	.	.
.	.	.	.	.	16ee\LL	.	.	.	.	.	.	.	.	.	.	.
.	.	.	.	.	16ff#X\JJ	.	.	.	.	.	.	.	.	.	.	.
4r	.	.	4r	.	16gg#\LL	.	.	.	.	.	4r	.	4r	.	.	.
.	.	.	.	.	16aa\	.	.	.	.	.	.	.	.	.	.	.
.	.	.	.	.	16bb\	.	.	.	.	.	.	.	.	.	.	.
.	.	.	.	.	16gg#\JJ	.	.	.	.	.	.	.	.	.	.	.
!	!	!	!LO:LB:g=original	!	!	!	!	!	!	!	!	!	!LO:LB:g=original	!	!	!
=17	=17	=17	=17	=17	=17	=17	=17	=17	=17	=17	=17	=17	=17	=17	=17	=17
!	!	!	!LO:TX:a:i:t=Solo	!	!	!	!	!	!	!	!LO:TX:a:t=12	!	!	!	!	!
4E\	#	.	4g#X/	.	8ff#X\L	.	0.r	.	0.r	.	0.r	.	0.r	.	2.ryy	2.ryy
.	.	.	.	.	8ee\J	.	.	.	.	.	.	.	.	.	.	.
4E\	_	.	4g#/	.	8r	.	.	.	.	.	.	.	.	.	.	.
.	.	.	.	.	8ee\	.	.	.	.	.	.	.	.	.	.	.
4E\	x	.	4g#/	.	16ee\LL	.	.	.	.	.	.	.	.	.	.	.
.	.	.	.	.	16dd#X\	.	.	.	.	.	.	.	.	.	.	.
.	.	.	.	.	16ee\	.	.	.	.	.	.	.	.	.	.	.
.	.	.	.	.	16ff#\JJ	.	.	.	.	.	.	.	.	.	.	.
=18	=18	=18	=18	=18	=18	=18	=18	=18	=18	=18	=18	=18	=18	=18	=18	=18
8E\L	.	.	8g#X/L	.	8ee\L	.	.	.	.	.	.	.	.	.	2.ryy	2.ryy
8F#X\J	6\ 3	.	8a/J	.	8dd#X\J	.	.	.	.	.	.	.	.	.	.	.
4F#\	_ _	.	4a/	.	8r	.	.	.	.	.	.	.	.	.	.	.
.	.	.	.	.	16dd#\LL	.	.	.	.	.	.	.	.	.	.	.
.	.	.	.	.	16ee\JJ	.	.	.	.	.	.	.	.	.	.	.
4r	x	.	4r	.	16ff#X\LL	.	.	.	.	.	.	.	.	.	.	.
.	.	.	.	.	16gg\	.	.	.	.	.	.	.	.	.	.	.
.	.	.	.	.	16aa\	.	.	.	.	.	.	.	.	.	.	.
.	.	.	.	.	16ff#\JJ	.	.	.	.	.	.	.	.	.	.	.
!	!	!	!	!	!LO:LB:g=original	!	!	!	!	!	!	!	!	!	!	!
=19	=19	=19	=19	=19	=19	=19	=19	=19	=19	=19	=19	=19	=19	=19	=19	=19
4G#X\	5 3	.	4b/	.	8ee\L	.	.	.	.	.	.	.	.	.	2.ryy	2.ryy
.	.	.	.	.	8ddn\J	.	.	.	.	.	.	.	.	.	.	.
4G#\	_ _	.	4b/	.	8r	.	.	.	.	.	.	.	.	.	.	.
.	.	.	.	.	8dd\	.	.	.	.	.	.	.	.	.	.	.
4G#\	x	.	4b/	.	16dd\LL	.	.	.	.	.	.	.	.	.	.	.
.	.	.	.	.	16cc#X\	.	.	.	.	.	.	.	.	.	.	.
.	.	.	.	.	16dd\	.	.	.	.	.	.	.	.	.	.	.
.	.	.	.	.	16ee\JJ	.	.	.	.	.	.	.	.	.	.	.
=20	=20	=20	=20	=20	=20	=20	=20	=20	=20	=20	=20	=20	=20	=20	=20	=20
!LO:SIC:o:v=8G#\L	!	!	!	!	!	!	!	!	!	!	!	!	!	!	!	!
8G\L	.	.	4e/	.	8dd\L	.	.	.	.	.	.	.	.	.	2.ryy	2.ryy
8A\J	3	.	.	.	8cc#X\J	.	.	.	.	.	.	.	.	.	.	.
4A\	_	.	4e/	.	8r	.	.	.	.	.	.	.	.	.	.	.
.	.	.	.	.	16cc#\LL	.	.	.	.	.	.	.	.	.	.	.
.	.	.	.	.	16ee\JJ	.	.	.	.	.	.	.	.	.	.	.
4r	x	.	4r	.	16dd\LL	.	.	.	.	.	.	.	.	.	.	.
.	.	.	.	.	16cc#\	.	.	.	.	.	.	.	.	.	.	.
.	.	.	.	.	16b\	.	.	.	.	.	.	.	.	.	.	.
.	.	.	.	.	16a\JJ	.	.	.	.	.	.	.	.	.	.	.
!LO:LB:g=original	!	!	!	!	!	!	!	!	!	!	!	!	!	!	!	!
=21	=21	=21	=21	=21	=21	=21	=21	=21	=21	=21	=21	=21	=21	=21	=21	=21
2.B\	6\ 3	.	2.d/	.	8a/L	.	0.r	.	0.r	.	0.r	.	0.r	.	2.ryy	2.ryy
.	.	.	.	.	8g#X/J	.	.	.	.	.	.	.	.	.	.	.
.	.	.	.	.	8r	.	.	.	.	.	.	.	.	.	.	.
.	.	.	.	.	8g#/L	.	.	.	.	.	.	.	.	.	.	.
.	.	.	.	.	8g#/	.	.	.	.	.	.	.	.	.	.	.
.	.	.	.	.	8g#/J	.	.	.	.	.	.	.	.	.	.	.
=22	=22	=22	=22	=22	=22	=22	=22	=22	=22	=22	=22	=22	=22	=22	=22	=22
!	!	!	!	!	!LO:TX:t=P:problem=mixed beam	!	!	!	!	!	!	!	!	!	!	!
2.c#X\	5n 3	.	2.e/	.	8ee\L	.	.	.	.	.	.	.	.	.	2.ryy	2.ryy
.	.	.	.	.	8gn/J	.	.	.	.	.	.	.	.	.	.	.
.	.	.	.	.	8r	.	.	.	.	.	.	.	.	.	.	.
.	.	.	.	.	8g/L	.	.	.	.	.	.	.	.	.	.	.
.	.	.	.	.	8g/	.	.	.	.	.	.	.	.	.	.	.
.	.	.	.	.	8g/J	.	.	.	.	.	.	.	.	.	.	.
=23	=23	=23	=23	=23	=23	=23	=23	=23	=23	=23	=23	=23	=23	=23	=23	=23
2d\	3	.	2.f#X/	.	8f#X/L	.	.	.	.	.	.	.	.	.	2.ryy	2.ryy
.	.	.	.	.	16g/L	.	.	.	.	.	.	.	.	.	.	.
.	6	.	.	.	16a#X/JJ	.	.	.	.	.	.	.	.	.	.	.
.	.	.	.	.	8b/L	.	.	.	.	.	.	.	.	.	.	.
.	.	.	.	.	8a#/	.	.	.	.	.	.	.	.	.	.	.
4d#X\	6 5	.	.	.	8b/	.	.	.	.	.	.	.	.	.	.	.
.	.	.	.	.	8an/J	.	.	.	.	.	.	.	.	.	.	.
!	!	!	!	!	!LO:LB:g=original	!	!	!	!	!	!	!	!	!	!	!
=24	=24	=24	=24	=24	=24	=24	=24	=24	=24	=24	=24	=24	=24	=24	=24	=24
4e\	#	.	4B/	.	16g#X\LL	.	.	.	.	.	.	.	.	.	2.ryy	2.ryy
.	.	.	.	.	16b\	.	.	.	.	.	.	.	.	.	.	.
.	.	.	.	.	16cc#X\	.	.	.	.	.	.	.	.	.	.	.
.	.	.	.	.	16dd#X\JJ	.	.	.	.	.	.	.	.	.	.	.
4r	.	.	4r	.	16ee\LL	.	.	.	.	.	.	.	.	.	.	.
.	.	.	.	.	16ff#X\	.	.	.	.	.	.	.	.	.	.	.
.	.	.	.	.	16gg\	.	.	.	.	.	.	.	.	.	.	.
.	.	.	.	.	16aa\JJ	.	.	.	.	.	.	.	.	.	.	.
4r	.	.	4r	.	16bb\LL	.	.	.	.	.	.	.	.	.	.	.
.	.	.	.	.	16gg\	.	.	.	.	.	.	.	.	.	.	.
.	.	.	.	.	16ee\	.	.	.	.	.	.	.	.	.	.	.
.	.	.	.	.	16b\JJ	.	.	.	.	.	.	.	.	.	.	.
=25	=25	=25	=25	=25	=25	=25	=25	=25	=25	=25	=25	=25	=25	=25	=25	=25
8r	.	.	8r	.	16g#X/LL	.	0.r	.	0.r	.	0.r	.	0.r	.	2.ryy	2.ryy
.	.	.	.	.	16e/	.	.	.	.	.	.	.	.	.	.	.
8E\L	x #	.	8e/L	.	16g#/	.	.	.	.	.	.	.	.	.	.	.
.	.	.	.	.	16b/JJ	.	.	.	.	.	.	.	.	.	.	.
8D#X\	6 5	.	8f#X/	.	16b/LL	.	.	.	.	.	.	.	.	.	.	.
.	.	.	.	.	16a/J	.	.	.	.	.	.	.	.	.	.	.
8E\	x #	.	8e/	.	8g#/J	.	.	.	.	.	.	.	.	.	.	.
8D#\	6 5	.	8f#/	.	16b/LL	.	.	.	.	.	.	.	.	.	.	.
.	.	.	.	.	16a/J	.	.	.	.	.	.	.	.	.	.	.
8E\J	x #	.	8e/J	.	8g#/J	.	.	.	.	.	.	.	.	.	.	.
=26	=26	=26	=26	=26	=26	=26	=26	=26	=26	=26	=26	=26	=26	=26	=26	=26
8D#X\L	6 5	.	8f#X/L	.	16b/LL	.	.	.	.	.	.	.	.	.	2.ryy	2.ryy
.	.	.	.	.	16a/J	.	.	.	.	.	.	.	.	.	.	.
8E\J	x #	.	8e/J	.	8g#X/J	.	.	.	.	.	.	.	.	.	.	.
4D#\	6 5	.	4f#/	.	16f#X/LL	.	.	.	.	.	.	.	.	.	.	.
.	.	.	.	.	16b/	.	.	.	.	.	.	.	.	.	.	.
.	.	.	.	.	16dd#X/	.	.	.	.	.	.	.	.	.	.	.
.	.	.	.	.	16ff#X/JJ	.	.	.	.	.	.	.	.	.	.	.
4r	.	.	4r	.	16aa\LL	.	.	.	.	.	.	.	.	.	.	.
.	.	.	.	.	16ff#\	.	.	.	.	.	.	.	.	.	.	.
.	.	.	.	.	16dd#\	.	.	.	.	.	.	.	.	.	.	.
.	.	.	.	.	16b\JJ	.	.	.	.	.	.	.	.	.	.	.
=27	=27	=27	=27	=27	=27	=27	=27	=27	=27	=27	=27	=27	=27	=27	=27	=27
8r	.	.	8r	.	16a/LL	.	.	.	.	.	.	.	.	.	2.ryy	2.ryy
.	.	.	.	.	16f#X/	.	.	.	.	.	.	.	.	.	.	.
8D#X\L	6 5	.	8f#X/L	.	16b/	.	.	.	.	.	.	.	.	.	.	.
.	.	.	.	.	16a/JJ	.	.	.	.	.	.	.	.	.	.	.
8E\	x #	.	8e/	.	8g#X/L	.	.	.	.	.	.	.	.	.	.	.
8D#\	6 5	.	8f#/	.	16b/L	.	.	.	.	.	.	.	.	.	.	.
.	.	.	.	.	16a/JJ	.	.	.	.	.	.	.	.	.	.	.
!	!	!	!	!	!LO:LB:g=original	!	!	!	!	!	!	!	!	!	!	!
8E\	x #	.	8e/	.	8g#y/L	.	.	.	.	.	.	.	.	.	.	.
8D#\J	6 5	.	8f#/J	.	16b/L	.	.	.	.	.	.	.	.	.	.	.
.	.	.	.	.	16a/JJ	.	.	.	.	.	.	.	.	.	.	.
!	!	!	!LO:LB:g=original	!	!	!	!	!	!	!	!	!	!	!	!	!
=28	=28	=28	=28	=28	=28	=28	=28	=28	=28	=28	=28	=28	=28	=28	=28	=28
8E\L	x #	.	8e/L	.	8g#X/L	.	.	.	.	.	.	.	.	.	2.ryy	2.ryy
8D#X\	6 5	.	8f#X/	.	16b/L	.	.	.	.	.	.	.	.	.	.	.
.	.	.	.	.	16a/JJ	.	.	.	.	.	.	.	.	.	.	.
8E\	x #	.	8e/	.	8g#/L	.	.	.	.	.	.	.	.	.	.	.
8D#\	6 5	.	8f#/	.	16b/L	.	.	.	.	.	.	.	.	.	.	.
.	.	.	.	.	16a/JJ	.	.	.	.	.	.	.	.	.	.	.
8E\	x #	.	8e/	.	8g#X/L	.	.	.	.	.	.	.	.	.	.	.
8Dn\J	5 3	.	8f#/J	.	16a/L	.	.	.	.	.	.	.	.	.	.	.
.	6 n	.	.	.	16b/JJ	.	.	.	.	.	.	.	.	.	.	.
=29	=29	=29	=29	=29	=29	=29	=29	=29	=29	=29	=29	=29	=29	=29	=29	=29
*	*	*	*	*	*	*	*	*	*2\right	*	*	*	*	*	*	*
4C/	5n	.	8.e/L	.	8.cc\L	.	4C/	Ma-	2c\	Ma-	2gn\	Ma-	2ee\	Ma-	2.ryy	2.ryy
.	.	.	32gn/LL	.	32ee\LL	.	.	.	.	.	.	.	.	.	.	.
.	.	.	32f/JJJ	.	32dd\JJJ	.	.	.	.	.	.	.	.	.	.	.
8E\L	_	.	4e/	.	4cc\	.	8E\L	.	.	.	.	.	.	.	.	.
8C\	.	.	.	.	.	.	8C\J	.	.	.	.	.	.	.	.	.
8E\	.	.	4r	.	4r	.	8E\L	-gna	4c\	-gna	4g\	-gna	4ee\	-gna	.	.
8Gn\J	x	.	.	.	.	.	8G\J	.	.	.	.	.	.	.	.	.
=30	=30	=30	=30	=30	=30	=30	=30	=30	=30	=30	=30	=30	=30	=30	=30	=30
4c\	.	.	8.c/L	.	8.e/L	.	8c\	o-	8c\	o-	8g\	o-	8ee\	o-	2.ryy	2.ryy
.	.	.	.	.	.	.	8c\	-pe-	8c\	-pe-	8g\	-pe-	8ee\	-pe-	.	.
.	.	.	32e/LL	.	32g/LL	.	.	.	.	.	.	.	.	.	.	.
.	.	.	32d/JJJ	.	32f/JJJ	.	.	.	.	.	.	.	.	.	.	.
4C/	.	.	16c/LL	.	16e/LL	.	4C/	-ra	4c\	-ra	4g\	-ra	4ee\	-ra	.	.
.	.	.	16d/	.	16f/	.	.	.	.	.	.	.	.	.	.	.
.	.	.	16e/	.	16g/	.	.	.	.	.	.	.	.	.	.	.
.	.	.	16f/JJ	.	16a/JJ	.	.	.	.	.	.	.	.	.	.	.
4r	.	.	16g\LL	.	16b\LL	.	4r	.	4r	.	4r	.	4r	.	.	.
.	.	.	16a\	.	16cc\	.	.	.	.	.	.	.	.	.	.	.
.	.	.	16b\	.	16dd\	.	.	.	.	.	.	.	.	.	.	.
.	.	.	16cc\JJ	.	16ee\JJ	.	.	.	.	.	.	.	.	.	.	.
!LO:LB:g=original	!	!	!	!	!	!	!	!	!	!	!	!	!	!	!	!
=31	=31	=31	=31	=31	=31	=31	=31	=31	=31	=31	=31	=31	=31	=31	=31	=31
!LO:TX:t=P:problem=mixed beam	!	!	!	!	!	!	!	!	!	!	!	!	!	!	!	!
8G\L	.	.	8.b\L	.	8.dd\L	.	8G\	Do-	8B\	Do-	8g\	Do-	8dd\	Do-	2.ryy	2.ryy
8GG/	.	.	.	.	.	.	8G\	-mi-	8B\	-mi-	8g\	-mi-	8dd\	-mi-	.	.
.	.	.	32dd\LL	.	32ff\LL	.	.	.	.	.	.	.	.	.	.	.
.	.	.	32cc\JJJ	.	32ee\JJJ	.	.	.	.	.	.	.	.	.	.	.
!	!	!	!	!	!	!	!LO:LB:g=original	!	!	!	!	!	!	!	!	!
8BB/	.	.	4b\	.	4dd\	.	8B\L	-ni	4B\	-ni	4g\	-ni	4dd\	-ni	.	.
8GG/	.	.	.	.	.	.	8G\J	.	.	.	.	.	.	.	.	.
8BB/	.	.	4r	.	4r	.	8B\L	ex-	4B\	ex-	4g\	ex-	4dd\	ex-	.	.
8D/J	.	.	.	.	.	.	8d\J	.	.	.	.	.	.	.	.	.
!	!	!	!	!	!	!	!	!	!LO:LB:g=original	!	!LO:LB:g=original	!	!	!	!	!
=32	=32	=32	=32	=32	=32	=32	=32	=32	=32	=32	=32	=32	=32	=32	=32	=32
4G\	.	.	8.B/L	.	8.d/L	.	8G\	-qui-	8B\	-qui-	8g\	-qui-	8dd\	-qui-	2.ryy	2.ryy
.	.	.	.	.	.	.	8G\	-ſi-	8B\	-ſi-	8g\	-ſi-	8dd\	-ſi-	.	.
.	.	.	32d/LL	.	32f/LL	.	.	.	.	.	.	.	.	.	.	.
.	.	.	32c/JJJ	.	32e/JJJ	.	.	.	.	.	.	.	.	.	.	.
!	!	!	!	!	!LO:LB:g=original	!	!	!	!	!	!	!	!	!	!	!
4GG/	.	.	16B/LL	.	16d/LL	.	4G\	-ta	4B\	-ta	4g\	-ta	4dd\	-ta	.	.
.	.	.	16c/	.	16e/	.	.	.	.	.	.	.	.	.	.	.
.	.	.	16d/	.	16f/	.	.	.	.	.	.	.	.	.	.	.
.	.	.	16e/JJ	.	16g/JJ	.	.	.	.	.	.	.	.	.	.	.
4r	.	.	16f/LL	.	16a\LL	.	4r	.	4r	.	4r	.	4r	.	.	.
.	.	.	16g/	.	16b\	.	.	.	.	.	.	.	.	.	.	.
.	.	.	16a/	.	16cc\	.	.	.	.	.	.	.	.	.	.	.
.	.	.	16b/JJ	.	16dd\JJ	.	.	.	.	.	.	.	.	.	.	.
!	!	!	!	!	!	!	!	!	!	!	!	!	!LO:LB:g=original	!	!	!
=33	=33	=33	=33	=33	=33	=33	=33	=33	=33	=33	=33	=33	=33	=33	=33	=33
*	*	*	*	*	*	*	*2\right	*	*	*	*	*	*	*	*	*
!LO:TX:t=P:problem=mixed beam	!	!	!	!	!	!	!	!	!	!	!	!	!	!	!	!
8C/L	8 3	.	16g\LL	.	4ee\	.	2.c\	in	2.c\	in	2.g\	in	2.ee\	in	2.ryy	2.ryy
.	.	.	16cc\	.	.	.	.	.	.	.	.	.	.	.	.	.
8c\	_ _	.	16g\	.	.	.	.	.	.	.	.	.	.	.	.	.
.	.	.	16cc\JJ	.	.	.	.	.	.	.	.	.	.	.	.	.
*	*	*	*rep	*	*	*	*	*	*	*	*	*	*	*	*	*
8c\	.	.	16g\LL	.	8r	.	.	.	.	.	.	.	.	.	.	.
.	.	.	16cc\	.	.	.	.	.	.	.	.	.	.	.	.	.
8c\	.	.	16g\	.	8ee\	.	.	.	.	.	.	.	.	.	.	.
.	.	.	16cc\JJ	.	.	.	.	.	.	.	.	.	.	.	.	.
*	*	*	*Xrep	*	*	*	*	*	*	*	*	*	*	*	*	*
*	*	*	*rep	*	*	*	*	*	*	*	*	*	*	*	*	*
8c\	.	.	16g\LL	.	16ee\LL	.	.	.	.	.	.	.	.	.	.	.
.	.	.	16cc\	.	16dd\	.	.	.	.	.	.	.	.	.	.	.
8c\J	.	.	16g\	.	16ee\	.	.	.	.	.	.	.	.	.	.	.
.	.	.	16cc\JJ	.	16ff\JJ	.	.	.	.	.	.	.	.	.	.	.
*	*	*	*Xrep	*	*	*	*	*	*	*	*	*	*	*	*	*
=34	=34	=34	=34	=34	=34	=34	=34	=34	=34	=34	=34	=34	=34	=34	=34	=34
*tremolo	*	*	*tremolo	*	*	*	*	*	*	*	*	*	*	*	*	*
8A\L	.	.	16a\LL	.	4ee\	.	2A\	om-	2c\	om-	2a\	om-	2ee\	om-	2.ryy	2.ryy
.	.	.	16cc\	.	.	.	.	.	.	.	.	.	.	.	.	.
8A\	.	.	16a\	.	.	.	.	.	.	.	.	.	.	.	.	.
.	.	.	16cc\	.	.	.	.	.	.	.	.	.	.	.	.	.
8A\	.	.	16a\	.	8r	.	.	.	.	.	.	.	.	.	.	.
.	.	.	16cc\	.	.	.	.	.	.	.	.	.	.	.	.	.
8A\	.	.	16a\	.	8ee\	.	.	.	.	.	.	.	.	.	.	.
.	.	.	16cc\	.	.	.	.	.	.	.	.	.	.	.	.	.
8A\	.	.	16a\	.	16ee\LL	.	4A\	-nes	4c\	-nes	4a\	-neſ	4ee\	-nes	.	.
.	.	.	16cc\	.	16dd\	.	.	.	.	.	.	.	.	.	.	.
8A\J	.	.	16a\	.	16ee\	.	.	.	.	.	.	.	.	.	.	.
.	.	.	16cc\JJ	.	16ff\JJ	.	.	.	.	.	.	.	.	.	.	.
!	!	!	!LO:LB:g=original	!	!	!	!	!	!	!	!	!	!	!	!	!
=35	=35	=35	=35	=35	=35	=35	=35	=35	=35	=35	=35	=35	=35	=35	=35	=35
8F#X\L	.	.	16a\LL	.	4ee\	.	8F#X\	Vo-	8c\	Vo-	8a\	Vo-	8ee\	Vo-	2.ryy	2.ryy
.	.	.	16cc\	.	.	.	.	.	.	.	.	.	.	.	.	.
8F#\	.	.	16a\	.	.	.	8F#\	-lun-	8c\	-lun-	8a\	-lun-	8ee\	-lun-	.	.
.	.	.	16cc\	.	.	.	.	.	.	.	.	.	.	.	.	.
8F#\	.	.	16a\	.	8r	.	4F#\	-ta-	4c\	-ta-	4a\	-ta-	4ee\	-ta-	.	.
.	.	.	16cc\	.	.	.	.	.	.	.	.	.	.	.	.	.
8F#\	.	.	16a\	.	16dd\LL	.	.	.	.	.	.	.	.	.	.	.
.	.	.	16cc\	.	16ee\JJ	.	.	.	.	.	.	.	.	.	.	.
8F#\	.	.	16a\	.	16ff\LL	.	4F#\	-taſ	4c\	-tis	4a\	-teſ	4ee\	-teſ	.	.
.	.	.	16cc\	.	16ee\	.	.	.	.	.	.	.	.	.	.	.
8F#\J	.	.	16a\	.	16dd\	.	.	.	.	.	.	.	.	.	.	.
.	x	.	16cc\JJ	.	16ee\JJ	.	.	.	.	.	.	.	.	.	.	.
*Xtremolo	*	*	*Xtremolo	*	*	*	*	*	*	*	*	*	*	*	*	*
=36	=36	=36	=36	=36	=36	=36	=36	=36	=36	=36	=36	=36	=36	=36	=36	=36
4G\	6 4	.	8.cc\L	.	8.ee\L	.	4G\	e-	4c\	e-	4g\	e-	4ee\	e-	2.ryy	2.ryy
.	.	.	32b\LL	.	32dd\LL	.	.	.	.	.	.	.	.	.	.	.
.	.	.	32cc\JJJ	.	32ee\JJJ	.	.	.	.	.	.	.	.	.	.	.
4GG/	5 3	.	8b\L	.	8dd\L	.	4G\	-jus	4B\	-jus	4g\	-juſ	4dd\	-juſ	.	.
.	.	.	8g\	.	8g\	.	.	.	.	.	.	.	.	.	.	.
4r	.	.	8a\	.	8b\	.	4r	.	4r	.	4r	.	4r	.	.	.
.	.	.	8b\J	.	8dd\J	.	.	.	.	.	.	.	.	.	.	.
!	!	!	!	!	!LO:LB:g=original	!	!LO:LB:g=original	!	!	!	!	!	!	!	!	!
=37	=37	=37	=37	=37	=37	=37	=37	=37	=37	=37	=37	=37	=37	=37	=37	=37
!LO:TX:t=P:problem=mixed beam	!	!	!	!	!	!	!	!	!	!	!	!	!	!	!	!
8GG/L	3	.	16d/LL	.	8gg\L	.	4G\	Con-	4B\	Con-	4g\	Con-	4dd\	Con-	2.ryy	2.ryy
.	.	.	16g/	.	.	.	.	.	.	.	.	.	.	.	.	.
8GG/	.	.	16d/	.	16b\L	.	.	.	.	.	.	.	.	.	.	.
.	.	.	16g/JJ	.	16cc\JJ	.	.	.	.	.	.	.	.	.	.	.
*	*	*	*rep	*	*	*	*	*	*	*	*	*	*	*	*	*
8G\	_	.	16d/LL	.	8b/L	.	4G\	-feſ-	4B\	-feſ-	4g\	-feſ-	4dd\	-feſ-	.	.
.	.	.	16g/	.	.	.	.	.	.	.	.	.	.	.	.	.
8G\	.	.	16d/	.	8g/	.	.	.	.	.	.	.	.	.	.	.
.	.	.	16g/JJ	.	.	.	.	.	.	.	.	.	.	.	.	.
*	*	*	*Xrep	*	*	*	*	*	*	*	*	*	*	*	*	*
*	*	*	*rep	*	*	*	*	*	*	*	*	*	*	*	*	*
8Fn\	.	.	16d/LL	.	8a/	.	4Fn\	-ſi-	4B\	-si-	4g\	-si-	4dd\	-ſi-	.	.
.	.	.	16g/	.	.	.	.	.	.	.	.	.	.	.	.	.
8F\J	.	.	16d/	.	8b/J	.	.	.	.	.	.	.	.	.	.	.
.	x	.	16g/JJ	.	.	.	.	.	.	.	.	.	.	.	.	.
*	*	*	*Xrep	*	*	*	*	*	*	*	*	*	*	*	*	*
!	!	!	!	!	!	!	!	!	!LO:LB:g=original	!	!LO:LB:g=original	!	!	!	!	!
=38	=38	=38	=38	=38	=38	=38	=38	=38	=38	=38	=38	=38	=38	=38	=38	=38
8E\L	6	.	16e/LL	.	4.cc\	.	8E\	-o	8c\	-o	8g\	-o	8ee\	-o	2.ryy	2.ryy
.	.	.	16g/	.	.	.	.	.	.	.	.	.	.	.	.	.
8E\	.	.	16e/	.	.	.	8E\	e(t)	8c\	e(t)	8g\	e(t)	8ee\	et	.	.
.	.	.	16g/JJ	.	.	.	.	.	.	.	.	.	.	.	.	.
8D\	7	.	16f/LL	.	.	.	4D\	ma-	8c\L	ma-	4g\	ma-	4ff\	ma-	.	.
.	6	.	16g/	.	.	.	.	.	.	.	.	.	.	.	.	.
*	*	*	*	*	*Xtuplet	*	*	*	*	*	*	*	*	*	*	*
8D\	.	.	16f/	.	24dd\LL	.	.	.	8B\J	.	.	.	.	.	.	.
.	.	.	.	.	24cc\	.	.	.	.	.	.	.	.	.	.	.
.	.	.	16g/JJ	.	.	.	.	.	.	.	.	.	.	.	.	.
.	.	.	.	.	24b\JJ	.	.	.	.	.	.	.	.	.	.	.
!	!	!	!	!	!	!	!	!	!	!	!	!	!LO:LB:g=original	!	!	!
8C\	.	.	16e/LL	.	8cc\L	.	8C/	-gni-	8c\	-gni-	8g\	-gni-	8ee\	-gni-	.	.
.	.	.	16g/	.	.	.	.	.	.	.	.	.	.	.	.	.
8C\J	.	.	16e/	.	8ee\J	.	8C/	-fi-	8c\	-fi-	8g\	-fi-	8ee\	-fi-	.	.
.	.	.	16g/JJ	.	.	.	.	.	.	.	.	.	.	.	.	.
=39	=39	=39	=39	=39	=39	=39	=39	=39	=39	=39	=39	=39	=39	=39	=39	=39
*	*	*	*tremolo	*	*	*	*	*	*	*	*	*	*	*	*	*
!LO:TX:t=P:problem=mixed beam	!	!	!	!	!	!	!	!	!	!	!	!	!	!	!	!
8GG/L	3	.	16d/LL	.	8gg\L	.	4.G\	-cen-	4.B\	-cen-	4.g\	-cen-	4.dd\	-cen-	2.ryy	2.ryy
.	.	.	16g/	.	.	.	.	.	.	.	.	.	.	.	.	.
8GG/	.	.	16d/	.	16b\L	.	.	.	.	.	.	.	.	.	.	.
.	.	.	16g/	.	16cc\JJ	.	.	.	.	.	.	.	.	.	.	.
8G\	_	.	16d/	.	8b/L	.	.	.	.	.	.	.	.	.	.	.
.	.	.	16g/	.	.	.	.	.	.	.	.	.	.	.	.	.
8G\	.	.	16d/	.	8g/	.	8G\	-ti-	8B\	-ti-	8g\	-ti-	8dd\	-ti-	.	.
.	.	.	16g/	.	.	.	.	.	.	.	.	.	.	.	.	.
8F\	.	.	16d/	.	8a/	.	4F\	-a	4B\	-a	4g\	-a	4dd\	-a	.	.
.	.	.	16g/	.	.	.	.	.	.	.	.	.	.	.	.	.
!LO:TX:b:i:t=Verte	!	!	!	!	!	!	!	!	!	!	!	!	!	!	!	!
8F\J	.	.	16d/	.	8b/J	.	.	.	.	.	.	.	.	.	.	.
.	x	.	16g/JJ	.	.	.	.	.	.	.	.	.	.	.	.	.
*	*	*	*Xtremolo	*	*	*	*	*	*	*	*	*	*	*	*	*
!LO:PB:g=original	!	!	!	!	!	!	!	!	!	!	!	!	!	!	!	!
=40	=40	=40	=40	=40	=40	=40	=40	=40	=40	=40	=40	=40	=40	=40	=40	=40
8E\L	6	.	16e/LL	.	4.cc\	.	4E\	o-	4.c\	o-	2g\	o-	4ee\	o-	2.ryy	2.ryy
.	.	.	16g/	.	.	.	.	.	.	.	.	.	.	.	.	.
8E\	.	.	16e/	.	.	.	.	.	.	.	.	.	.	.	.	.
.	.	.	16g/JJ	.	.	.	.	.	.	.	.	.	.	.	.	.
8D\	7	.	16f/LL	.	.	.	4D\	.	.	.	.	.	4ff\	.	.	.
.	.	.	16g/	.	.	.	.	.	.	.	.	.	.	.	.	.
8D\	6	.	16f/	.	24dd\LL	.	.	.	8B\	-pus	.	.	.	.	.	.
.	.	.	.	.	24cc\	.	.	.	.	.	.	.	.	.	.	.
.	.	.	16g/JJ	.	.	.	.	.	.	.	.	.	.	.	.	.
.	.	.	.	.	24b\JJ	.	.	.	.	.	.	.	.	.	.	.
8C\	.	.	16e/LL	.	8cc\L	.	4C\	-puſ	4c\	e-	4g\	-puſ	4ee\	-puſ	.	.
.	.	.	16g/	.	.	.	.	.	.	.	.	.	.	.	.	.
8C\J	.	.	16e/	.	8ee\J	.	.	.	.	.	.	.	.	.	.	.
.	.	.	16g/JJ	.	.	.	.	.	.	.	.	.	.	.	.	.
=41	=41	=41	=41	=41	=41	=41	=41	=41	=41	=41	=41	=41	=41	=41	=41	=41
4G\	6 4	.	8.cc\L	.	8.ee\L	.	4G\	e-	4c\	-jus	4g\	e-	4ee\	e-	2.ryy	2.ryy
.	.	.	32dd\LL	.	32dd\LL	.	.	.	.	.	.	.	.	.	.	.
.	.	.	32cc\JJJ	.	32ee\JJJ	.	.	.	.	.	.	.	.	.	.	.
!LO:TX:t=P:problem=mixed beam	!	!	!	!	!	!	!	!	!	!	!	!	!	!	!	!
8GG/L	5 3	.	8b\L	.	16dd\LL	.	8G\	-jus	8B\	(et)	8g\	-jus	8dd\	-juſ	.	.
.	.	.	.	.	16gg\	.	.	.	.	.	.	.	.	.	.	.
8G\	x 3	.	8b\	.	16aa\	.	8G\L	e(t)	4d\	Juſ-	8b\L	e(t)	8gg\L	et	.	.
.	.	.	.	.	16gg\JJ	.	.	.	.	.	.	.	.	.	.	.
8A\	6\ 3	.	8cc\	.	16gg\LL	.	8A\J	.	.	.	8cc\	.	8ff#X\J	.	.	.
.	.	.	.	.	16ff#X\	.	.	.	.	.	.	.	.	.	.	.
8B\J	5n 3	.	8dd\J	.	16dd\	.	8B\	Juſ-	8G/	.	8dd\J	Jus-	8ffn\	Jus-	.	.
.	.	.	.	.	16ffn\JJ	.	.	.	.	.	.	.	.	.	.	.
!	!	!	!	!	!	!	!LO:LB:g=original	!	!	!	!LO:LB:g=original	!	!	!	!	!
=42	=42	=42	=42	=42	=42	=42	=42	=42	=42	=42	=42	=42	=42	=42	=42	=42
8c\L	3	.	16cc\LL	.	8.ee\L	.	4.c\	-ti-	4.G/	-ti-	4.cc\	-ti-	4.ee\	-ti-	2.ryy	2.ryy
.	.	.	16ee\	.	.	.	.	.	.	.	.	.	.	.	.	.
16e\L	_	.	16cc\	.	.	.	.	.	.	.	.	.	.	.	.	.
16d\JJ	.	.	16ee\JJ	.	16ccc\Jk	.	.	.	.	.	.	.	.	.	.	.
*	*	*	*rep	*	*	*	*	*	*	*	*	*	*	*	*	*
8c\L	8 3	.	16cc\LL	.	8r	.	.	.	.	.	.	.	.	.	.	.
.	.	.	16ee\	.	.	.	.	.	.	.	.	.	.	.	.	.
8e\	_ _	.	16cc\	.	8ccc\	.	8c\	-ti-	8G/	-ti-	8cc\	-ti-	8ee\	-ti-	.	.
.	.	.	16ee\JJ	.	.	.	.	.	.	.	.	.	.	.	.	.
*	*	*	*Xrep	*	*	*	*	*	*	*	*	*	*	*	*	*
!	!	!	!	!	!LO:LB:g=original	!	!	!	!LO:LB:g=original	!	!	!	!	!	!	!
*	*	*	*rep	*	*	*	*	*	*	*	*	*	*	*	*	*
!	!	!	!	!	!	!	!	!	!	!	!	!	!LO:TX:b:t=Verte.	!	!	!
8c\	.	.	16cc\LL	.	16ddd\LL	.	8c\L	-a	4G/	-a	4cc\	-a	4ee\	-a	.	.
.	.	.	16ee\	.	16ccc\	.	.	.	.	.	.	.	.	.	.	.
8B\J	.	.	16cc\	.	16bb\	.	8B\J	.	.	.	.	.	.	.	.	.
.	.	.	16ee\JJ	.	16ccc\JJ	.	.	.	.	.	.	.	.	.	.	.
*	*	*	*Xrep	*	*	*	*	*	*	*	*	*	*	*	*	*
!	!	!	!	!	!	!	!	!	!	!	!	!	!LO:PB:g=original	!	!	!
=43	=43	=43	=43	=43	=43	=43	=43	=43	=43	=43	=43	=43	=43	=43	=43	=43
*	*	*	*tremolo	*	*	*	*	*	*	*	*	*	*	*	*	*
8A\L	.	.	16cc\LL	.	8.ee\L	.	2A\	e-	2A\	e-	2cc\	e-	2ee\	e-	2.ryy	2.ryy
.	.	.	16ee\	.	.	.	.	.	.	.	.	.	.	.	.	.
16c\L	.	.	16cc\	.	.	.	.	.	.	.	.	.	.	.	.	.
16B\JJ	.	.	16ee\	.	16ccc\Jk	.	.	.	.	.	.	.	.	.	.	.
8A\L	.	.	16cc\	.	8r	.	.	.	.	.	.	.	.	.	.	.
.	.	.	16ee\	.	.	.	.	.	.	.	.	.	.	.	.	.
8c\	.	.	16cc\	.	8ccc\	.	.	.	.	.	.	.	.	.	.	.
.	.	.	16ee\	.	.	.	.	.	.	.	.	.	.	.	.	.
8A\	.	.	16cc\	.	16ddd\LL	.	8A\L	-jus	4A\	-jus	4cc\	-jus	4ee\	-jus	.	.
.	.	.	16ee\	.	16ccc\	.	.	.	.	.	.	.	.	.	.	.
8G\J	.	.	16cc\	.	16bb\	.	8G\J	.	.	.	.	.	.	.	.	.
.	.	.	16ee\JJ	.	16ccc\JJ	.	.	.	.	.	.	.	.	.	.	.
!	!	!	!LO:LB:g=original	!	!	!	!	!	!	!	!	!	!	!	!	!
=44	=44	=44	=44	=44	=44	=44	=44	=44	=44	=44	=44	=44	=44	=44	=44	=44
8F\L	.	.	16cc\LL	.	8.ee\L	.	4F\	ma-	4A\	ma-	4cc\	ma-	4ee\	ma-	2.ryy	2.ryy
.	.	.	16ee\	.	.	.	.	.	.	.	.	.	.	.	.	.
16A\L	.	.	16cc\	.	.	.	.	.	.	.	.	.	.	.	.	.
16G\JJ	.	.	16ee\	.	16ccc\Jk	.	.	.	.	.	.	.	.	.	.	.
8F\L	.	.	16cc\	.	8r	.	4F\	-net	4A\	-net	4cc\	-net	4ee\	-net	.	.
.	.	.	16ee\	.	.	.	.	.	.	.	.	.	.	.	.	.
8G\	.	.	16cc\	.	8ccc\	.	.	.	.	.	.	.	.	.	.	.
.	.	.	16ee\	.	.	.	.	.	.	.	.	.	.	.	.	.
8A\	.	.	16cc\	.	16ddd\LL	.	4F\	in	4A\	in	4cc\	in	4ee\	in	.	.
.	.	.	16ee\	.	16ccc\	.	.	.	.	.	.	.	.	.	.	.
8F\J	x	.	16cc\	.	16bb\	.	.	.	.	.	.	.	.	.	.	.
.	.	.	16ee\JJ	.	16ccc\JJ	.	.	.	.	.	.	.	.	.	.	.
*	*	*	*Xtremolo	*	*	*	*	*	*	*	*	*	*	*	*	*
=45	=45	=45	=45	=45	=45	=45	=45	=45	=45	=45	=45	=45	=45	=45	=45	=45
8G\L	4	.	16cc\LL	.	16dd\LL	.	4.G\	S(ae)-	4.G/	S(ae)-	4.cc\	Se-	4.dd\	ſe-	2.ryy	2.ryy
.	.	.	16cc\	.	16dd\	.	.	.	.	.	.	.	.	.	.	.
8G\	.	.	16dd\	.	16ccc\	.	.	.	.	.	.	.	.	.	.	.
.	.	.	16dd\JJ	.	16ccc\JJ	.	.	.	.	.	.	.	.	.	.	.
*	*	*	*rep	*	*rep	*	*	*	*	*	*	*	*	*	*	*
8G\	.	.	16cc\LL	.	16dd\LL	.	.	.	.	.	.	.	.	.	.	.
.	.	.	16cc\	.	16dd\	.	.	.	.	.	.	.	.	.	.	.
8G\	.	.	16dd\	.	16ccc\	.	8G\	-cu-	8G/	-cu-	8cc\	-cu-	8dd\	-cu-	.	.
.	.	.	16dd\JJ	.	16ccc\JJ	.	.	.	.	.	.	.	.	.	.	.
*	*	*	*Xrep	*	*Xrep	*	*	*	*	*	*	*	*	*	*	*
*	*	*	*rep	*	*rep	*	*	*	*	*	*	*	*	*	*	*
8G\	.	.	16cc\LL	.	16dd\LL	.	4G\	-lum	4G/	-lum	4cc\	-lum	4dd\	-lum	.	.
.	.	.	16cc\	.	16dd\	.	.	.	.	.	.	.	.	.	.	.
8G\J	.	.	16dd\	.	16ccc\	.	.	.	.	.	.	.	.	.	.	.
.	.	.	16dd\JJ	.	16ccc\JJ	.	.	.	.	.	.	.	.	.	.	.
*	*	*	*Xrep	*	*Xrep	*	*	*	*	*	*	*	*	*	*	*
=46	=46	=46	=46	=46	=46	=46	=46	=46	=46	=46	=46	=46	=46	=46	=46	=46
*tremolo	*	*	*	*	*	*	*	*	*	*	*	*	*	*	*	*
8GG/L	3	.	16b\LL	.	16dd\LL	.	2G\	Se-	2G/	Se-	2b\	Se-	2dd\	ſe-	2.ryy	2.ryy
.	.	.	16b\	.	16dd\	.	.	.	.	.	.	.	.	.	.	.
8GG/	.	.	16dd\	.	16bb\	.	.	.	.	.	.	.	.	.	.	.
.	.	.	16dd\JJ	.	16bb\JJ	.	.	.	.	.	.	.	.	.	.	.
*	*	*	*rep	*	*rep	*	*	*	*	*	*	*	*	*	*	*
8GG/	.	.	16b\LL	.	16dd\LL	.	.	.	.	.	.	.	.	.	.	.
.	.	.	16b\	.	16dd\	.	.	.	.	.	.	.	.	.	.	.
8GG/	.	.	16dd\	.	16bb\	.	.	.	.	.	.	.	.	.	.	.
.	.	.	16dd\JJ	.	16bb\JJ	.	.	.	.	.	.	.	.	.	.	.
*	*	*	*Xrep	*	*Xrep	*	*	*	*	*	*	*	*	*	*	*
*	*	*	*rep	*	*rep	*	*	*	*	*	*	*	*	*	*	*
8GG/	.	.	16b\LL	.	16dd\LL	.	4G\	-cu-	4G/	-cu-	4b\	-cu-	4dd\	-cu-	.	.
.	.	.	16b\	.	16dd\	.	.	.	.	.	.	.	.	.	.	.
8GG/J	.	.	16dd\	.	16bb\	.	.	.	.	.	.	.	.	.	.	.
.	.	.	16dd\JJ	.	16bb\JJ	.	.	.	.	.	.	.	.	.	.	.
*Xtremolo	*	*	*Xrep	*	*Xrep	*	*	*	*	*	*	*	*	*	*	*
!	!	!	!	!	!LO:PB:g=original	!	!	!	!	!	!	!	!	!	!	!
=47	=47	=47	=47	=47	=47	=47	=47	=47	=47	=47	=47	=47	=47	=47	=47	=47
!LO:TX:a:i:t=Solo	!	!	!	!	!	!	!	!	!	!	!LO:TX:b:i:t=Verte.	!	!	!	!	!
4C/	.	.	4ee\	.	4ccc\ 4ee\ 4g\	.	4C/	-li	4G/	-li	4cc\	-li	4ee\	-li	2.ryy	2.ryy
4r	.	.	4ee\	.	8r	.	4r	.	4r	.	4r	.	4r	.	.	.
!	!	!	!	!	!LO:TX:rj:a:i:t=Solo	!	!	!	!	!	!	!	!	!	!	!
.	.	.	.	.	8gg\	.	.	.	.	.	.	.	.	.	.	.
8r	.	.	8r	.	16ff\LL	.	4r	.	4r	.	4r	.	4r	.	.	.
.	.	.	.	.	16ee\	.	.	.	.	.	.	.	.	.	.	.
8C/	.	.	8e/	.	16dd\	.	.	.	.	.	.	.	.	.	.	.
.	.	.	.	.	16cc\JJ	.	.	.	.	.	.	.	.	.	.	.
!LO:LB:g=original	!	!	!	!	!LO:LB:g=original	!	!	!	!	!LO:LB:g=original	!	!	!	!	!	!
=48	=48	=48	=48	=48	=48	=48	=48	=48	=48	=48	=48	=48	=48	=48	=48	=48
!	!	!	!	!	!	!	!	!	!	!	!LO:TX:a:t=3	!	!LO:TX:a:t=18	!	!	!
4D/	7 3	.	4f/	.	8.cc\L	.	0.r	.	1.r	.	1.r	.	0.r	.	2.ryy	2.ryy
.	.	.	.	.	32dd\LL	.	.	.	.	.	.	.	.	.	.	.
.	.	.	.	.	32cc\JJJ	.	.	.	.	.	.	.	.	.	.	.
4D/	6 _	.	4f/	.	8b\L	.	.	.	.	.	.	.	.	.	.	.
.	.	.	.	.	16gg\L	.	.	.	.	.	.	.	.	.	.	.
.	x	.	.	.	16aa\JJ	.	.	.	.	.	.	.	.	.	.	.
8r	.	.	8r	.	16gg\LL	.	.	.	.	.	.	.	.	.	.	.
.	.	.	.	.	16ff\	.	.	.	.	.	.	.	.	.	.	.
8BB/	6 5	.	8f/	.	16ee\	.	.	.	.	.	.	.	.	.	.	.
.	.	.	.	.	16dd\JJ	.	.	.	.	.	.	.	.	.	.	.
=49	=49	=49	=49	=49	=49	=49	=49	=49	=49	=49	=49	=49	=49	=49	=49	=49
4C/	9 4	.	8.f/L	.	8.dd\L	.	.	.	.	.	.	.	.	.	2.ryy	2.ryy
.	.	.	32g/LL	.	32ee\LL	.	.	.	.	.	.	.	.	.	.	.
.	.	.	32f/JJJ	.	32dd\JJJ	.	.	.	.	.	.	.	.	.	.	.
4CC/	8 3	.	4e/	.	16cc\LL	.	.	.	.	.	.	.	.	.	.	.
.	.	.	.	.	16dd\	.	.	.	.	.	.	.	.	.	.	.
.	.	.	.	.	16ee\	.	.	.	.	.	.	.	.	.	.	.
.	.	.	.	.	16ff\JJ	.	.	.	.	.	.	.	.	.	.	.
8r	.	.	8r	.	16gg\LL	.	.	.	.	.	.	.	.	.	.	.
.	.	.	.	.	16aa\	.	.	.	.	.	.	.	.	.	.	.
8E\	6	.	8gg\	.	16bb\	.	.	.	.	.	.	.	.	.	.	.
.	.	.	.	.	16ccc\JJ	.	.	.	.	.	.	.	.	.	.	.
=50	=50	=50	=50	=50	=50	=50	=50	=50	=50	=50	=50	=50	=50	=50	=50	=50
4F\	6	.	8ff\L	.	8aa\L	.	.	.	2.r	.	2.r	.	.	.	2.ryy	2.ryy
.	.	.	16ee\L	.	16gg\L	.	.	.	.	.	.	.	.	.	.	.
.	.	.	16dd\JJ	.	16ff\JJ	.	.	.	.	.	.	.	.	.	.	.
!	!	!	!LO:TX:t=P:problem=mixed beam	!	!	!	!	!	!	!	!	!	!	!	!	!
4G\	6 4	.	8cc\L	.	8ee\L	.	.	.	.	.	.	.	.	.	.	.
.	.	.	8ee\	.	8gg\	.	.	.	.	.	.	.	.	.	.	.
4GG/	5 3	.	8g/	.	8b\	.	.	.	.	.	.	.	.	.	.	.
.	.	.	8f/J	.	8dd\J	.	.	.	.	.	.	.	.	.	.	.
=51	=51	=51	=51	=51	=51	=51	=51	=51	=51	=51	=51	=51	=51	=51	=51	=51
!	!	!	!	!	!	!	!	!	!LO:TX:rj:a:i:t=Solo.	!	!LO:TX:a:i:t=Solo.	!	!	!	!	!
4C/	.	.	4e/	.	8cc/L	.	.	.	2.c\	Me-	2.e\	Me-	.	.	2.ryy	2.ryy
.	.	.	.	.	8g/	.	.	.	.	.	.	.	.	.	.	.
4r	.	.	8c/L	.	8e/	.	.	.	.	.	.	.	.	.	.	.
.	.	.	8e/	.	8g/	.	.	.	.	.	.	.	.	.	.	.
4r	.	.	8c/	.	8e/	.	.	.	.	.	.	.	.	.	.	.
.	.	.	8e/J	.	8g/J	.	.	.	.	.	.	.	.	.	.	.
!	!	!	!	!	!LO:LB:g=original	!	!	!	!LO:LB:g=original	!	!	!	!	!	!	!
=52	=52	=52	=52	=52	=52	=52	=52	=52	=52	=52	=52	=52	=52	=52	=52	=52
*	*	*	*tremolo	*	*tremolo	*	*	*	*	*	*	*	*	*	*	*
4G\	.	.	8B/L	.	8d/L	.	0.r	.	4.d\	-mo-	4.f\	-mo-	0.r	.	2.ryy	2.ryy
.	.	.	8d/	.	8g/	.	.	.	.	.	.	.	.	.	.	.
4r	.	.	8B/	.	8d/	.	.	.	.	.	.	.	.	.	.	.
.	.	.	8d/	.	8g/	.	.	.	8c\	-ri-	8e\	-ri-	.	.	.	.
4r	.	.	8B/	.	8d/	.	.	.	4d\	-am	4f\	-am	.	.	.	.
.	.	.	8d/J	.	8g/J	.	.	.	.	.	.	.	.	.	.	.
*	*	*	*Xtremolo	*	*Xtremolo	*	*	*	*	*	*	*	*	*	*	*
!	!	!	!LO:LB:g=original	!	!	!	!	!	!	!	!	!	!	!	!	!
=53	=53	=53	=53	=53	=53	=53	=53	=53	=53	=53	=53	=53	=53	=53	=53	=53
4C/	.	.	8c/L	.	8e/L	.	.	.	4.e\	fe-	4.g\	fe-	.	.	2.ryy	2.ryy
.	.	.	8e/	.	8g/	.	.	.	.	.	.	.	.	.	.	.
4G\	6 4	.	8c/	.	8e/	.	.	.	.	.	.	.	.	.	.	.
.	.	.	8e/	.	8g/	.	.	.	8c\	.	8e\	.	.	.	.	.
4GG/	5 3	.	8B/	.	8d/	.	.	.	16e\LL	.	16g\LL	.	.	.	.	.
.	.	.	.	.	.	.	.	.	16d\	.	16f\	.	.	.	.	.
.	.	.	8d/J	.	8f/J	.	.	.	16c\	.	16e\	.	.	.	.	.
.	.	.	.	.	.	.	.	.	16B\JJ	.	16d\JJ	.	.	.	.	.
=54	=54	=54	=54	=54	=54	=54	=54	=54	=54	=54	=54	=54	=54	=54	=54	=54
*	*	*	*tremolo	*	*tremolo	*	*	*	*	*	*	*	*	*	*	*
4C/	.	.	8c/L	.	8e/L	.	.	.	4c\	-cit	4e\	-cit	.	.	2.ryy	2.ryy
.	.	.	8e/	.	8g/	.	.	.	.	.	.	.	.	.	.	.
4r	.	.	8c/	.	8e/	.	.	.	8c\L	mi-	8e\L	mi-	.	.	.	.
.	.	.	8e/	.	8g/	.	.	.	8B\J	.	8d\J	.	.	.	.	.
4r	.	.	8c/	.	8e/	.	.	.	8c\L	-ra-	8e\L	-ra-	.	.	.	.
.	.	.	8e/J	.	8g/J	.	.	.	8d\J	.	8f\J	.	.	.	.	.
*	*	*	*	*	*Xtremolo	*	*	*	*	*	*	*	*	*	*	*
=55	=55	=55	=55	=55	=55	=55	=55	=55	=55	=55	=55	=55	=55	=55	=55	=55
4C/	.	.	8c/L	.	8e/L	.	.	.	4.e\	-bi-	4.g\	-bi-	.	.	2.ryy	2.ryy
.	.	.	8e/	.	8g/	.	.	.	.	.	.	.	.	.	.	.
4G\	6 4	.	8c/	.	8e/	.	.	.	.	.	.	.	.	.	.	.
.	.	.	8e/J	.	8g/	.	.	.	8c\	-li-	8e\	-li-	.	.	.	.
*	*	*	*Xtremolo	*	*	*	*	*	*	*	*	*	*	*	*	*
4GG/	5 3	.	8B/L	.	8d/	.	.	.	16e\LL	-um	16g\LL	-um	.	.	.	.
.	.	.	.	.	.	.	.	.	16d\JJ	.	16f\	.	.	.	.	.
.	.	.	8d/J	.	8f/J	.	.	.	16c\LL	ſu-	16e\	.	.	.	.	.
.	.	.	.	.	.	.	.	.	16B\JJ	.	16d\JJ	Su-	.	.	.	.
!	!	!	!	!	!	!	!	!	!	!	!LO:LB:g=original	!	!	!	!	!
=56	=56	=56	=56	=56	=56	=56	=56	=56	=56	=56	=56	=56	=56	=56	=56	=56
8C/L	.	.	4.G/	.	8e/L	.	0.r	.	8d\L	-o-	8f\L	-o-	0.r	.	2.ryy	2.ryy
16C/L	.	.	.	.	16e/L	.	.	.	8c\J	.	8e\J	.	.	.	.	.
16BB/JJ	.	.	.	.	16d/JJ	.	.	.	.	.	.	.	.	.	.	.
!LO:TX:t=P:problem=mixed beam	!	!	!	!	!	!	!	!	!	!	!	!	!	!	!	!
8C/L	.	.	.	.	8e/L	.	.	.	4c\	-rum	4e\	-rum	.	.	.	.
8c\	.	.	8cc/L	.	8cc/	.	.	.	.	.	.	.	.	.	.	.
8G\	.	.	8g/	.	8g/	.	.	.	4r	.	4r	.	.	.	.	.
8E\J	.	.	8e/J	.	8e/J	.	.	.	.	.	.	.	.	.	.	.
!LO:LB:g=original	!	!	!	!	!	!	!	!LO:LB:g=original	!	!	!	!	!	!	!	!
=57	=57	=57	=57	=57	=57	=57	=57	=57	=57	=57	=57	=57	=57	=57	=57	=57
8C/L	.	.	8c/L	.	8c/L	.	.	.	4c\	mi-	4e\	Mi-	.	.	2.ryy	2.ryy
8BB/	.	.	8B/	.	8B/	.	.	.	.	.	.	.	.	.	.	.
8C/	.	.	8c/	.	8c/	.	.	.	4c\	-ſe-	4e\	-ſe-	.	.	.	.
8D/J	.	.	8d/	.	8d/	.	.	.	.	.	.	.	.	.	.	.
8E\L	.	.	8e/	.	8e/	.	.	.	4c\	-ri-	4e\	-ri-	.	.	.	.
8F#X\J	.	.	8f#X/J	.	8f#X/J	.	.	.	.	.	.	.	.	.	.	.
!	!	!	!	!	!LO:LB:g=original	!	!	!	!	!	!	!	!	!	!	!
=58	=58	=58	=58	=58	=58	=58	=58	=58	=58	=58	=58	=58	=58	=58	=58	=58
!LO:TX:t=P:problem=mixed beam	!	!	!	!	!	!	!	!	!	!	!	!	!	!	!	!
8G\L	3	.	8g/L	.	8g/L	.	.	.	2B\	-cors	2d\	-cors	.	.	2.ryy	2.ryy
8GG/	.	.	8G/	.	8G/	.	.	.	.	.	.	.	.	.	.	.
8BB/	.	.	8B/	.	8B/	.	.	.	.	.	.	.	.	.	.	.
8D/J	_	.	8d/	.	8d/	.	.	.	.	.	.	.	.	.	.	.
8G\L	.	.	8g/	.	8g/	.	.	.	4B\	e(t)	4d\	e(t)	.	.	.	.
8Fn\J	x	.	8fn/J	.	8fn/J	.	.	.	.	.	.	.	.	.	.	.
=59	=59	=59	=59	=59	=59	=59	=59	=59	=59	=59	=59	=59	=59	=59	=59	=59
8E\L	6	.	8e/L	.	8e/L	.	.	.	2c\	mi-	2e\	mi-	.	.	2.ryy	2.ryy
16G\L	.	.	16g/L	.	16g/L	.	.	.	.	.	.	.	.	.	.	.
16E\JJ	_	.	16e/JJ	.	16e/JJ	.	.	.	.	.	.	.	.	.	.	.
8C\L	.	.	8c/L	.	8c/L	.	.	.	.	.	.	.	.	.	.	.
8D\	.	.	8d/	.	8d/	.	.	.	.	.	.	.	.	.	.	.
8E\	.	.	8e/	.	8e/	.	.	.	4c\	-ſe-	4e\	-ſe-	.	.	.	.
8F#X\J	x	.	8f#X/J	.	8f#X/J	.	.	.	.	.	.	.	.	.	.	.
=60	=60	=60	=60	=60	=60	=60	=60	=60	=60	=60	=60	=60	=60	=60	=60	=60
!LO:TX:t=P:problem=mixed beam	!	!	!	!	!	!	!	!	!	!	!	!	!	!	!	!
8G\L	3	.	8g/L	.	8g/L	.	0.r	.	2B\	-ra-	4d\	-ra-	0.r	.	2.ryy	2.ryy
8GG/	_	.	8G/	.	8G/	.	.	.	.	.	.	.	.	.	.	.
8BB/	.	.	8B/	.	8B/	.	.	.	.	.	2d\	-tor	.	.	.	.
8D/J	.	.	8d/	.	8d/	.	.	.	.	.	.	.	.	.	.	.
8G\L	x	.	8g/	.	8g/	.	.	.	4B\	-tor	.	.	.	.	.	.
8Fn\J	.	.	8fn/J	.	8fn/J	.	.	.	.	.	.	.	.	.	.	.
=61	=61	=61	=61	=61	=61	=61	=61	=61	=61	=61	=61	=61	=61	=61	=61	=61
8E\L	6	.	8e/L	.	8e/L	.	.	.	8c\	Do-	8e\	Do-	.	.	2.ryy	2.ryy
16G\L	.	.	16g/L	.	16g/L	.	.	.	8c\	-mi-	8e\	-mi-	.	.	.	.
16E\JJ	_	.	16e/JJ	.	16e/JJ	.	.	.	.	.	.	.	.	.	.	.
8C\L	.	.	8c/L	.	8c/L	.	.	.	4c\	-nus	4e\	-nus	.	.	.	.
8C\	.	.	8c/	.	8c/	.	.	.	.	.	.	.	.	.	.	.
8E\	.	.	8e/	.	8e/	.	.	.	4r	.	4r	.	.	.	.	.
8G\J	x	.	8g/J	.	8g/J	.	.	.	.	.	.	.	.	.	.	.
!	!	!	!LO:LB:g=original	!	!	!	!	!	!	!	!LO:LB:g=original	!	!	!	!	!
=62	=62	=62	=62	=62	=62	=62	=62	=62	=62	=62	=62	=62	=62	=62	=62	=62
4c\	.	.	4e/	.	4e/	.	.	.	4.e\	Es-	4.g\	Es-	.	.	2.ryy	2.ryy
4C/	.	.	4e/	.	4e/	.	.	.	.	.	.	.	.	.	.	.
.	.	.	.	.	.	.	.	.	16d\LL	-cam	16f\LL	-cam	.	.	.	.
.	.	.	.	.	.	.	.	.	16c\JJ	.	16e\JJ	.	.	.	.	.
4r	.	.	4r	.	4r	.	.	.	8f\L	.	8a\L	.	.	.	.	.
.	.	.	.	.	.	.	.	.	8e\J	.	8g\J	.	.	.	.	.
!	!	!	!	!	!	!	!	!	!LO:LB:g=original	!	!	!	!	!	!	!
=63	=63	=63	=63	=63	=63	=63	=63	=63	=63	=63	=63	=63	=63	=63	=63	=63
8r	.	.	8r	.	8r	.	.	.	4.e\	de-	4.g\	de-	.	.	2.ryy	2.ryy
8c\L	.	.	8c/L	.	4e/	.	.	.	.	.	.	.	.	.	.	.
8G\	8 6	.	8B/	.	.	.	.	.	.	.	.	.	.	.	.	.
8G#X\J	7 5	.	8B/	.	8d/	.	.	.	8d\	-dit	8f\	-dit	.	.	.	.
16A\LL	3	.	8c/	.	8e/L	.	.	.	4c\	ti-	4e\	ti-	.	.	.	.
16Gn\	_	.	.	.	.	.	.	.	.	.	.	.	.	.	.	.
16F\	.	.	8c/J	.	16f/L	.	.	.	.	.	.	.	.	.	.	.
16E\JJ	x	.	.	.	16g/JJ	.	.	.	.	.	.	.	.	.	.	.
!LO:LB:g=original	!	!	!	!	!LO:LB:g=original	!	!	!	!	!	!	!	!	!	!	!
=64	=64	=64	=64	=64	=64	=64	=64	=64	=64	=64	=64	=64	=64	=64	=64	=64
!LO:TX:t=P:problem=mixed beam	!	!	!	!	!	!	!	!	!	!	!	!	!	!	!	!
8F\L	6	.	8f/L	.	8a/L	.	1.r	.	8f\L	-men-	8a\L	-men-	1.r	.	2.ryy	2.ryy
8F\	_	.	16e/L	.	16g/L	.	.	.	16e\L	.	16g\L	.	.	.	.	.
.	.	.	16d/JJ	.	16f/JJ	.	.	.	16d\JJ	.	16f\JJ	.	.	.	.	.
8G\	6 4	.	4c/	.	4e/	.	.	.	4c\	-ti-	4e\	-ti-	.	.	.	.
8G\	.	.	.	.	.	.	.	.	.	.	.	.	.	.	.	.
8GG/	5 3	.	4B/	.	4d/	.	.	.	4B\	-buſ	4d\	-bus	.	.	.	.
8GG\J	.	.	.	.	.	.	.	.	.	.	.	.	.	.	.	.
=65	=65	=65	=65	=65	=65	=65	=65	=65	=65	=65	=65	=65	=65	=65	=65	=65
4C/	.	.	8c/L	.	8e/L	.	.	.	4c\	ſe	4e\	ſe	.	.	2.ryy	2.ryy
.	.	.	8c/	.	8e/	.	.	.	.	.	.	.	.	.	.	.
4r	.	.	8d/	.	8f/	.	.	.	4r	.	4r	.	.	.	.	.
.	.	.	8e/J	.	8g/	.	.	.	.	.	.	.	.	.	.	.
4r	.	.	8f/L	.	8a/	.	.	.	4r	.	4r	.	.	.	.	.
.	.	.	16g/L	.	8b/J	.	.	.	.	.	.	.	.	.	.	.
.	.	.	16f/JJ	.	.	.	.	.	.	.	.	.	.	.	.	.
!	!	!	!	!	!	!	!	!	!	!	!	!	!LO:LB:g=original	!	!	!
=66	=66	=66	=66	=66	=66	=66	=66	=66	=66	=66	=66	=66	=66	=66	=66	=66
!LO:TX:a:i:t=tutti	!	!	!	!	!	!	!	!	!	!	!	!	!	!	!	!
8C/L	.	.	16e/LL	.	2cc\	.	2c\	ut	2c\	ut	2g\	ut	2ee\	ut	2.ryy	2.ryy
.	.	.	16g/	.	.	.	.	.	.	.	.	.	.	.	.	.
8C/	.	.	16e/	.	.	.	.	.	.	.	.	.	.	.	.	.
.	.	.	16g/JJ	.	.	.	.	.	.	.	.	.	.	.	.	.
*	*	*	*rep	*	*	*	*	*	*	*	*	*	*	*	*	*
8C/	.	.	16e/LL	.	.	.	.	.	.	.	.	.	.	.	.	.
.	.	.	16g/	.	.	.	.	.	.	.	.	.	.	.	.	.
8C/	.	.	16e/	.	.	.	.	.	.	.	.	.	.	.	.	.
.	.	.	16g/JJ	.	.	.	.	.	.	.	.	.	.	.	.	.
*	*	*	*Xrep	*	*	*	*	*	*	*	*	*	*	*	*	*
*	*	*	*rep	*	*	*	*	*	*	*	*	*	*	*	*	*
8C/	.	.	16e/LL	.	16ee\LL	.	4c\	det	4c\	det	4g\	det	4ee\	det	.	.
.	.	.	16g/	.	16dd\	.	.	.	.	.	.	.	.	.	.	.
8C/J	.	.	16e/	.	16ee\	.	.	.	.	.	.	.	.	.	.	.
.	.	.	16g/JJ	.	16ff\JJ	.	.	.	.	.	.	.	.	.	.	.
*	*	*	*Xrep	*	*	*	*	*	*	*	*	*	*	*	*	*
!	!	!	!	!	!	!	!	!	!	!	!LO:LB:g=original	!	!	!	!	!
=67	=67	=67	=67	=67	=67	=67	=67	=67	=67	=67	=67	=67	=67	=67	=67	=67
*tremolo	*	*	*tremolo	*	*	*	*	*	*	*	*	*	*	*	*	*
8C/L	.	.	16e/LL	.	8.gg\L	.	4c\	il-	4c\	il-	4g\	il-	4ee\	il-	2.ryy	2.ryy
.	.	.	16g/	.	.	.	.	.	.	.	.	.	.	.	.	.
8C/	.	.	16e/	.	.	.	.	.	.	.	.	.	.	.	.	.
.	.	.	16g/	.	32aa\LL	.	.	.	.	.	.	.	.	.	.	.
.	.	.	.	.	32gg\JJJ	.	.	.	.	.	.	.	.	.	.	.
8C/	.	.	16e/	.	4ee\	.	4c\	-lis	4c\	-lis	4g\	-liſ	4ee\	-liſ	.	.
.	.	.	16g/	.	.	.	.	.	.	.	.	.	.	.	.	.
8C/	.	.	16e/	.	.	.	.	.	.	.	.	.	.	.	.	.
.	.	.	16g/	.	.	.	.	.	.	.	.	.	.	.	.	.
8C/	.	.	16e/	.	8r	.	4c\	he-	4c\	he-	4g\	he-	4ee\	he-	.	.
.	.	.	16g/	.	.	.	.	.	.	.	.	.	.	.	.	.
8C/J	.	.	16e/	.	8gg\	.	.	.	.	.	.	.	.	.	.	.
.	.	.	16g/JJ	.	.	.	.	.	.	.	.	.	.	.	.	.
*Xtremolo	*	*	*	*	*	*	*	*	*	*	*	*	*	*	*	*
=68	=68	=68	=68	=68	=68	=68	=68	=68	=68	=68	=68	=68	=68	=68	=68	=68
8C/L	6 4	.	16f/LL	.	4.aa\	.	8c\	-re-	8c\	-re-	8a\	-re-	8ff\	-re-	2.ryy	2.ryy
.	.	.	16a/	.	.	.	.	.	.	.	.	.	.	.	.	.
8C/	.	.	16f/	.	.	.	8c\	-di-	8c\	-di-	8a\	-di-	8ff\	-di-	.	.
.	.	.	16a/	.	.	.	.	.	.	.	.	.	.	.	.	.
8C/	.	.	16f/	.	.	.	4c\	-ta-	4c\	-ta-	4a\	-ta-	4ff\	-ta-	.	.
.	_ _	.	16a/	.	.	.	.	.	.	.	.	.	.	.	.	.
8C/	.	.	16f/	.	16ccc\LL	.	.	.	.	.	.	.	.	.	.	.
.	.	.	16a/	.	16bb\JJ	.	.	.	.	.	.	.	.	.	.	.
8C/	.	.	16f/	.	16ddd\LL	.	4c\	-tem	4c\	-tem	4a\	-tem	4ff\	-tem	.	.
.	.	.	16a/	.	16ccc\	.	.	.	.	.	.	.	.	.	.	.
8C/J	.	.	16f/	.	16bb\	.	.	.	.	.	.	.	.	.	.	.
.	.	.	16a/JJ	.	16aa\JJ	.	.	.	.	.	.	.	.	.	.	.
*	*	*	*Xtremolo	*	*	*	*	*	*	*	*	*	*	*	*	*
!	!	!	!	!	!	!	!	!	!LO:PB:g=original	!	!	!	!	!	!	!
=69	=69	=69	=69	=69	=69	=69	=69	=69	=69	=69	=69	=69	=69	=69	=69	=69
4C/	.	.	8.f/L	.	8.aa\L	.	8c\	gen-	8c\	gen-	8a\	gen-	8ff\	gen-	2.ryy	2.ryy
.	x	.	.	.	.	.	8c\	-ti-	8c\	-ti-	8a\	-ti-	8ff\	-ti-	.	.
.	.	.	32e/LL	.	32gg\LL	.	.	.	.	.	.	.	.	.	.	.
.	.	.	32f/JJJ	.	32aa\JJJ	.	.	.	.	.	.	.	.	.	.	.
4CC/	5 3	.	8e/L	.	8gg\L	.	4C/	-um	4c\	-um	4g\	-um	4ee\	-um	.	.
.	.	.	8c/	.	16ccc\L	.	.	.	.	.	.	.	.	.	.	.
.	.	.	.	.	16bb\JJ	.	.	.	.	.	.	.	.	.	.	.
4r	.	.	8e/	.	16aa\LL	.	4r	.	4r	.	4r	.	4r	.	.	.
.	.	.	.	.	16gg\	.	.	.	.	.	.	.	.	.	.	.
.	.	.	8g/J	.	16ff\	.	.	.	.	.	.	.	.	.	.	.
.	.	.	.	.	16ee\JJ	.	.	.	.	.	.	.	.	.	.	.
!	!	!	!	!	!LO:LB:g=original	!	!LO:LB:g=original	!	!	!	!	!	!	!	!	!
=70	=70	=70	=70	=70	=70	=70	=70	=70	=70	=70	=70	=70	=70	=70	=70	=70
*tremolo	*	*	*	*	*	*	*	*	*	*	*	*	*	*	*	*
8BB/L	6 5	.	16d/LL	.	8.gg\L	.	4.B\	o-	4.d\	o-	4.g\	o-	4.ff\	o-	2.ryy	2.ryy
.	.	.	16g/	.	.	.	.	.	.	.	.	.	.	.	.	.
8BB/	.	.	16d/	.	.	.	.	.	.	.	.	.	.	.	.	.
.	.	.	16g/JJ	.	16ff\Jk	.	.	.	.	.	.	.	.	.	.	.
*	*	*	*rep	*	*	*	*	*	*	*	*	*	*	*	*	*
8BB/	.	.	16d/LL	.	4.ff\	.	.	.	.	.	.	.	.	.	.	.
.	.	.	16g/	.	.	.	.	.	.	.	.	.	.	.	.	.
8BB/	.	.	16d/	.	.	.	8B\	-pe-	8d\	-pe-	8g\	-pe-	8ff\	-pe-	.	.
.	.	.	16g/JJ	.	.	.	.	.	.	.	.	.	.	.	.	.
*	*	*	*Xrep	*	*	*	*	*	*	*	*	*	*	*	*	*
*	*	*	*rep	*	*	*	*	*	*	*	*	*	*	*	*	*
8BB/	.	.	16d/LL	.	.	.	4B\	-ra	4d\	-ra	4g\	-ra	4ff\	-ra	.	.
.	.	.	16g/	.	.	.	.	.	.	.	.	.	.	.	.	.
8BB/J	.	.	16d/	.	16ee\LL	.	.	.	.	.	.	.	.	.	.	.
.	.	.	16g/JJ	.	16dd\JJ	.	.	.	.	.	.	.	.	.	.	.
*	*	*	*Xrep	*	*	*	*	*	*	*	*	*	*	*	*	*
!	!	!	!	!	!	!	!	!	!	!	!	!	!LO:LB:g=original	!	!	!
=71	=71	=71	=71	=71	=71	=71	=71	=71	=71	=71	=71	=71	=71	=71	=71	=71
*	*	*	*tremolo	*	*	*	*	*	*	*	*	*	*	*	*	*
8C/L	.	.	16e/LL	.	8dd\L	.	4c\	ma-	4c\	ma-	4g\	ma-	4ee\	ma-	2.ryy	2.ryy
.	.	.	16g/	.	.	.	.	.	.	.	.	.	.	.	.	.
8C/	.	.	16e/	.	8cc\J	.	.	.	.	.	.	.	.	.	.	.
.	.	.	16g/	.	.	.	.	.	.	.	.	.	.	.	.	.
8C/	.	.	16e/	.	8r	.	4c\	-nu-	4c\	-nu-	4g\	-nu-	4ee\	-nu-	.	.
.	.	.	16g/	.	.	.	.	.	.	.	.	.	.	.	.	.
8C/	.	.	16e/	.	8cc\L	.	.	.	.	.	.	.	.	.	.	.
.	.	.	16g/	.	.	.	.	.	.	.	.	.	.	.	.	.
8C/	.	.	16e/	.	8ee\	.	4c\	-um	4c\	-um	4g\	-um	4ee\	-um	.	.
.	.	.	16g/	.	.	.	.	.	.	.	.	.	.	.	.	.
8C/J	.	.	16e/	.	8gg\J	.	.	.	.	.	.	.	.	.	.	.
.	.	.	16g/JJ	.	.	.	.	.	.	.	.	.	.	.	.	.
!	!	!	!LO:LB:g=original	!	!	!	!	!	!	!	!LO:LB:g=original	!	!	!	!	!
=72	=72	=72	=72	=72	=72	=72	=72	=72	=72	=72	=72	=72	=72	=72	=72	=72
8BB/L	6 5	.	16d/LL	.	8.gg\L	.	2B\	e-	2d\	e-	2g\	e-	2ff\	e-	2.ryy	2.ryy
.	.	.	16g/	.	.	.	.	.	.	.	.	.	.	.	.	.
8BB/	.	.	16d/	.	.	.	.	.	.	.	.	.	.	.	.	.
.	.	.	16g/	.	16ff\Jk	.	.	.	.	.	.	.	.	.	.	.
8BB/	.	.	16d/	.	4.ff\	.	.	.	.	.	.	.	.	.	.	.
.	.	.	16g/	.	.	.	.	.	.	.	.	.	.	.	.	.
8BB/	.	.	16d/	.	.	.	.	.	.	.	.	.	.	.	.	.
.	.	.	16g/	.	.	.	.	.	.	.	.	.	.	.	.	.
8BB/	.	.	16d/	.	.	.	4B\	-jus	4d\	-jus	4g\	-jus	4ff\	-juſ	.	.
.	.	.	16g/	.	.	.	.	.	.	.	.	.	.	.	.	.
8BB/J	.	.	16d/	.	16ee\LL	.	.	.	.	.	.	.	.	.	.	.
.	.	.	16g/JJ	.	16dd\JJ	.	.	.	.	.	.	.	.	.	.	.
*Xtremolo	*	*	*Xtremolo	*	*	*	*	*	*	*	*	*	*	*	*	*
!LO:LB:g=original	!	!	!	!	!	!	!	!	!	!	!	!	!	!	!	!
=73	=73	=73	=73	=73	=73	=73	=73	=73	=73	=73	=73	=73	=73	=73	=73	=73
8C/L	.	.	16e/LL	.	8dd\L	.	4c\	Ve-	4c\	Ve-	4g\	Ve-	4ee\	Ve-	2.ryy	2.ryy
.	.	.	16g/	.	.	.	.	.	.	.	.	.	.	.	.	.
8C/	.	.	16e/	.	8cc\J	.	.	.	.	.	.	.	.	.	.	.
.	.	.	16g/JJ	.	.	.	.	.	.	.	.	.	.	.	.	.
*	*	*	*rep	*	*	*	*	*	*	*	*	*	*	*	*	*
8C/	.	.	16e/LL	.	8r	.	4c\	-ri-	4c\	-ri-	4g\	-ri-	4ee\	-ri-	.	.
.	.	.	16g/	.	.	.	.	.	.	.	.	.	.	.	.	.
!	!	!	!	!	!	!LO:DY:rj:a	!	!	!	!	!	!	!	!	!	!
8C/	.	.	16e/	.	8cc\	f	.	.	.	.	.	.	.	.	.	.
.	.	.	16g/JJ	.	.	.	.	.	.	.	.	.	.	.	.	.
*	*	*	*Xrep	*	*	*	*	*	*	*	*	*	*	*	*	*
8E/	6	.	8e/L	.	16b\LL	.	4c\	-taſ	4c\	-tas	4g\	-tas	4ee\	-tas	.	.
.	.	.	.	.	16cc\	.	.	.	.	.	.	.	.	.	.	.
8E/J	.	.	8c/J	.	16ee\	.	.	.	.	.	.	.	.	.	.	.
.	.	.	.	.	16gg\JJ	.	.	.	.	.	.	.	.	.	.	.
=74	=74	=74	=74	=74	=74	=74	=74	=74	=74	=74	=74	=74	=74	=74	=74	=74
!LO:TX:t=P:problem=mixed beam	!	!	!	!	!	!	!	!	!	!	!	!	!	!	!	!
8F\L	6	.	8d/L	.	8ff\L	.	8F\	e(t)	8d\	(et)	8a\	e(t)	8ff\	et	2.ryy	2.ryy
8F\	_	.	8f/	.	16ee\L	.	8F\	Ju-	8d\	Ju-	8a\	Ju-	8ff\	Ju-	.	.
.	.	.	.	.	16dd\JJ	.	.	.	.	.	.	.	.	.	.	.
8G\	6 4	.	8e/	.	8cc\L	.	4G\	-di-	4c\	-di-	4g\	-di-	4ee\	-di-	.	.
8G\	.	.	8g/J	.	8ee\J	.	.	.	.	.	.	.	.	.	.	.
!	!	!	!	!	!	!	!	!	!LO:LB:g=original	!	!	!	!	!	!	!
8GG/	5 3	.	8f/L	.	8g/L	.	4GG/	-ci-	4B\	-ci-	4g\	-ci-	4dd\	-ci-	.	.
8GG/J	.	.	8d/J	.	16a/L	.	.	.	.	.	.	.	.	.	.	.
.	.	.	.	.	16b/JJ	.	.	.	.	.	.	.	.	.	.	.
!	!	!	!	!	!	!	!LO:LB:g=original	!	!	!	!	!	!	!	!	!
=75	=75	=75	=75	=75	=75	=75	=75	=75	=75	=75	=75	=75	=75	=75	=75	=75
!LO:TX:a:i:t=Solo	!	!	!	!	!LO:TX:a:i:t=Solo	!	!	!	!	!	!	!	!	!	!	!
4C/	.	.	4e/	.	16cc\LL	.	4C/	-um	4c\	-um	4g\	-um	4ee\	-um	2.ryy	2.ryy
.	.	.	.	.	16b\	.	.	.	.	.	.	.	.	.	.	.
.	.	.	.	.	16cc\	.	.	.	.	.	.	.	.	.	.	.
.	.	.	.	.	16dd\JJ	.	.	.	.	.	.	.	.	.	.	.
!	!	!	!	!	!LO:LB:g=original	!	!	!	!	!	!	!	!	!	!	!
8r	.	.	8r	.	8cc\L	.	4r	.	4r	.	4r	.	4r	.	.	.
!	!	!	!LO:TX:a:i:t=Solo	!	!	!	!	!	!	!	!	!	!	!	!	!
8C\L	6 3	.	8e/L	.	8cc\	.	.	.	.	.	.	.	.	.	.	.
8D\	6 3	.	8f/	.	8b\	.	4r	.	4r	.	4r	.	4r	.	.	.
8E\J	5- 3	.	8g/J	.	8b-X\J	.	.	.	.	.	.	.	.	.	.	.
=76	=76	=76	=76	=76	=76	=76	=76	=76	=76	=76	=76	=76	=76	=76	=76	=76
!	!	!	!	!	!	!	!	!	!	!	!LO:TX:a:t=26	!	!	!	!	!
!	!	!	!	!	!LO:SIC:o:v=8b-\L	!	!	!	!	!	!LO:TX:t=P:problem=na początku pauz skryptor rozpoczął przez pomyłkę pisanie kolejnej litery (R), ale się zorientował i nie dokończył. Zostało samotne "P".	!	!LO:TX:a:t=3	!	!	!
2F\	5 4	.	2c/	.	8b\L	.	0.r	.	0.r	.	0.r	.	1.r	.	2.ryy	2.ryy
.	.	.	.	.	16cc\L	.	.	.	.	.	.	.	.	.	.	.
!	!	!	!	!	!LO:SIC:o:v=8b-\JJ	!	!	!	!	!	!	!	!	!	!	!
.	_ -3	.	.	.	16b\JJ	.	.	.	.	.	.	.	.	.	.	.
.	.	.	.	.	8a\L	.	.	.	.	.	.	.	.	.	.	.
.	.	.	.	.	8a\	.	.	.	.	.	.	.	.	.	.	.
4E\	5 3	.	4g/	.	8bn\	.	.	.	.	.	.	.	.	.	.	.
!LO:SIC:o:s:v=w cyfrowaniu n6\	!	!	!	!	!	!	!	!	!	!	!	!	!	!	!	!
.	n6\	.	.	.	8cc#X\J	.	.	.	.	.	.	.	.	.	.	.
=77	=77	=77	=77	=77	=77	=77	=77	=77	=77	=77	=77	=77	=77	=77	=77	=77
4D\	8 3	.	4f/	.	16dd\LL	.	.	.	.	.	.	.	.	.	2.ryy	2.ryy
.	.	.	.	.	16cc#X\	.	.	.	.	.	.	.	.	.	.	.
.	.	.	.	.	16dd\	.	.	.	.	.	.	.	.	.	.	.
.	.	.	.	.	16ee\JJ	.	.	.	.	.	.	.	.	.	.	.
8r	.	.	8r	.	8dd\L	.	.	.	.	.	.	.	.	.	.	.
8D\L	8 #	.	8f#X/L	.	8dd\	.	.	.	.	.	.	.	.	.	.	.
8E\	6\ 3	.	8g/	.	8cc#X\	.	.	.	.	.	.	.	.	.	.	.
8F#X\J	5n 3	.	8a/J	.	8ccn\J	.	.	.	.	.	.	.	.	.	.	.
=78	=78	=78	=78	=78	=78	=78	=78	=78	=78	=78	=78	=78	=78	=78	=78	=78
!LO:TX:t=P:problem=mixed beam	!	!	!	!	!	!	!	!	!	!	!	!	!	!	!	!
8G\L	5 4	.	4d/	.	8cc\L	.	.	.	.	.	.	.	2.r	.	2.ryy	2.ryy
8GG/J	_ 3	.	.	.	16dd\L	.	.	.	.	.	.	.	.	.	.	.
.	x	.	.	.	16cc\JJ	.	.	.	.	.	.	.	.	.	.	.
8G\L	.	.	4d/	.	4b\	.	.	.	.	.	.	.	.	.	.	.
8Fn\	.	.	.	.	.	.	.	.	.	.	.	.	.	.	.	.
8E\	.	.	4r	.	4r	.	.	.	.	.	.	.	.	.	.	.
8D\J	.	.	.	.	.	.	.	.	.	.	.	.	.	.	.	.
!	!	!	!	!	!	!	!	!	!	!	!	!	!LO:LB:g=original	!	!	!
=79	=79	=79	=79	=79	=79	=79	=79	=79	=79	=79	=79	=79	=79	=79	=79	=79
*	*	*	*tremolo	*	*	*	*	*	*	*	*	*	*	*	*	*
!	!	!	!	!	!	!	!	!	!	!	!	!	!LO:TX:rj:a:i:t=Solo	!	!	!
4C/	.	.	8c/L	.	8e/L	.	.	.	.	.	.	.	8cc\L	Fi-	2.ryy	2.ryy
.	.	.	8e/	.	8g/	.	.	.	.	.	.	.	8ee\J	.	.	.
4C/	.	.	8c/	.	8e/	.	.	.	.	.	.	.	4ee\	-de-	.	.
.	.	.	8e/	.	8g/	.	.	.	.	.	.	.	.	.	.	.
4r	.	.	8c/	.	8e/	.	.	.	.	.	.	.	16ff\LL	-li-	.	.
.	.	.	.	.	.	.	.	.	.	.	.	.	16ee\JJ	.	.	.
.	.	.	8e/J	.	8g/J	.	.	.	.	.	.	.	16dd\LL	-a	.	.
.	.	.	.	.	.	.	.	.	.	.	.	.	16cc\JJ	.	.	.
=80	=80	=80	=80	=80	=80	=80	=80	=80	=80	=80	=80	=80	=80	=80	=80	=80
*	*	*	*	*	*tremolo	*	*	*	*	*	*	*	*	*	*	*
4D/	6	.	8d/L	.	8f/L	.	0.r	.	0.r	.	0.r	.	8cc\	om-	2.ryy	2.ryy
.	.	.	8f/	.	8g/	.	.	.	.	.	.	.	8b\	-ni-	.	.
4D/	_	.	8d/	.	8f/	.	.	.	.	.	.	.	4b\	-a	.	.
.	.	.	8f/	.	8g/	.	.	.	.	.	.	.	.	.	.	.
4D/	x	.	8d/	.	8f/	.	.	.	.	.	.	.	4r	.	.	.
.	.	.	8f/J	.	8g/J	.	.	.	.	.	.	.	.	.	.	.
!LO:LB:g=original	!	!	!	!	!	!	!	!	!	!	!	!	!	!	!	!
=81	=81	=81	=81	=81	=81	=81	=81	=81	=81	=81	=81	=81	=81	=81	=81	=81
*	*	*	*rep	*	*	*	*	*	*	*	*	*	*	*	*	*
4BB/	6 5	.	8d/L	.	8f/L	.	.	.	.	.	.	.	8dd\L	man-	2.ryy	2.ryy
.	.	.	8f/	.	8g/	.	.	.	.	.	.	.	8ff\J	.	.	.
4BB/	.	.	8d/	.	8f/	.	.	.	.	.	.	.	4ff\	.	.	.
.	.	.	8f/	.	8g/	.	.	.	.	.	.	.	.	.	.	.
4r	.	.	8d/	.	8f/	.	.	.	.	.	.	.	16gg\LL	-da-	.	.
.	.	.	.	.	.	.	.	.	.	.	.	.	16ff\JJ	.	.	.
.	.	.	8f/J	.	8g/J	.	.	.	.	.	.	.	16ee\LL	-ta	.	.
.	.	.	.	.	.	.	.	.	.	.	.	.	16dd\JJ	.	.	.
*	*	*	*Xrep	*	*	*	*	*	*	*	*	*	*	*	*	*
!	!	!	!	!	!LO:SIC:o:v=8b-\L	!	!	!	!	!	!	!	!	!	!	!
=82	=82	=82	=82	=82	=82	=82	=82	=82	=82	=82	=82	=82	=82	=82	=82	=82
4C/	.	.	8c/L	.	8e/L	.	.	.	.	.	.	.	8dd\L	e-	2.ryy	2.ryy
.	.	.	8e/	.	8g/	.	.	.	.	.	.	.	8cc\J	-i-	.	.
4C/	.	.	8c/	.	8e/	.	.	.	.	.	.	.	4cc\	-jus	.	.
.	.	.	8e/	.	8g/	.	.	.	.	.	.	.	.	.	.	.
4C/	.	.	8c/	.	8e/	.	.	.	.	.	.	.	4r	.	.	.
.	.	.	8e/J	.	8g/J	.	.	.	.	.	.	.	.	.	.	.
!	!	!	!	!	!	!	!	!	!	!	!	!	!LO:LB:g=original	!	!	!
=83	=83	=83	=83	=83	=83	=83	=83	=83	=83	=83	=83	=83	=83	=83	=83	=83
4E\	6	.	8c/L	.	8e/L	.	.	.	.	.	.	.	4.cc\	Con-	2.ryy	2.ryy
.	.	.	8e/	.	8g/	.	.	.	.	.	.	.	.	.	.	.
4E\	.	.	8c/	.	8e/	.	.	.	.	.	.	.	.	.	.	.
.	.	.	8e/	.	8g/	.	.	.	.	.	.	.	8g\	-fir-	.	.
4r	.	.	8c/	.	8e/	.	.	.	.	.	.	.	8cc\L	-ma-	.	.
.	.	.	8e/J	.	8g/J	.	.	.	.	.	.	.	8ee\J	.	.	.
*	*	*	*Xtremolo	*	*Xtremolo	*	*	*	*	*	*	*	*	*	*	*
!	!	!	!LO:LB:g=original	!	!	!	!	!	!	!	!	!	!	!	!	!
=84	=84	=84	=84	=84	=84	=84	=84	=84	=84	=84	=84	=84	=84	=84	=84	=84
4F\	6	.	8d/L	.	8f/L	.	0.r	.	0.r	.	0.r	.	8ee\L	-ta	2.ryy	2.ryy
.	.	.	8f/J	.	8a/	.	.	.	.	.	.	.	8dd\J	.	.	.
*	*	*	*rep	*	*	*	*	*	*	*	*	*	*	*	*	*
4F\	_	.	8d/L	.	8f/	.	.	.	.	.	.	.	4.dd\	.	.	.
.	.	.	8f/J	.	8a/	.	.	.	.	.	.	.	.	.	.	.
*	*	*	*Xrep	*	*	*	*	*	*	*	*	*	*	*	*	*
*	*	*	*rep	*	*	*	*	*	*	*	*	*	*	*	*	*
4F\	5	.	8d/L	.	8f/	.	.	.	.	.	.	.	.	.	.	.
.	.	.	8f/J	.	8a/J	.	.	.	.	.	.	.	8cc\	in	.	.
*	*	*	*Xrep	*	*	*	*	*	*	*	*	*	*	*	*	*
=85	=85	=85	=85	=85	=85	=85	=85	=85	=85	=85	=85	=85	=85	=85	=85	=85
*	*	*	*tremolo	*	*tremolo	*	*	*	*	*	*	*	*	*	*	*
4G\	3	.	8B/L	.	8d/L	.	.	.	.	.	.	.	4.b\	Se-	2.ryy	2.ryy
.	.	.	8d/	.	8f/	.	.	.	.	.	.	.	.	.	.	.
4GG/	_	.	8B/	.	8d/	.	.	.	.	.	.	.	.	.	.	.
.	.	.	8d/	.	8f/	.	.	.	.	.	.	.	16cc\LL	.	.	.
.	.	.	.	.	.	.	.	.	.	.	.	.	16dd\JJ	.	.	.
4G\	x	.	8B/	.	8d/	.	.	.	.	.	.	.	16ee\LL	-cu-	.	.
.	.	.	.	.	.	.	.	.	.	.	.	.	16dd\JJ	.	.	.
.	.	.	8d/J	.	8f/J	.	.	.	.	.	.	.	16cc\LL	-lum	.	.
.	.	.	.	.	.	.	.	.	.	.	.	.	16b\JJ	.	.	.
*	*	*	*Xtremolo	*	*Xtremolo	*	*	*	*	*	*	*	*	*	*	*
=86	=86	=86	=86	=86	=86	=86	=86	=86	=86	=86	=86	=86	=86	=86	=86	=86
4C/	.	.	8d/L	.	8f/L	.	.	.	.	.	.	.	8dd\	ſe-	2.ryy	2.ryy
.	.	.	8c/J	.	8e/J	.	.	.	.	.	.	.	8cc\	-cu-	.	.
8r	.	.	4c/	.	4e/	.	.	.	.	.	.	.	4cc\	-li	.	.
16E\LL	.	.	.	.	.	.	.	.	.	.	.	.	.	.	.	.
16F\JJ	.	.	.	.	.	.	.	.	.	.	.	.	.	.	.	.
16G\LL	.	.	4r	.	4r	.	.	.	.	.	.	.	4r	.	.	.
16F\	.	.	.	.	.	.	.	.	.	.	.	.	.	.	.	.
16E\	.	.	.	.	.	.	.	.	.	.	.	.	.	.	.	.
16D\JJ	.	.	.	.	.	.	.	.	.	.	.	.	.	.	.	.
=87	=87	=87	=87	=87	=87	=87	=87	=87	=87	=87	=87	=87	=87	=87	=87	=87
!LO:TX:t=P:problem=mixed beam	!	!	!	!	!	!	!	!	!	!	!	!	!	!	!	!
8C/L	.	.	8r	.	2.cc\	.	.	.	.	.	.	.	2.cc\	fac-	2.ryy	2.ryy
8c\	.	.	8e/L	.	.	.	.	.	.	.	.	.	.	.	.	.
8B\	.	.	8d/	.	.	.	.	.	.	.	.	.	.	.	.	.
8c\	.	.	8e/	.	.	.	.	.	.	.	.	.	.	.	.	.
8e\	.	.	8g/	.	.	.	.	.	.	.	.	.	.	.	.	.
8c\J	.	.	8e/J	.	.	.	.	.	.	.	.	.	.	.	.	.
!	!	!	!	!	!	!	!	!	!	!	!	!	!LO:LB:g=original	!	!	!
=88	=88	=88	=88	=88	=88	=88	=88	=88	=88	=88	=88	=88	=88	=88	=88	=88
4G\	.	.	4d/	.	8cc\L	.	0.r	.	0.r	.	0.r	.	8cc\L	.	2.ryy	2.ryy
.	.	.	.	.	8b\	.	.	.	.	.	.	.	8b\J	.	.	.
4r	.	.	4r	.	8a\	.	.	.	.	.	.	.	8a\L	-ta	.	.
.	.	.	.	.	8b\	.	.	.	.	.	.	.	8b\J	.	.	.
4r	.	.	4r	.	8ee\	.	.	.	.	.	.	.	8ee\L	in	.	.
.	.	.	.	.	8dd\J	.	.	.	.	.	.	.	8dd\J	.	.	.
=89	=89	=89	=89	=89	=89	=89	=89	=89	=89	=89	=89	=89	=89	=89	=89	=89
8r	.	.	2.e/	.	2.cc\	.	.	.	.	.	.	.	2.cc\	Ve-	2.ryy	2.ryy
8A\L	5 3	.	.	.	.	.	.	.	.	.	.	.	.	.	.	.
8G#X\	_ _	.	.	.	.	.	.	.	.	.	.	.	.	.	.	.
8A\	.	.	.	.	.	.	.	.	.	.	.	.	.	.	.	.
8c\	x	.	.	.	.	.	.	.	.	.	.	.	.	.	.	.
8A\J	.	.	.	.	.	.	.	.	.	.	.	.	.	.	.	.
!LO:LB:g=original	!	!	!	!	!	!	!	!	!	!	!	!	!	!	!	!
=90	=90	=90	=90	=90	=90	=90	=90	=90	=90	=90	=90	=90	=90	=90	=90	=90
4E\	#	.	4g#X/	.	8cc\L	.	.	.	.	.	.	.	8cc\L	.	2.ryy	2.ryy
.	.	.	.	.	8b\	.	.	.	.	.	.	.	8b\	.	.	.
4r	.	.	4r	.	8a\	.	.	.	.	.	.	.	8a\	.	.	.
.	.	.	.	.	8b\	.	.	.	.	.	.	.	8b\J	.	.	.
4r	.	.	4r	.	8ee\	.	.	.	.	.	.	.	8ee\L	-ri-	.	.
.	.	.	.	.	8dd\J	.	.	.	.	.	.	.	8dd\J	-ta-	.	.
=91	=91	=91	=91	=91	=91	=91	=91	=91	=91	=91	=91	=91	=91	=91	=91	=91
8r	.	.	8a/	.	8cc\	.	.	.	.	.	.	.	4cc\	-te	2.ryy	2.ryy
*	*	*	*Xtuplet	*	*	*	*	*	*	*	*	*	*	*	*	*
16A\LL	8 3	.	6a/	.	4cc\	.	.	.	.	.	.	.	.	.	.	.
16G#X\JJ	_ _	.	.	.	.	.	.	.	.	.	.	.	.	.	.	.
8A\L	.	.	.	.	.	.	.	.	.	.	.	.	4cc\	.	.	.
.	.	.	6a/	.	.	.	.	.	.	.	.	.	.	.	.	.
8c\	.	.	.	.	4cc\	.	.	.	.	.	.	.	.	.	.	.
.	.	.	6a/	.	.	.	.	.	.	.	.	.	.	.	.	.
8A\	.	.	.	.	.	.	.	.	.	.	.	.	4cc\	et	.	.
8G#\J	.	.	8a/	.	8cc\	.	.	.	.	.	.	.	.	.	.	.
!	!	!	!	!	!LO:LB:g=original	!	!	!	!	!	!	!	!	!	!	!
=92	=92	=92	=92	=92	=92	=92	=92	=92	=92	=92	=92	=92	=92	=92	=92	=92
8.F\L	.	.	8a/	.	8cc\	.	0.r	.	0.r	.	0.r	.	2cc\	e-	2.ryy	2.ryy
.	.	.	6a/	.	4cc\	.	.	.	.	.	.	.	.	.	.	.
16E\Jk	.	.	.	.	.	.	.	.	.	.	.	.	.	.	.	.
8F\L	.	.	.	.	.	.	.	.	.	.	.	.	.	.	.	.
.	.	.	6a/	.	.	.	.	.	.	.	.	.	.	.	.	.
8A\	.	.	.	.	4cc\	.	.	.	.	.	.	.	.	.	.	.
.	.	.	6a/	.	.	.	.	.	.	.	.	.	.	.	.	.
8F\	.	.	.	.	.	.	.	.	.	.	.	.	4cc\	-qui-	.	.
8E\J	.	.	8a/	.	[8cc\	.	.	.	.	.	.	.	.	.	.	.
=93	=93	=93	=93	=93	=93	=93	=93	=93	=93	=93	=93	=93	=93	=93	=93	=93
8D#X\L	.	.	8a/	.	8cc\]	.	.	.	.	.	.	.	2.cc\	-ta-	2.ryy	2.ryy
8E\	.	.	6a/	.	4cc\	.	.	.	.	.	.	.	.	.	.	.
8D#\	.	.	.	.	.	.	.	.	.	.	.	.	.	.	.	.
.	.	.	6a/	.	.	.	.	.	.	.	.	.	.	.	.	.
8E\	.	.	.	.	4cc\	.	.	.	.	.	.	.	.	.	.	.
.	.	.	6a/	.	.	.	.	.	.	.	.	.	.	.	.	.
8F\	.	.	.	.	.	.	.	.	.	.	.	.	.	.	.	.
8D#\J	x	.	8a/	.	8cc\	.	.	.	.	.	.	.	.	.	.	.
!	!	!	!	!	!	!	!	!	!	!	!	!	!LO:LB:g=original	!	!	!
=94	=94	=94	=94	=94	=94	=94	=94	=94	=94	=94	=94	=94	=94	=94	=94	=94
4E\	#	.	4g#X/	.	(8b\L	.	.	.	.	.	.	.	4b\	-te	2.ryy	2.ryy
.	.	.	.	.	8ee\	.	.	.	.	.	.	.	.	.	.	.
8D#X\L	10 5	.	8f/L	.	8ff\	.	.	.	.	.	.	.	4r	.	.	.
8E\	8 #	.	8g#/	.	8ee\	.	.	.	.	.	.	.	.	.	.	.
8F\	6\ 3	.	8a/	.	8dd#X\	.	.	.	.	.	.	.	4r	.	.	.
8G#X\J	5n 3	.	8b/J	.	8ddn\J)	.	.	.	.	.	.	.	.	.	.	.
!	!	!	!LO:LB:g=original	!	!	!	!	!	!	!	!	!	!	!	!	!
=95	=95	=95	=95	=95	=95	=95	=95	=95	=95	=95	=95	=95	=95	=95	=95	=95
2.A\	3	.	4e/	.	4cc\	.	.	.	.	.	.	.	8r	.	2.ryy	2.ryy
.	.	.	.	.	.	.	.	.	.	.	.	.	8cc\	in	.	.
.	.	.	4r	.	4r	.	.	.	.	.	.	.	8b\L	ve-	.	.
.	.	.	.	.	.	.	.	.	.	.	.	.	8cc\J	.	.	.
.	.	.	4r	.	4r	.	.	.	.	.	.	.	8dd\L	-ri-	.	.
.	.	.	.	.	.	.	.	.	.	.	.	.	8dd#X\J	.	.	.
=96	=96	=96	=96	=96	=96	=96	=96	=96	=96	=96	=96	=96	=96	=96	=96	=96
8G#X\L	6	.	8r	.	8r	.	0.r	.	0.r	.	0.r	.	8dd\L	-ta-	2.ryy	2.ryy
8E\J	#	.	8g#X/L	.	(8ee\L	.	.	.	.	.	.	.	8ee\J	.	.	.
8D#X\L	10 5	.	8f/	.	8ff\	.	.	.	.	.	.	.	4ee\	-te	.	.
8E\	9 #	.	8g#/	.	8ee\	.	.	.	.	.	.	.	.	.	.	.
8F\	6\ 3	.	8a/	.	8dd#X\	.	.	.	.	.	.	.	4r	.	.	.
8G#\J	5n 3	.	8b/J	.	8ddn\J)	.	.	.	.	.	.	.	.	.	.	.
=97	=97	=97	=97	=97	=97	=97	=97	=97	=97	=97	=97	=97	=97	=97	=97	=97
2.A\	.	.	4e/	.	4cc\	.	.	.	.	.	.	.	8r	.	2.ryy	2.ryy
.	.	.	.	.	.	.	.	.	.	.	.	.	8cc\	e(t)	.	.
.	.	.	4r	.	4r	.	.	.	.	.	.	.	8b\L	e-	.	.
.	.	.	.	.	.	.	.	.	.	.	.	.	8cc\J	.	.	.
.	.	.	4r	.	4r	.	.	.	.	.	.	.	8dd\L	-qui-	.	.
.	.	.	.	.	.	.	.	.	.	.	.	.	8dd#X\J	.	.	.
=98	=98	=98	=98	=98	=98	=98	=98	=98	=98	=98	=98	=98	=98	=98	=98	=98
4G#X\	6	.	4r	.	4r	.	.	.	.	.	.	.	8dd\L	-ta-	2.ryy	2.ryy
.	.	.	.	.	.	.	.	.	.	.	.	.	8ee\J	.	.	.
4r	.	.	8r	.	8r	.	.	.	.	.	.	.	4ee\	-te	.	.
.	.	.	8g#X/	.	8ee\	.	.	.	.	.	.	.	.	.	.	.
8r	.	.	8a/L	.	8ff\L	.	.	.	.	.	.	.	4r	.	.	.
8E\	#	.	8g#X/J	.	8ee\J	.	.	.	.	.	.	.	.	.	.	.
!LO:LB:g=original	!	!	!	!	!	!	!	!	!	!	!	!LO:LB:g=original	!	!	!	!
=99	=99	=99	=99	=99	=99	=99	=99	=99	=99	=99	=99	=99	=99	=99	=99	=99
8F\L	6\ 3	.	8a/L	.	8dd#X\L	.	.	.	.	.	.	.	1.r	.	2.ryy	2.ryy
8E\	#	.	8g#X/	.	8ee\J	.	.	.	.	.	.	.	.	.	.	.
8D#X\	.	.	8a/	.	8r	.	.	.	.	.	.	.	.	.	.	.
!	!	!	!	!	!LO:LB:g=original	!	!	!	!	!	!	!	!	!	!	!
8E\J	#	.	8g#/	.	8ee\	.	.	.	.	.	.	.	.	.	.	.
8r	.	.	8a/	.	8ff\L	.	.	.	.	.	.	.	.	.	.	.
8E\	#	.	8g#/J	.	8ee\J	.	.	.	.	.	.	.	.	.	.	.
=100	=100	=100	=100	=100	=100	=100	=100	=100	=100	=100	=100	=100	=100	=100	=100	=100
*	*	*	*tremolo	*	*	*	*	*	*	*	*	*	*	*	*	*
8F\L	6\ 3	.	8a/L	.	8dd#X\L	.	1.r	.	1.r	.	1.r	.	.	.	2.ryy	2.ryy
8E\	#	.	8g#X/	.	8ee\J	.	.	.	.	.	.	.	.	.	.	.
8D#X\	.	.	8a/	.	8r	.	.	.	.	.	.	.	.	.	.	.
8E\J	#	.	8g#/	.	8ee\	.	.	.	.	.	.	.	.	.	.	.
8r	.	.	8a/	.	8ff\L	.	.	.	.	.	.	.	.	.	.	.
8E\	#	.	8g#/J	.	8ee\J	.	.	.	.	.	.	.	.	.	.	.
*	*	*	*Xtremolo	*	*	*	*	*	*	*	*	*	*	*	*	*
=101	=101	=101	=101	=101	=101	=101	=101	=101	=101	=101	=101	=101	=101	=101	=101	=101
!	!	!LO:HP:b:t=Crescen	!	!	!	!	!	!	!	!	!	!	!	!	!	!
8D#X\L	10 5	<	8a/L	.	8ff\L	.	.	.	.	.	.	.	2.r	.	2.ryy	2.ryy
8E\	8 #	.	8g#X/	.	8ee\	.	.	.	.	.	.	.	.	.	.	.
8D#\	10 5	.	8a/	.	8ff\	.	.	.	.	.	.	.	.	.	.	.
8E\	8 #	.	8g#/	.	8ee\	.	.	.	.	.	.	.	.	.	.	.
8F\	6\ 3	.	8a/	.	8dd#X\	.	.	.	.	.	.	.	.	.	.	.
8G#X\J	5n 3	.	8b/J	.	8ddn\J	.	.	.	.	.	.	.	.	.	.	.
!	!	!	!	!	!	!	!	!	!	!	!LO:LB:g=original	!	!	!	!	!
=102	=102	=102	=102	=102	=102	=102	=102	=102	=102	=102	=102	=102	=102	=102	=102	=102
!	!	!LO:DY:a:t=for	!	!	!	!	!	!	!	!	!	!	!	!	!	!
8A\L	.	f	16c/LL	.	4.cc\	f	4A\	Re-	4c\	Re-	4a\	Re-	4ee\	Re-	2.ryy	2.ryy
.	.	.	16e/	.	.	.	.	.	.	.	.	.	.	.	.	.
8A\	.	.	16c/	.	.	.	.	.	.	.	.	.	.	.	.	.
.	.	.	16e/JJ	.	.	.	.	.	.	.	.	.	.	.	.	.
*	*	*	*rep	*	*	*	*	*	*	*	*	*	*	*	*	*
!LO:TX:a:i:t=tutti	!	!	!	!	!	!	!	!	!	!	!	!	!	!	!	!
8A\	.	.	16c/LL	.	.	.	4A\	-dem-	4c\	-dem-	4a\	-dem-	4ee\	-dem-	.	.
.	.	.	16e/	.	.	.	.	.	.	.	.	.	.	.	.	.
8A\	.	.	16c/	.	16dd\LL	.	.	.	.	.	.	.	.	.	.	.
.	.	.	16e/JJ	.	16cc\JJ	.	.	.	.	.	.	.	.	.	.	.
*	*	*	*Xrep	*	*	*	*	*	*	*	*	*	*	*	*	*
*	*	*	*rep	*	*	*	*	*	*	*	*	*	*	*	*	*
8A\	.	.	16c/LL	.	8a\L	.	4A\	-pti-	4c\	-ci-	4a\	-pti-	4ee\	-pti-	.	.
.	.	.	16e/	.	.	.	.	.	.	.	.	.	.	.	.	.
8A\J	.	.	16c/	.	8cc\J	.	.	.	.	.	.	.	.	.	.	.
.	.	.	16e/JJ	.	.	.	.	.	.	.	.	.	.	.	.	.
*	*	*	*Xrep	*	*	*	*	*	*	*	*	*	*	*	*	*
=103	=103	=103	=103	=103	=103	=103	=103	=103	=103	=103	=103	=103	=103	=103	=103	=103
*tremolo	*	*	*tremolo	*	*	*	*	*	*	*	*	*	*	*	*	*
8A\L	.	.	16c/LL	.	4ee\	.	2A\	-o-	2c\	-o-	2a\	-o-	2ee\	-o-	2.ryy	2.ryy
.	.	.	16e/	.	.	.	.	.	.	.	.	.	.	.	.	.
8A\	.	.	16c/	.	.	.	.	.	.	.	.	.	.	.	.	.
.	.	.	16e/	.	.	.	.	.	.	.	.	.	.	.	.	.
8A\	.	.	16c/	.	4aa\	.	.	.	.	.	.	.	.	.	.	.
.	.	.	16e/	.	.	.	.	.	.	.	.	.	.	.	.	.
8A\	.	.	16c/	.	.	.	.	.	.	.	.	.	.	.	.	.
.	.	.	16e/	.	.	.	.	.	.	.	.	.	.	.	.	.
8A\	.	.	16c/	.	4cc\	.	4A\	-nem	4c\	-nem	4a\	-nem	4ee\	-nem	.	.
.	.	.	16e/	.	.	.	.	.	.	.	.	.	.	.	.	.
8A\J	.	.	16c/	.	.	.	.	.	.	.	.	.	.	.	.	.
.	.	.	16e/JJ	.	.	.	.	.	.	.	.	.	.	.	.	.
=104	=104	=104	=104	=104	=104	=104	=104	=104	=104	=104	=104	=104	=104	=104	=104	=104
8G#X\L	6 5	.	16B/LL	.	4.dd\	.	2G#X\	miſ-	2d\	miſ-	2b\	miſ-	2ee\	miſ-	2.ryy	2.ryy
.	.	.	16e/	.	.	.	.	.	.	.	.	.	.	.	.	.
8G#\	.	.	16B/	.	.	.	.	.	.	.	.	.	.	.	.	.
.	.	.	16e/	.	.	.	.	.	.	.	.	.	.	.	.	.
8G#\	.	.	16B/	.	.	.	.	.	.	.	.	.	.	.	.	.
.	.	.	16e/	.	.	.	.	.	.	.	.	.	.	.	.	.
8G#\	.	.	16B/	.	16ee\LL	.	.	.	.	.	.	.	.	.	.	.
.	.	.	16e/	.	16dd\JJ	.	.	.	.	.	.	.	.	.	.	.
8G#\	.	.	16B/	.	8b\L	.	4G#\	-sit	4d\	-sit	4b\	-sit	4ee\	-sit	.	.
.	.	.	16e/	.	.	.	.	.	.	.	.	.	.	.	.	.
8G#\J	.	.	16B/	.	8dd\J	.	.	.	.	.	.	.	.	.	.	.
.	.	.	16e/JJ	.	.	.	.	.	.	.	.	.	.	.	.	.
=105	=105	=105	=105	=105	=105	=105	=105	=105	=105	=105	=105	=105	=105	=105	=105	=105
8G\L	_ _	.	16B/LL	.	4ee\	.	4.G#X\	po-	4.d\	po-	4.b\	po-	4.ee\	po-	2.ryy	2.ryy
.	x	.	16e/	.	.	.	.	.	.	.	.	.	.	.	.	.
8G\	.	.	16B/	.	.	.	.	.	.	.	.	.	.	.	.	.
.	.	.	16e/	.	.	.	.	.	.	.	.	.	.	.	.	.
8G\	.	.	16B/	.	4bb\	.	.	.	.	.	.	.	.	.	.	.
.	.	.	16e/	.	.	.	.	.	.	.	.	.	.	.	.	.
8G\	.	.	16B/	.	.	.	8G#\	-pu-	8d\	-pu-	8b\	-pu-	8ee\	-pu-	.	.
.	.	.	16e/	.	.	.	.	.	.	.	.	.	.	.	.	.
8G\	.	.	16B/	.	4dd\	.	4G#\	-lo	4d\	-lo	4b\	-lo	4ee\	-lo	.	.
.	.	.	16e/	.	.	.	.	.	.	.	.	.	.	.	.	.
8G\J	.	.	16B/	.	.	.	.	.	.	.	.	.	.	.	.	.
.	.	.	16e/JJ	.	.	.	.	.	.	.	.	.	.	.	.	.
!	!	!	!LO:LB:g=original	!	!LO:LB:g=original	!	!LO:LB:g=original	!	!LO:LB:g=original	!	!	!	!	!	!	!
=106	=106	=106	=106	=106	=106	=106	=106	=106	=106	=106	=106	=106	=106	=106	=106	=106
8A\L	.	.	16c/LL	.	4.cc\	.	4A\	Su-	4c\	Su-	4a\	Su-	4ee\	Su-	2.ryy	2.ryy
.	.	.	16e/	.	.	.	.	.	.	.	.	.	.	.	.	.
8A\	.	.	16c/	.	.	.	.	.	.	.	.	.	.	.	.	.
.	.	.	16e/	.	.	.	.	.	.	.	.	.	.	.	.	.
8A\	.	.	16c/	.	.	.	4A\	-o	4c\	-o	4a\	-o	4ee\	-o	.	.
.	.	.	16e/	.	.	.	.	.	.	.	.	.	.	.	.	.
8A\	.	.	16c/	.	16dd\LL	.	.	.	.	.	.	.	.	.	.	.
.	.	.	16e/	.	16cc\JJ	.	.	.	.	.	.	.	.	.	.	.
8A\	.	.	16c/	.	8a\L	.	4A\	man-	4c\	man-	4a\	man-	4ee\	man-	.	.
.	.	.	16e/	.	.	.	.	.	.	.	.	.	.	.	.	.
8A\J	.	.	16c/	.	8cc\J	.	.	.	.	.	.	.	.	.	.	.
.	.	.	16e/JJ	.	.	.	.	.	.	.	.	.	.	.	.	.
=107	=107	=107	=107	=107	=107	=107	=107	=107	=107	=107	=107	=107	=107	=107	=107	=107
8c\L	6	.	16e/LL	.	4ee\	.	2c\	-da-	2e\	-da-	2a\	-da-	2ee\	-da-	2.ryy	2.ryy
.	.	.	16a/	.	.	.	.	.	.	.	.	.	.	.	.	.
8c\	.	.	16e/	.	.	.	.	.	.	.	.	.	.	.	.	.
.	.	.	16a/	.	.	.	.	.	.	.	.	.	.	.	.	.
8c\	.	.	16e/	.	4aa\	.	.	.	.	.	.	.	.	.	.	.
.	.	.	16a/	.	.	.	.	.	.	.	.	.	.	.	.	.
8c\	.	.	16e/	.	.	.	.	.	.	.	.	.	.	.	.	.
.	.	.	16a/	.	.	.	.	.	.	.	.	.	.	.	.	.
8c\	.	.	16e/	.	4ggn\	.	4c\	-vit	4e\	-vit	4a\	-vit	4ee\	-vit	.	.
.	.	.	16a/	.	.	.	.	.	.	.	.	.	.	.	.	.
8c\J	.	.	16e/	.	.	.	.	.	.	.	.	.	.	.	.	.
.	.	.	16a/JJ	.	.	.	.	.	.	.	.	.	.	.	.	.
!	!	!	!	!	!	!	!	!	!	!	!	!	!LO:LB:g=original	!	!	!
=108	=108	=108	=108	=108	=108	=108	=108	=108	=108	=108	=108	=108	=108	=108	=108	=108
8d\L	_	.	16f/LL	.	4.ff\	.	2d\	in	2d\	in	2a\	in	2ff\	in	2.ryy	2.ryy
.	.	.	16a/	.	.	.	.	.	.	.	.	.	.	.	.	.
8d\	x	.	16f/	.	.	.	.	.	.	.	.	.	.	.	.	.
.	.	.	16a/	.	.	.	.	.	.	.	.	.	.	.	.	.
8d\	.	.	16f/	.	.	.	.	.	.	.	.	.	.	.	.	.
.	.	.	16a/	.	.	.	.	.	.	.	.	.	.	.	.	.
8d\	.	.	16f/	.	8ggn\	.	.	.	.	.	.	.	.	.	.	.
.	.	.	16a/	.	.	.	.	.	.	.	.	.	.	.	.	.
8d\	.	.	16f/	.	8aa\L	.	4d\	(ae)-	4d\	(ae)-	4a\	(ae)-	4ff\	e-	.	.
.	.	.	16a/	.	.	.	.	.	.	.	.	.	.	.	.	.
8d\J	.	.	16f/	.	16gg\L	.	.	.	.	.	.	.	.	.	.	.
.	.	.	16a/JJ	.	16ff\JJ	.	.	.	.	.	.	.	.	.	.	.
!LO:LB:g=original	!	!	!	!	!	!	!	!	!	!LO:LB:g=original	!	!	!	!	!	!
=109	=109	=109	=109	=109	=109	=109	=109	=109	=109	=109	=109	=109	=109	=109	=109	=109
8c\L	6	.	16e/LL	.	8.ee\L	.	2c\	-ter-	2e\	-ter-	2a\	-ter-	2ee\	-ter-	2.ryy	2.ryy
.	.	.	16a/	.	.	.	.	.	.	.	.	.	.	.	.	.
8c\	.	.	16e/	.	.	.	.	.	.	.	.	.	.	.	.	.
.	.	.	16a/	.	32dd\LL	.	.	.	.	.	.	.	.	.	.	.
.	.	.	.	.	32ee\JJJ	.	.	.	.	.	.	.	.	.	.	.
8c\	.	.	16e/	.	4aa\	.	.	.	.	.	.	.	.	.	.	.
.	.	.	16a/	.	.	.	.	.	.	.	.	.	.	.	.	.
8c\	.	.	16e/	.	.	.	.	.	.	.	.	.	.	.	.	.
.	.	.	16a/	.	.	.	.	.	.	.	.	.	.	.	.	.
8c\	.	.	16e/	.	8r	.	4c\	-num	4e\	-num	4a\	-num	4ee\	-num	.	.
.	.	.	16a/	.	.	.	.	.	.	.	.	.	.	.	.	.
8c\J	.	.	16e/	.	8aa\	.	.	.	.	.	.	.	.	.	.	.
.	.	.	16a/JJ	.	.	.	.	.	.	.	.	.	.	.	.	.
*Xtremolo	*	*	*	*	*	*	*	*	*	*	*	*	*	*	*	*
=110	=110	=110	=110	=110	=110	=110	=110	=110	=110	=110	=110	=110	=110	=110	=110	=110
8B\L	6\ 3	.	16d/LL	.	4gg#X\	.	2B\	teſ-	2e\	teſ-	2g#X\	tes-	2dd\	teſ-	2.ryy	2.ryy
.	.	.	16e/	.	.	.	.	.	.	.	.	.	.	.	.	.
8B\	_ _	.	16d/	.	.	.	.	.	.	.	.	.	.	.	.	.
.	.	.	16e/	.	.	.	.	.	.	.	.	.	.	.	.	.
8B\	.	.	16d/	.	16aa\LL	.	.	.	.	.	.	.	.	.	.	.
.	.	.	16e/	.	16gg#\	.	.	.	.	.	.	.	.	.	.	.
8B\	x	.	16d/	.	16ff\	.	.	.	.	.	.	.	.	.	.	.
.	.	.	16e/	.	16gg#\JJ	.	.	.	.	.	.	.	.	.	.	.
8E\	.	.	16d/	.	8bb\L	.	4E\	-ta-	4e\	-ta	4g#\	-ta-	4dd\	-ta-	.	.
.	.	.	16e/	.	.	.	.	.	.	.	.	.	.	.	.	.
8E\J	.	.	16d/	.	8dd\J	.	.	.	.	.	.	.	.	.	.	.
.	.	.	16e/JJ	.	.	.	.	.	.	.	.	.	.	.	.	.
=111	=111	=111	=111	=111	=111	=111	=111	=111	=111	=111	=111	=111	=111	=111	=111	=111
8A\L	.	.	16c/LL	.	8dd\L	.	2A\	-men-	2e\	men-	2a\	-men-	2cc\	-men-	2.ryy	2.ryy
.	.	.	16e/	.	.	.	.	.	.	.	.	.	.	.	.	.
8A\	.	.	16c/	.	8cc\J	.	.	.	.	.	.	.	.	.	.	.
.	.	.	16e/	.	.	.	.	.	.	.	.	.	.	.	.	.
8A\	.	.	16c/	.	16cc\LL	.	.	.	.	.	.	.	.	.	.	.
.	.	.	16e/	.	16b\	.	.	.	.	.	.	.	.	.	.	.
8A\	.	.	16c/	.	16cc\	.	.	.	.	.	.	.	.	.	.	.
.	.	.	16e/	.	16dd\JJ	.	.	.	.	.	.	.	.	.	.	.
8c\	6	.	16c/	.	8ee\L	.	4c\	-tum	4A\	-tum	4a\	-tum	4ee\	-tum	.	.
.	_	.	16e/	.	.	.	.	.	.	.	.	.	.	.	.	.
!	!	!	!	!	!LO:TX:b:i:t=Verte Subitto	!	!	!	!	!	!	!	!	!	!	!
8c\J	.	.	16c/	.	8aa\J	.	.	.	.	.	.	.	.	.	.	.
.	x	.	16e/JJ	.	.	.	.	.	.	.	.	.	.	.	.	.
*	*	*	*Xtremolo	*	*	*	*	*	*	*	*	*	*	*	*	*
!	!	!	!	!	!LO:PB:g=original	!	!	!	!	!	!	!	!	!	!	!
=112	=112	=112	=112	=112	=112	=112	=112	=112	=112	=112	=112	=112	=112	=112	=112	=112
!	!	!	!LO:TX:t=P:problem=mixed beam	!	!	!	!	!	!	!	!	!	!	!	!	!
8d\L	6	.	16d/LL	.	8ff\L	.	4d\	Su-	4f\	Su-	4b\	Su-	4dd\	Su-	2.ryy	2.ryy
.	.	.	16dd\	.	.	.	.	.	.	.	.	.	.	.	.	.
8d\	.	.	16cc\	.	16ee\L	.	.	.	.	.	.	.	.	.	.	.
.	.	.	16b\JJ	.	16dd\JJ	.	.	.	.	.	.	.	.	.	.	.
8e\	6 4	.	8a/L	.	8cc\L	.	4e\	.	2e\	.	4a\	.	4cc\	.	.	.
8e\	.	.	8cc/	.	8ee\	.	.	.	.	.	.	.	.	.	.	.
!	!	!	!	!	!	!	!LO:TX:b:i:t=Verte Subitto.	!	!	!	!	!	!	!	!	!
8E\	5 #	.	8b/	.	8dd\	.	4E\	.	.	.	4g#X\	.	4b\	.	.	.
8E\J	.	.	8g#X/J	.	8b\J	.	.	.	.	.	.	.	.	.	.	.
!	!	!	!	!	!	!	!LO:PB:g=original	!	!	!	!	!	!	!	!	!
=113	=113	=113	=113	=113	=113	=113	=113	=113	=113	=113	=113	=113	=113	=113	=113	=113
!	!	!	!	!	!LO:N:vis=8	!	!	!	!	!	!	!	!	!	!	!
8A\L	.	.	8a/L	.	8.a/L	.	4A\	-um	4e\	-um	4a\	-um	4cc\	-um	2.ryy	2.ryy
16c'\L	.	.	16cc/L	.	.	.	.	.	.	.	.	.	.	.	.	.
16B'\JJ	.	.	16b/JJ	.	32cc/LL	.	.	.	.	.	.	.	.	.	.	.
.	.	.	.	.	32b/JJJ	.	.	.	.	.	.	.	.	.	.	.
16A'\LL	.	.	16a/LL	.	16a/LL	.	4r	.	4r	.	4r	.	4r	.	.	.
16G#X'\	.	.	16g#X/	.	16g#X/	.	.	.	.	.	.	.	.	.	.	.
16F'\	.	.	16f/	.	16f/	.	.	.	.	.	.	.	.	.	.	.
16E'\JJ	.	.	16e/JJ	.	16e/JJ	.	.	.	.	.	.	.	.	.	.	.
16D'/LL	.	.	16d/LL	.	16d/LL	.	4r	.	4r	.	4r	.	4r	.	.	.
16C'/	.	.	16c/	.	16c/	.	.	.	.	.	.	.	.	.	.	.
16BB'/	.	.	16B/	.	16B/	.	.	.	.	.	.	.	.	.	.	.
16AA'/JJ	.	.	16A/JJ	.	16A/JJ	.	.	.	.	.	.	.	.	.	.	.
!	!	!	!	!	!	!	!	!	!LO:LB:g=original	!	!	!	!	!	!	!
=114	=114	=114	=114	=114	=114	=114	=114	=114	=114	=114	=114	=114	=114	=114	=114	=114
!	!	!	!	!	!	!	!	!	!	!	!LO:TX:a:t=15	!	!	!	!	!
16D'\LL	.	.	16d/LL	.	16d/LL	.	2.r	.	0.r	.	0.r	.	0.r	.	2.ryy	2.ryy
16E'\	.	.	16e/	.	16e/	.	.	.	.	.	.	.	.	.	.	.
16F'\	.	.	16f/	.	16f/	.	.	.	.	.	.	.	.	.	.	.
16D'\JJ	.	.	16d/JJ	.	16d/JJ	.	.	.	.	.	.	.	.	.	.	.
8E'\L	.	.	8e/L	.	8e/L	.	.	.	.	.	.	.	.	.	.	.
8C'\	.	.	8c/	.	8c/	.	.	.	.	.	.	.	.	.	.	.
8D'\	.	.	8d/	.	8d/	.	.	.	.	.	.	.	.	.	.	.
8E'\J	.	.	8e/J	.	8e/J	.	.	.	.	.	.	.	.	.	.	.
!	!	!	!LO:PB;g=original	!	!	!	!	!	!	!	!	!	!	!	!	!
=115	=115	=115	=115	=115	=115	=115	=115	=115	=115	=115	=115	=115	=115	=115	=115	=115
!	!	!LO:DY:a:t=pia	!	!	!	!	!LO:TX:rj:a:i:t=Solo	!	!	!	!	!	!	!	!	!
4AA/	.	p	16c/LL	.	16c'/LL	.	4A\	San-	.	.	.	.	.	.	2.ryy	2.ryy
.	.	.	16d/	.	16d'/	.	.	.	.	.	.	.	.	.	.	.
.	.	.	16e/	.	16e'/	.	.	.	.	.	.	.	.	.	.	.
.	.	.	16d/JJ	.	16d'/JJ	.	.	.	.	.	.	.	.	.	.	.
*	*	*	*rep	*	*	*	*	*	*	*	*	*	*	*	*	*
8r	.	.	16c/LL	.	16c'/LL	.	4A\	-Ctum	.	.	.	.	.	.	.	.
.	.	.	16d/	.	16d'/	.	.	.	.	.	.	.	.	.	.	.
!LO:TX:t=P:problem=mixed beam	!	!	!	!	!	!	!	!	!	!	!	!	!	!	!	!
8A\L	.	.	16e/	.	16e'/	.	.	.	.	.	.	.	.	.	.	.
.	.	.	16d/JJ	.	16d'/JJ	.	.	.	.	.	.	.	.	.	.	.
*	*	*	*Xrep	*	*	*	*	*	*	*	*	*	*	*	*	*
8AA/	.	.	16c/LL	.	16c'/LL	.	4r	.	.	.	.	.	.	.	.	.
.	.	.	16d/	.	16d'/	.	.	.	.	.	.	.	.	.	.	.
8A\J	.	.	16e/	.	16e'/	.	.	.	.	.	.	.	.	.	.	.
.	.	.	16c/JJ	.	16d'/JJ	.	.	.	.	.	.	.	.	.	.	.
!LO:LB:g=original	!	!	!	!	!LO:LB:g=original	!	!	!	!	!	!	!	!	!	!	!
=116	=116	=116	=116	=116	=116	=116	=116	=116	=116	=116	=116	=116	=116	=116	=116	=116
*	*	*	*	*	*	*	*	*ij	*	*	*	*	*	*	*	*
4D\	6	.	16d/LL	.	16f'/LL	.	4B\	San-	.	.	.	.	.	.	2.ryy	2.ryy
.	.	.	16e/	.	16g'/	.	.	.	.	.	.	.	.	.	.	.
.	.	.	16f/	.	16a'/	.	.	.	.	.	.	.	.	.	.	.
.	.	.	16e/JJ	.	16g'/JJ	.	.	.	.	.	.	.	.	.	.	.
*	*	*	*rep	*	*	*	*	*	*	*	*	*	*	*	*	*
8r	.	.	16d/LL	.	16f/LL	.	4B\	-Ctum	.	.	.	.	.	.	.	.
.	.	.	16e/	.	16g/	.	.	.	.	.	.	.	.	.	.	.
8D\L	_	.	16f/	.	16a/	.	.	.	.	.	.	.	.	.	.	.
.	.	.	16e/JJ	.	16g/JJ	.	.	.	.	.	.	.	.	.	.	.
*	*	*	*Xrep	*	*	*	*	*	*	*	*	*	*	*	*	*
8d\	x	.	16d/LL	.	16f/LL	.	4r	.	.	.	.	.	.	.	.	.
.	.	.	16e/	.	16g/	.	.	.	.	.	.	.	.	.	.	.
8D\J	.	.	16f/	.	16a/	.	.	.	.	.	.	.	.	.	.	.
.	.	.	16d/JJ	.	16g/JJ	.	.	.	.	.	.	.	.	.	.	.
=117	=117	=117	=117	=117	=117	=117	=117	=117	=117	=117	=117	=117	=117	=117	=117	=117
4E\	#	.	16e/LL	.	16g#X/LL	.	8B\	San-	.	.	.	.	.	.	2.ryy	2.ryy
.	.	.	16f/	.	16a/	.	.	.	.	.	.	.	.	.	.	.
.	.	.	16g#X/	.	16b/	.	8B\	-Ctum	.	.	.	.	.	.	.	.
*	*	*	*	*	*	*	*	*Xij	*	*	*	*	*	*	*	*
.	.	.	16f/JJ	.	16a/JJ	.	.	.	.	.	.	.	.	.	.	.
8r	.	.	16e/LL	.	16g#/LL	.	4.G#X\	e(t)	.	.	.	.	.	.	.	.
.	.	.	16f/	.	16a/	.	.	.	.	.	.	.	.	.	.	.
!LO:TX:t=P:problem=mixed beam	!	!	!	!	!	!	!	!	!	!	!	!	!	!	!	!
8E\L	_	.	16g#/	.	16b/	.	.	.	.	.	.	.	.	.	.	.
.	.	.	16f/JJ	.	16a/JJ	.	.	.	.	.	.	.	.	.	.	.
8EE/	x	.	16e/LL	.	16g#/LL	.	.	.	.	.	.	.	.	.	.	.
.	.	.	16d/	.	16f/	.	.	.	.	.	.	.	.	.	.	.
8E\J	.	.	16c/	.	16e/	.	16F\LL	ter-	.	.	.	.	.	.	.	.
.	.	.	16B/JJ	.	16d/JJ	.	16G#\JJ	.	.	.	.	.	.	.	.	.
=118	=118	=118	=118	=118	=118	=118	=118	=118	=118	=118	=118	=118	=118	=118	=118	=118
16AA/LL	.	.	16c/LL	.	16c/LL	.	8A\	-ri-	0.r	.	0.r	.	0.r	.	2.ryy	2.ryy
16BB/	.	.	16d/	.	16d/	.	.	.	.	.	.	.	.	.	.	.
16C/	.	.	16e/	.	16e/	.	8A\	-bi-	.	.	.	.	.	.	.	.
16BB/JJ	.	.	16d/JJ	.	16d/JJ	.	.	.	.	.	.	.	.	.	.	.
8AA/L	.	.	16c/LL	.	16c/LL	.	4A\	-le	.	.	.	.	.	.	.	.
.	.	.	16A/	.	16A/	.	.	.	.	.	.	.	.	.	.	.
16BB/L	.	.	16B/	.	16B/	.	.	.	.	.	.	.	.	.	.	.
16C/JJ	.	.	16c/JJ	.	16c/JJ	.	.	.	.	.	.	.	.	.	.	.
16D\LL	.	.	16d/LL	.	16d/LL	.	4r	.	.	.	.	.	.	.	.	.
16E\	.	.	16e/	.	16e/	.	.	.	.	.	.	.	.	.	.	.
16F\	.	.	16f/	.	16f/	.	.	.	.	.	.	.	.	.	.	.
16G#X\JJ	.	.	16g#X/JJ	.	16g#X/JJ	.	.	.	.	.	.	.	.	.	.	.
!	!	!	!	!	!LO:LB:g=original	!	!LO:LB:g=original	!	!	!	!	!	!	!	!	!
=119	=119	=119	=119	=119	=119	=119	=119	=119	=119	=119	=119	=119	=119	=119	=119	=119
16A\LL	8 3	.	16a/LL	.	16a/LL	.	2A\	No-	.	.	.	.	.	.	2.ryy	2.ryy
16B\	.	.	16b/	.	16b/	.	.	.	.	.	.	.	.	.	.	.
16c\	.	.	16cc/	.	16cc/	.	.	.	.	.	.	.	.	.	.	.
16B\JJ	_ _	.	16b/JJ	.	16b/JJ	.	.	.	.	.	.	.	.	.	.	.
8A\L	.	.	8a/L	.	8a/L	.	.	.	.	.	.	.	.	.	.	.
8F\	.	.	8f/	.	8f/	.	.	.	.	.	.	.	.	.	.	.
8E\	.	.	8e/	.	8e/	.	4A\	-men	.	.	.	.	.	.	.	.
8D#X\J	.	.	8d#X/J	.	8d#X/J	.	.	.	.	.	.	.	.	.	.	.
=120	=120	=120	=120	=120	=120	=120	=120	=120	=120	=120	=120	=120	=120	=120	=120	=120
16E\LL	6 4	.	16e/LL	.	16e/LL	.	8.A\L	e-	.	.	.	.	.	.	2.ryy	2.ryy
16D#X\	_ _	.	16d#X/	.	16d#X/	.	.	.	.	.	.	.	.	.	.	.
16E\	.	.	16e/	.	16e/	.	.	.	.	.	.	.	.	.	.	.
16D#\JJ	x	.	16d#/JJ	.	16d#/JJ	.	32B\LL	-juſ	.	.	.	.	.	.	.	.
.	.	.	.	.	.	.	32A\JJJ	.	.	.	.	.	.	.	.	.
*	*	*	*rep	*	*	*	*	*	*	*	*	*	*	*	*	*
16E\LL	5 #	.	16e/LL	.	16e/LL	.	4G#X\	.	.	.	.	.	.	.	.	.
16D#X\	_ _	.	16d#X/	.	16d#/	.	.	.	.	.	.	.	.	.	.	.
16E\	.	.	16e/	.	16e/	.	.	.	.	.	.	.	.	.	.	.
16D#\JJ	x	.	16d#/JJ	.	16d#/JJ	.	.	.	.	.	.	.	.	.	.	.
*	*	*	*Xrep	*	*	*	*	*	*	*	*	*	*	*	*	*
!	!	!	!LO:LB:g=original	!	!	!	!	!	!	!	!	!	!	!	!	!
16E\LL	.	.	16e/LL	.	16e/LL	.	4r	.	.	.	.	.	.	.	.	.
16F#X\	.	.	16f#X/	.	16f#X/	.	.	.	.	.	.	.	.	.	.	.
16G#X\	.	.	16g#X/	.	16g#X/	.	.	.	.	.	.	.	.	.	.	.
16F#\JJ	.	.	16f#/JJ	.	16f#/JJ	.	.	.	.	.	.	.	.	.	.	.
!LO:PB:g=original	!	!	!	!	!	!	!	!	!	!	!	!	!	!	!	!
=121	=121	=121	=121	=121	=121	=121	=121	=121	=121	=121	=121	=121	=121	=121	=121	=121
8E\L	#	.	8e/L	.	8e/L	.	4E\	i-	.	.	.	.	.	.	2.ryy	2.ryy
8E\	.	.	8B/	.	8g#X/	.	.	.	.	.	.	.	.	.	.	.
8D#X\	5 3#	.	8B/	.	8a/	.	4F#X\	-ni-	.	.	.	.	.	.	.	.
8D#\	.	.	8B/	.	8a/	.	.	.	.	.	.	.	.	.	.	.
8Dn\	6 4# 2	.	8e/	.	8b/	.	4G#X\	-ti-	.	.	.	.	.	.	.	.
8D\J	.	.	8e/J	.	8b/J	.	.	.	.	.	.	.	.	.	.	.
=122	=122	=122	=122	=122	=122	=122	=122	=122	=122	=122	=122	=122	=122	=122	=122	=122
8C/L	6	.	8e/L	.	8cc\L	.	4A\	-um	0.r	.	0.r	.	0.r	.	2.ryy	2.ryy
8C/	_	.	8e/	.	8cc\	.	.	.	.	.	.	.	.	.	.	.
8BB/	6\	.	8g#X/	.	8dd\	.	4B\	Sa-	.	.	.	.	.	.	.	.
8BB/	.	.	8g#/	.	8dd\	.	.	.	.	.	.	.	.	.	.	.
8AA/	.	.	8a/	.	8ee\	.	4c\	-pi-	.	.	.	.	.	.	.	.
8AA/J	.	.	8a/J	.	8ee\J	.	.	.	.	.	.	.	.	.	.	.
=123	=123	=123	=123	=123	=123	=123	=123	=123	=123	=123	=123	=123	=123	=123	=123	=123
8GG#X/L	6 5	.	2b/	.	8ee\	.	4.d\	-en-	.	.	.	.	.	.	2.ryy	2.ryy
8EE/	_ _	.	.	.	4ee\	.	.	.	.	.	.	.	.	.	.	.
8FF/	.	.	.	.	.	.	.	.	.	.	.	.	.	.	.	.
8GG#/J	x	.	.	.	4ee\	.	16e\LL	-ti-	.	.	.	.	.	.	.	.
.	.	.	.	.	.	.	16d\JJ	.	.	.	.	.	.	.	.	.
8AA/L	.	.	4a/	.	.	.	8c\	-(ae)	.	.	.	.	.	.	.	.
16BB/L	.	.	.	.	8ee\	.	8A\	ti-	.	.	.	.	.	.	.	.
16C/JJ	.	.	.	.	.	.	.	.	.	.	.	.	.	.	.	.
!	!	!	!	!	!LO:LB:g=original	!	!LO:LB:g=original	!	!	!	!	!	!	!	!	!
=124	=124	=124	=124	=124	=124	=124	=124	=124	=124	=124	=124	=124	=124	=124	=124	=124
4D\	6	.	8b\L	.	8dd\L	.	8d\	.	.	.	.	.	.	.	2.ryy	2.ryy
.	.	.	8dd\	.	8ff\	.	8d\	-mor	.	.	.	.	.	.	.	.
4E\	6 4	.	8cc\	.	8ee\	.	4e\	Do-	.	.	.	.	.	.	.	.
.	.	.	8a\	.	8cc\	.	.	.	.	.	.	.	.	.	.	.
4EE/	5 #	.	8b\	.	8dd\	.	4E\	-mi-	.	.	.	.	.	.	.	.
.	.	.	8g#X\J	.	8b\J	.	.	.	.	.	.	.	.	.	.	.
=125	=125	=125	=125	=125	=125	=125	=125	=125	=125	=125	=125	=125	=125	=125	=125	=125
2AA/	.	.	2.e/	.	8cc\L	.	4A\	-ni	.	.	.	.	.	.	2.ryy	2.ryy
.	.	.	.	.	16b\L	.	.	.	.	.	.	.	.	.	.	.
.	.	.	.	.	16cc\JJ	.	.	.	.	.	.	.	.	.	.	.
.	.	.	.	.	8ee\L	.	4r	.	.	.	.	.	.	.	.	.
.	.	.	.	.	8cc\	.	.	.	.	.	.	.	.	.	.	.
4C/	6	.	.	.	8b\	.	4r	.	.	.	.	.	.	.	.	.
.	.	.	.	.	8a\J	.	.	.	.	.	.	.	.	.	.	.
=126	=126	=126	=126	=126	=126	=126	=126	=126	=126	=126	=126	=126	=126	=126	=126	=126
2D\	6	.	2f/	.	8b\L	.	1.r	.	1.r	.	1.r	.	1.r	.	2.ryy	2.ryy
.	.	.	.	.	16a\L	.	.	.	.	.	.	.	.	.	.	.
.	.	.	.	.	16b\JJ	.	.	.	.	.	.	.	.	.	.	.
.	.	.	.	.	8dd\L	.	.	.	.	.	.	.	.	.	.	.
.	.	.	.	.	8b\	.	.	.	.	.	.	.	.	.	.	.
4E\	#	.	4d/	.	8a\	.	.	.	.	.	.	.	.	.	.	.
.	.	.	.	.	8g#X\J	.	.	.	.	.	.	.	.	.	.	.
=127	=127	=127	=127	=127	=127	=127	=127	=127	=127	=127	=127	=127	=127	=127	=127	=127
2F\	.	.	2c/	.	8a\L	.	.	.	.	.	.	.	.	.	2.ryy	2.ryy
.	.	.	.	.	16cc\L	.	.	.	.	.	.	.	.	.	.	.
.	.	.	.	.	16b\JJ	.	.	.	.	.	.	.	.	.	.	.
.	.	.	.	.	8a\L	.	.	.	.	.	.	.	.	.	.	.
.	.	.	.	.	8cc\	.	.	.	.	.	.	.	.	.	.	.
4C/	6	.	4e/	.	8ee\	.	.	.	.	.	.	.	.	.	.	.
.	.	.	.	.	8aa\J	.	.	.	.	.	.	.	.	.	.	.
=128	=128	=128	=128	=128	=128	=128	=128	=128	=128	=128	=128	=128	=128	=128	=128	=128
4D\	6	.	4f/	.	8ff\L	.	2.r	.	2.r	.	2.r	.	2.r	.	2.ryy	2.ryy
.	.	.	.	.	16ee\L	.	.	.	.	.	.	.	.	.	.	.
.	.	.	.	.	16dd\JJ	.	.	.	.	.	.	.	.	.	.	.
!	!	!	!	!	!LO:TX:t=P:problem=mixed beam	!	!	!	!	!	!	!	!	!	!	!
4E\	6 4	.	4e/	.	8cc\L	.	.	.	.	.	.	.	.	.	.	.
.	.	.	.	.	8ee\	.	.	.	.	.	.	.	.	.	.	.
4EE/	5 #	.	4d/	.	8g#X/	.	.	.	.	.	.	.	.	.	.	.
.	.	.	.	.	8b\J	.	.	.	.	.	.	.	.	.	.	.
!	!	!	!	!	!	!	!	!	!	!	!	!	!LO:LB:g=original	!	!	!
=129	=129	=129	=129	=129	=129	=129	=129	=129	=129	=129	=129	=129	=129	=129	=129	=129
!LO:TX:t=P:problem=mixed beam	!	!	!	!	!	!	!	!	!	!	!	!	!	!	!	!
8AA/L	.	.	16c/LL	.	4a/	.	2A\	In-	2c\	In-	2a\	In-	2ee\	In-	2.ryy	2.ryy
.	.	.	16e/	.	.	.	.	.	.	.	.	.	.	.	.	.
!LO:TX:a:i:t=tutti	!	!	!	!	!	!	!	!	!	!	!	!	!	!	!	!
8A\	.	.	16c/	.	.	.	.	.	.	.	.	.	.	.	.	.
.	.	.	16e/JJ	.	.	.	.	.	.	.	.	.	.	.	.	.
*	*	*	*rep	*	*	*	*	*	*	*	*	*	*	*	*	*
8A\	.	.	16c/LL	.	8r	.	.	.	.	.	.	.	.	.	.	.
.	.	.	16e/	.	.	.	.	.	.	.	.	.	.	.	.	.
8A\	.	.	16c/	.	16ee\LL	.	.	.	.	.	.	.	.	.	.	.
.	.	.	16e/JJ	.	16cc\JJ	.	.	.	.	.	.	.	.	.	.	.
*	*	*	*Xrep	*	*	*	*	*	*	*	*	*	*	*	*	*
*	*	*	*rep	*	*	*	*	*	*	*	*	*	*	*	*	*
8A\	.	.	16c/LL	.	8a/L	.	4A\	-tel-	4c\	-tel-	4a\	-tel-	4ee\	-tel-	.	.
.	.	.	16e/	.	.	.	.	.	.	.	.	.	.	.	.	.
8A\J	.	.	16c/	.	8a/J	.	.	.	.	.	.	.	.	.	.	.
.	.	.	16e/JJ	.	.	.	.	.	.	.	.	.	.	.	.	.
*	*	*	*Xrep	*	*	*	*	*	*	*	*	*	*	*	*	*
!LO:LB:g=original	!	!	!	!	!LO:LB:g=original	!	!	!	!	!LO:LB:g=original	!	!	!	!	!	!
=130	=130	=130	=130	=130	=130	=130	=130	=130	=130	=130	=130	=130	=130	=130	=130	=130
*tremolo	*	*	*	*	*	*	*	*	*	*	*	*	*	*	*	*
8B\L	6\ 3	.	16d/LL	.	8a/L	.	2B\	-tec-	2d\	-lec-	2g#X\	-lec-	2ee\	-lec-	2.ryy	2.ryy
.	.	.	16e/	.	.	.	.	.	.	.	.	.	.	.	.	.
8B\	.	.	16d/	.	8g#X/J	.	.	.	.	.	.	.	.	.	.	.
.	.	.	16e/JJ	.	.	.	.	.	.	.	.	.	.	.	.	.
*	*	*	*rep	*	*	*	*	*	*	*	*	*	*	*	*	*
8B\	.	.	16d/LL	.	8r	.	.	.	.	.	.	.	.	.	.	.
.	.	.	16e/	.	.	.	.	.	.	.	.	.	.	.	.	.
8B\	.	.	16d/	.	16g#/LL	.	.	.	.	.	.	.	.	.	.	.
.	.	.	16e/JJ	.	16f/JJ	.	.	.	.	.	.	.	.	.	.	.
*	*	*	*Xrep	*	*	*	*	*	*	*	*	*	*	*	*	*
*	*	*	*rep	*	*	*	*	*	*	*	*	*	*	*	*	*
8B\	.	.	16d/LL	.	8g#/L	.	4B\	-tus	4d\	-tus	4g#\	-tuſ	4ee\	-tus	.	.
.	.	.	16e/	.	.	.	.	.	.	.	.	.	.	.	.	.
8B\J	.	.	16d/	.	8a/J	.	.	.	.	.	.	.	.	.	.	.
.	.	.	16e/JJ	.	.	.	.	.	.	.	.	.	.	.	.	.
*	*	*	*Xrep	*	*	*	*	*	*	*	*	*	*	*	*	*
!	!	!	!LO:LB:g=original	!	!	!	!	!	!	!	!	!	!	!	!	!
=131	=131	=131	=131	=131	=131	=131	=131	=131	=131	=131	=131	=131	=131	=131	=131	=131
*	*	*	*tremolo	*	*	*	*	*	*	*	*	*	*	*	*	*
8G#X\L	6 5	.	16d/LL	.	4.b\	.	2G#X\	bo-	2d\	bo-	2b\	bo-	2ee\	bo-	2.ryy	2.ryy
.	.	.	16e/	.	.	.	.	.	.	.	.	.	.	.	.	.
8G#\	.	.	16d/	.	.	.	.	.	.	.	.	.	.	.	.	.
.	.	.	16e/	.	.	.	.	.	.	.	.	.	.	.	.	.
8G#\	.	.	16d/	.	.	.	.	.	.	.	.	.	.	.	.	.
.	.	.	16e/	.	.	.	.	.	.	.	.	.	.	.	.	.
8G#\	.	.	16d/	.	16ee\LL	.	.	.	.	.	.	.	.	.	.	.
.	.	.	16e/	.	16dd\JJ	.	.	.	.	.	.	.	.	.	.	.
8G#\	.	.	16d/	.	8b\L	.	4G#\	-nus	4d\	-nus	4b\	-nus	4ee\	-nus	.	.
.	.	.	16e/	.	.	.	.	.	.	.	.	.	.	.	.	.
8G#\J	.	.	16d/	.	8b\J	.	.	.	.	.	.	.	.	.	.	.
.	.	.	16e/JJ	.	.	.	.	.	.	.	.	.	.	.	.	.
!	!	!	!	!	!	!	!LO:LB:g=original	!	!	!	!	!	!	!	!	!
=132	=132	=132	=132	=132	=132	=132	=132	=132	=132	=132	=132	=132	=132	=132	=132	=132
8A\L	.	.	16c/LL	.	8b/L	.	4.A\	om-	4.c\	om-	4.a\	om-	4.ee\	om-	2.ryy	2.ryy
.	.	.	16e/	.	.	.	.	.	.	.	.	.	.	.	.	.
8A\	.	.	16c/	.	8a/J	.	.	.	.	.	.	.	.	.	.	.
.	.	.	16e/	.	.	.	.	.	.	.	.	.	.	.	.	.
8A\	.	.	16c/	.	8r	.	.	.	.	.	.	.	.	.	.	.
.	.	.	16e/	.	.	.	.	.	.	.	.	.	.	.	.	.
8A\	.	.	16c/	.	16a/LL	.	8A\	-ni-	8c\	-ni-	8a\	-ni-	8ee\	-ni-	.	.
.	.	.	16e/	.	16g#X/JJ	.	.	.	.	.	.	.	.	.	.	.
8A\	.	.	16c/	.	8a/L	.	4A\	-buſ	4c\	-buſ	4a\	-bus	4ee\	-bus	.	.
.	.	.	16e/	.	.	.	.	.	.	.	.	.	.	.	.	.
8A\J	.	.	16c/	.	8cc/J	.	.	.	.	.	.	.	.	.	.	.
.	.	.	16e/JJ	.	.	.	.	.	.	.	.	.	.	.	.	.
*Xtremolo	*	*	*Xtremolo	*	*	*	*	*	*	*	*	*	*	*	*	*
=133	=133	=133	=133	=133	=133	=133	=133	=133	=133	=133	=133	=133	=133	=133	=133	=133
8B\L	5 4	.	16f/LL	.	8ee\L	.	8B\	fa-	8f\	fa-	8b\	fa-	8ee\	fa-	2.ryy	2.ryy
.	.	.	16f/	.	.	.	.	.	.	.	.	.	.	.	.	.
8B\	_ 3#	.	16f/	.	8dd#X\J	.	8B\	-ci-	8f\	-ci-	8b\	-ci-	8dd#X\	-ci-	.	.
.	.	.	16f/JJ	.	.	.	.	.	.	.	.	.	.	.	.	.
*	*	*	*tremolo	*	*	*	*	*	*	*	*	*	*	*	*	*
8G#X\	6 5n	.	16b/LL	.	8ddn\L	.	4G#X\	-en-	4e\	-en-	4b\	-en-	4ddn\	-en-	.	.
.	.	.	16b/	.	.	.	.	.	.	.	.	.	.	.	.	.
8G#\	.	.	16b/	.	8dd\J	.	.	.	.	.	.	.	.	.	.	.
.	.	.	16b/JJ	.	.	.	.	.	.	.	.	.	.	.	.	.
8A\	3	.	16a/LL	.	16cc\LL	.	8A\	-ti-	8e\	-ti-	8a\	-ti-	8cc\	-ti-	.	.
.	.	.	16a/	.	16ee\	.	.	.	.	.	.	.	.	.	.	.
8A\J	.	.	16a/	.	16dd\	.	8A\	-bus	8e\	-buſ	8a\	-bus	8cc\	-bus	.	.
.	.	.	16a/JJ	.	16cc\JJ	.	.	.	.	.	.	.	.	.	.	.
*	*	*	*Xtremolo	*	*	*	*	*	*	*	*	*	*	*	*	*
!	!	!	!	!	!	!	!	!	!LO:LB:g=original	!	!	!	!	!	!	!
=134	=134	=134	=134	=134	=134	=134	=134	=134	=134	=134	=134	=134	=134	=134	=134	=134
4e\	6 4	.	8.a/L	.	8.cc\L	.	4E\	e-	4e\	e-	4a\	e-	4cc\	e-	2.ryy	2.ryy
.	5 #	.	32g#X/LL	.	32b\LL	.	.	.	.	.	.	.	.	.	.	.
.	.	.	32a/JJJ	.	32cc\JJJ	.	.	.	.	.	.	.	.	.	.	.
4E\	.	.	8g#X/L	.	8b/L	.	4E\	-um	4e\	-um	4g#X\	-um	4b\	-um	.	.
.	.	.	8e/	.	8e/	.	.	.	.	.	.	.	.	.	.	.
4r	.	.	8g#/	.	8g#X/	.	4r	.	4r	.	4r	.	4r	.	.	.
.	.	.	8b/J	.	8b/J	.	.	.	.	.	.	.	.	.	.	.
!	!	!	!	!	!LO:LB:g=original	!	!	!	!	!	!	!	!LO:PB:g=original	!	!	!
=135	=135	=135	=135	=135	=135	=135	=135	=135	=135	=135	=135	=135	=135	=135	=135	=135
8G#X\L	6 5	.	16d/LL	.	4.ee\	.	4G#X\	lau-	4e\	Lau-	4b\	lau-	4dd\	lau-	2.ryy	2.ryy
.	.	.	16e/	.	.	.	.	.	.	.	.	.	.	.	.	.
8G#\	.	.	16d/	.	.	.	.	.	.	.	.	.	.	.	.	.
.	.	.	16e/JJ	.	.	.	.	.	.	.	.	.	.	.	.	.
*	*	*	*rep	*	*	*	*	*	*	*	*	*	*	*	*	*
8G#\	_ _	.	16d/LL	.	.	.	4G#\	-da-	4e\	-da-	4b\	-da-	4dd\	-da-	.	.
.	.	.	16e/	.	.	.	.	.	.	.	.	.	.	.	.	.
8G#\	.	.	16d/	.	16ff\LL	.	.	.	.	.	.	.	.	.	.	.
.	.	.	16e/JJ	.	16ee\JJ	.	.	.	.	.	.	.	.	.	.	.
*	*	*	*Xrep	*	*	*	*	*	*	*	*	*	*	*	*	*
*	*	*	*rep	*	*	*	*	*	*	*	*	*	*	*	*	*
8G#\	x	.	16d/LL	.	16ee\LL	.	8G#\	-ti-	8e\	-ci-	8b\	-ti-	8dd\	-ti-	.	.
.	.	.	16e/	.	16dd\	.	.	.	.	.	.	.	.	.	.	.
8G#\J	.	.	16d/	.	16cc\	.	8G#\	-o	8e\	-o	8b\	-o	8dd\	-o	.	.
.	.	.	16e/JJ	.	16b\JJ	.	.	.	.	.	.	.	.	.	.	.
*	*	*	*Xrep	*	*	*	*	*	*	*	*	*	*	*	*	*
!	!	!	!	!	!	!	!	!	!	!	!LO:LB:g=original	!	!	!	!	!
=136	=136	=136	=136	=136	=136	=136	=136	=136	=136	=136	=136	=136	=136	=136	=136	=136
*tremolo	*	*	*tremolo	*	*	*	*	*	*	*	*	*	*	*	*	*
8A\L	.	.	16c/LL	.	8b/L	.	2A\	e-	2e\	e-	2a\	e-	2cc\	e-	2.ryy	2.ryy
.	.	.	16e/	.	.	.	.	.	.	.	.	.	.	.	.	.
8A\	.	.	16c/	.	8a/J	.	.	.	.	.	.	.	.	.	.	.
.	.	.	16e/	.	.	.	.	.	.	.	.	.	.	.	.	.
8A\	.	.	16c/	.	8r	.	.	.	.	.	.	.	.	.	.	.
.	.	.	16e/	.	.	.	.	.	.	.	.	.	.	.	.	.
8A\	.	.	16c/	.	8e/L	.	.	.	.	.	.	.	.	.	.	.
.	.	.	16e/	.	.	.	.	.	.	.	.	.	.	.	.	.
8A\	.	.	16c/	.	8a/	.	4A\	-jus	4e\	-juſ	4a\	-jus	4cc\	-jus	.	.
.	.	.	16e/	.	.	.	.	.	.	.	.	.	.	.	.	.
8A\J	.	.	16c/	.	8cc/J	.	.	.	.	.	.	.	.	.	.	.
.	.	.	16e/JJ	.	.	.	.	.	.	.	.	.	.	.	.	.
!	!	!	!	!	!	!	!LO:LB:g=original	!	!	!	!	!	!	!	!	!
=137	=137	=137	=137	=137	=137	=137	=137	=137	=137	=137	=137	=137	=137	=137	=137	=137
8G#X\L	6 5	.	16d/LL	.	4.ee\	.	4G#X\	ma-	4e\	ma-	4b\	ma-	4dd\	ma-	2.ryy	2.ryy
.	.	.	16e/	.	.	.	.	.	.	.	.	.	.	.	.	.
8G#\	.	.	16d/	.	.	.	.	.	.	.	.	.	.	.	.	.
.	.	.	16e/	.	.	.	.	.	.	.	.	.	.	.	.	.
8G#\	.	.	16d/	.	.	.	4G#\	-net	4e\	-net	4b\	-net	4dd\	-net	.	.
.	.	.	16e/	.	.	.	.	.	.	.	.	.	.	.	.	.
8G#\	.	.	16d/	.	16ff\LL	.	.	.	.	.	.	.	.	.	.	.
.	.	.	16e/	.	16ee\JJ	.	.	.	.	.	.	.	.	.	.	.
8G#\	.	.	16d/	.	16ee\LL	.	4G#\	in	4e\	in	4b\	in	4dd\	in	.	.
.	.	.	16e/	.	16dd\	.	.	.	.	.	.	.	.	.	.	.
8G#\J	.	.	16d/	.	16cc\	.	.	.	.	.	.	.	.	.	.	.
.	.	.	16e/JJ	.	16b\JJ	.	.	.	.	.	.	.	.	.	.	.
=138	=138	=138	=138	=138	=138	=138	=138	=138	=138	=138	=138	=138	=138	=138	=138	=138
8A\L	.	.	16c/LL	.	8b/L	.	4.A\	S(ae)-	4.e\	Se-	4.a\	Se-	4.cc\	Se-	2.ryy	2.ryy
.	.	.	16e/	.	.	.	.	.	.	.	.	.	.	.	.	.
8A\	.	.	16c/	.	8a/J	.	.	.	.	.	.	.	.	.	.	.
.	.	.	16e/	.	.	.	.	.	.	.	.	.	.	.	.	.
8A\	.	.	16c/	.	8r	.	.	.	.	.	.	.	.	.	.	.
.	.	.	16e/	.	.	.	.	.	.	.	.	.	.	.	.	.
8A\	.	.	16c/	.	8e/L	.	8A\	-cu-	8e\	-cu-	8a\	-cu-	8cc\	-cu-	.	.
.	.	.	16e/	.	.	.	.	.	.	.	.	.	.	.	.	.
8A\	.	.	16c/	.	8a/	.	4A\	-lum	4e\	-lum	4a\	-lum	4cc\	-lum	.	.
.	.	.	16e/	.	.	.	.	.	.	.	.	.	.	.	.	.
8A\J	.	.	16c/	.	8cc/J	.	.	.	.	.	.	.	.	.	.	.
.	.	.	16e/JJ	.	.	.	.	.	.	.	.	.	.	.	.	.
*Xtremolo	*	*	*Xtremolo	*	*	*	*	*	*	*	*	*	*	*	*	*
=139	=139	=139	=139	=139	=139	=139	=139	=139	=139	=139	=139	=139	=139	=139	=139	=139
4D\	6	.	8d/L	.	8b\L	.	4d\	S(ae)-	4f\	Se-	4b\	Se-	4dd\	Se-	2.ryy	2.ryy
.	.	.	8f/	.	16cc\L	.	.	.	.	.	.	.	.	.	.	.
.	.	.	.	.	16dd\JJ	.	.	.	.	.	.	.	.	.	.	.
!	!	!	!	!	!LO:TX:t=P:problem=mixed beam	!	!	!	!	!	!	!	!	!	!	!
4E\	6 4	.	8e/	.	8cc\L	.	4e\	.	4e\	.	4a\	.	4cc\	.	.	.
.	.	.	8c/	.	8ee\	.	.	.	.	.	.	.	.	.	.	.
4EE/	5 #	.	8B/	.	8g#X/	.	4E\	-cu-	4d\	-cu-	4g#X\	-cu-	4b\	-cu-	.	.
.	.	.	8d/J	.	8b/J	.	.	.	.	.	.	.	.	.	.	.
!	!	!	!	!	!LO:LB:g=original	!	!	!	!LO:LB:g=original	!	!	!	!LO:LB:g=original	!	!	!
=140	=140	=140	=140	=140	=140	=140	=140	=140	=140	=140	=140	=140	=140	=140	=140	=140
!LO:TX:a:i:t=Solo	!	!	!	!	!LO:TX:a:i:t=Solo	!	!	!	!	!	!	!	!	!	!	!
2.AA/	.	.	2.c/	.	8b/L	.	4A\	-li	4e\	-li	4a\	-li	4cc\	-li	2.ryy	2.ryy
.	.	.	.	.	8a/	.	.	.	.	.	.	.	.	.	.	.
.	.	.	.	.	8g#X/	.	4r	.	4r	.	4r	.	4r	.	.	.
.	.	.	.	.	8a/	.	.	.	.	.	.	.	.	.	.	.
.	.	.	.	.	8b/	.	4r	.	4r	.	4r	.	4r	.	.	.
.	.	.	.	.	8cc/J	.	.	.	.	.	.	.	.	.	.	.
!LO:LB:g=original	!	!	!	!	!	!	!	!	!	!	!	!	!	!	!	!
=141	=141	=141	=141	=141	=141	=141	=141	=141	=141	=141	=141	=141	=141	=141	=141	=141
!	!	!	!	!	!	!	!	!	!	!	!LO:TX:a:t=Solo	!	!LO:TX:a:t=3	!	!	!
2.D\	6	.	2.f/	.	8cc\L	.	0.r	.	0.r	.	1.r	.	1.r	.	2.ryy	2.ryy
.	.	.	.	.	8b\	.	.	.	.	.	.	.	.	.	.	.
.	.	.	.	.	8a#X\	.	.	.	.	.	.	.	.	.	.	.
.	.	.	.	.	8b\	.	.	.	.	.	.	.	.	.	.	.
.	.	.	.	.	8dd\	.	.	.	.	.	.	.	.	.	.	.
.	.	.	.	.	8b\J	.	.	.	.	.	.	.	.	.	.	.
!	!	!	!LO:LB:g=original	!	!	!	!	!	!	!	!	!	!	!	!	!
=142	=142	=142	=142	=142	=142	=142	=142	=142	=142	=142	=142	=142	=142	=142	=142	=142
2.E\	#	.	2.d/	.	8an/L	.	.	.	.	.	.	.	.	.	2.ryy	2.ryy
.	.	.	.	.	8g#X/	.	.	.	.	.	.	.	.	.	.	.
.	.	.	.	.	8f/	.	.	.	.	.	.	.	.	.	.	.
.	.	.	.	.	8e/	.	.	.	.	.	.	.	.	.	.	.
.	.	.	.	.	8f/	.	.	.	.	.	.	.	.	.	.	.
.	.	.	.	.	8g#/J	.	.	.	.	.	.	.	.	.	.	.
=143	=143	=143	=143	=143	=143	=143	=143	=143	=143	=143	=143	=143	=143	=143	=143	=143
!	!	!LO:DY:a:t=pia	!	!	!	!	!	!	!	!	!	!	!	!	!	!
4A\	.	p	8d/L	.	8b/L	.	.	.	.	.	2.r	.	2.r	.	2.ryy	2.ryy
.	.	.	8c/J	.	8a/J	.	.	.	.	.	.	.	.	.	.	.
4AA/	.	.	4c/	.	4a/	.	.	.	.	.	.	.	.	.	.	.
4r	.	.	4r	.	4r	.	.	.	.	.	.	.	.	.	.	.
=144	=144	=144	=144	=144	=144	=144	=144	=144	=144	=144	=144	=144	=144	=144	=144	=144
!	!	!	!	!	!	!LO:DY:a	!	!	!	!	!	!	!LO:TX:rj:a:i:t=Solo	!	!	!
4A\	.	.	8A/L	.	8c/L	p	.	.	.	.	2a\	Glo-	2cc\	Glo-	2.ryy	2.ryy
.	.	.	8c/	.	8e/	.	.	.	.	.	.	.	.	.	.	.
4AA/	.	.	8A/	.	8c/	.	.	.	.	.	.	.	.	.	.	.
.	.	.	8c/	.	8e/	.	.	.	.	.	.	.	.	.	.	.
4r	.	.	8A/J	.	8c/	.	.	.	.	.	8cc\	-ri-	8ee\	-ri-	.	.
.	.	.	8ryy	.	8e/J	.	.	.	.	.	16b\LL	-a	16dd\LL	-a	.	.
.	.	.	.	.	.	.	.	.	.	.	16a\JJ	.	16cc\JJ	.	.	.
!	!	!	!	!	!	!	!	!	!	!	!LO:LB:g=original	!	!	!	!	!
=145	=145	=145	=145	=145	=145	=145	=145	=145	=145	=145	=145	=145	=145	=145	=145	=145
*	*	*	*tremolo	*	*tremolo	*	*	*	*	*	*	*	*	*	*	*
4E\	#	.	8G#X/L	.	8B/L	.	0.r	.	0.r	.	8a\L	pa-	8cc\L	Pa-	2.ryy	2.ryy
.	.	.	8B/	.	8d/	.	.	.	.	.	8g#X\J	.	8b\J	.	.	.
4EE/	.	.	8G#/	.	8B/	.	.	.	.	.	4g#\	-tri	4b\	-tri	.	.
.	.	.	8B/	.	8d/	.	.	.	.	.	.	.	.	.	.	.
4E\	.	.	8G#/	.	8B/	.	.	.	.	.	4r	.	4r	.	.	.
.	.	.	8B/J	.	8d/J	.	.	.	.	.	.	.	.	.	.	.
=146	=146	=146	=146	=146	=146	=146	=146	=146	=146	=146	=146	=146	=146	=146	=146	=146
4A\	.	.	8A/L	.	8c/L	.	.	.	.	.	4.a\	Glo-	4.cc\	Glo-	2.ryy	2.ryy
.	.	.	8c/	.	8e/	.	.	.	.	.	.	.	.	.	.	.
4AA/	.	.	8A/	.	8c/	.	.	.	.	.	.	.	.	.	.	.
.	.	.	8c/	.	8e/	.	.	.	.	.	16cc\LL	.	16ee\LL	.	.	.
.	.	.	.	.	.	.	.	.	.	.	16b\JJ	.	16dd\JJ	.	.	.
4r	.	.	8A/	.	8c/	.	.	.	.	.	16dd\LL	.	16ff\LL	.	.	.
.	.	.	.	.	.	.	.	.	.	.	16cc\JJ	.	16ee\JJ	.	.	.
.	.	.	8c/J	.	8e/J	.	.	.	.	.	16b\LL	-ri-	16dd\LL	-ri-	.	.
.	.	.	.	.	.	.	.	.	.	.	16a\JJ	-a	16cc\JJ	-a	.	.
!	!	!	!	!	!	!	!	!	!	!	!	!	!LO:LB:g=original	!	!	!
=147	=147	=147	=147	=147	=147	=147	=147	=147	=147	=147	=147	=147	=147	=147	=147	=147
4E\	#	.	8G#X/L	.	8B/L	.	.	.	.	.	8a\	fi-	8cc\	fi-	2.ryy	2.ryy
.	.	.	8B/	.	8d/	.	.	.	.	.	8g#X\	-li-	8b\	-li-	.	.
4EE/	.	.	8G#/	.	8B/	.	.	.	.	.	4g#\	-o	4b\	-o	.	.
.	.	.	8B/	.	8d/	.	.	.	.	.	.	.	.	.	.	.
4E\	.	.	8G#/	.	8B/	.	.	.	.	.	4r	.	4r	.	.	.
.	.	.	8B/J	.	8d/J	.	.	.	.	.	.	.	.	.	.	.
!	!	!	!	!	!LO:LB:g=original	!	!	!	!	!	!	!	!	!	!	!
=148	=148	=148	=148	=148	=148	=148	=148	=148	=148	=148	=148	=148	=148	=148	=148	=148
4A\	.	.	8A/L	.	8c/L	.	.	.	.	.	2a\	Glo-	2cc\	Glo-	2.ryy	2.ryy
.	.	.	8c/	.	8e/	.	.	.	.	.	.	.	.	.	.	.
4AA/	.	.	8A/	.	8c/	.	.	.	.	.	.	.	.	.	.	.
.	.	.	8c/	.	8e/	.	.	.	.	.	.	.	.	.	.	.
4A\	.	.	8A/	.	8c/	.	.	.	.	.	16b\LL	-ri-	16dd\LL	-ri-	.	.
.	.	.	.	.	.	.	.	.	.	.	16a\JJ	.	16cc\JJ	.	.	.
.	.	.	8c/J	.	8e/J	.	.	.	.	.	16g#X\LL	-a	16b\LL	-a	.	.
.	.	.	.	.	.	.	.	.	.	.	16a\JJ	.	16cc\JJ	.	.	.
!	!	!	!	!	!	!	!	!	!	!	!LO:PB:g=original	!	!	!	!	!
=149	=149	=149	=149	=149	=149	=149	=149	=149	=149	=149	=149	=149	=149	=149	=149	=149
4D\	6	.	8B/L	.	8d/L	.	0.r	.	0.r	.	4.b\	e(t)	4.dd\	et	2.ryy	2.ryy
.	.	.	8d/	.	8f/	.	.	.	.	.	.	.	.	.	.	.
4D\	_	.	8B/	.	8d/	.	.	.	.	.	.	.	.	.	.	.
.	.	.	8d/	.	8f/	.	.	.	.	.	16a\LL	.	16cc\LL	.	.	.
.	.	.	.	.	.	.	.	.	.	.	16b\JJ	.	16dd\JJ	.	.	.
4D\	x	.	8B/	.	8d/	.	.	.	.	.	8dd\	.	8ff\	Spi-	.	.
.	.	.	8d/J	.	8f/J	.	.	.	.	.	16cc\LL	Spi-	16ee\LL	-ri-	.	.
.	.	.	.	.	.	.	.	.	.	.	16b\JJ	.	16dd\JJ	.	.	.
=150	=150	=150	=150	=150	=150	=150	=150	=150	=150	=150	=150	=150	=150	=150	=150	=150
4E\	#	.	8G#X/L	.	8B/L	.	.	.	.	.	8a\L	-ri-	8cc\L	.	2.ryy	2.ryy
.	.	.	8B/	.	8d/	.	.	.	.	.	8g#X\J	.	8b\J	.	.	.
4EE/	_	.	8G#/	.	8B/	.	.	.	.	.	4.g#\	-tu-	4.b\	-tu-	.	.
.	.	.	8B/	.	8d/	.	.	.	.	.	.	.	.	.	.	.
4E\	.	.	8G#/	.	8B/	.	.	.	.	.	.	.	.	.	.	.
.	x	.	8B/J	.	8d/J	.	.	.	.	.	8g#\	-i	8ee\	-i	.	.
*	*	*	*Xtremolo	*	*Xtremolo	*	*	*	*	*	*	*	*	*	*	*
!	!	!	!	!	!	!	!	!	!	!	!	!	!LO:LB:g=original	!	!	!
=151	=151	=151	=151	=151	=151	=151	=151	=151	=151	=151	=151	=151	=151	=151	=151	=151
4A\	.	.	8B/L	.	8d/L	.	.	.	.	.	8b\L	San-	8dd\L	San-	2.ryy	2.ryy
.	.	.	8A/J	.	8c/J	.	.	.	.	.	8a\J	.	8cc\J	.	.	.
4AA/	.	.	4A/	.	8r	.	.	.	.	.	4a\	-cto	4cc\	-cto	.	.
.	.	.	.	.	8ee\	.	.	.	.	.	.	.	.	.	.	.
8r	.	.	8r	.	16dd\LL	.	.	.	.	.	4r	.	4r	.	.	.
.	.	.	.	.	16cc\	.	.	.	.	.	.	.	.	.	.	.
!	!	!LO:DY:a:t=for	!LO:TX:a:i:t=Solo	!	!	!	!	!	!	!	!	!	!	!	!	!
8A\	.	f	8c/	.	16b\	.	.	.	.	.	.	.	.	.	.	.
.	.	.	.	.	16a\JJ	.	.	.	.	.	.	.	.	.	.	.
!LO:LB:g=original	!	!	!	!	!	!	!	!	!	!	!	!	!	!	!	!
=152	=152	=152	=152	=152	=152	=152	=152	=152	=152	=152	=152	=152	=152	=152	=152	=152
!	!	!	!	!	!	!	!	!	!	!	!	!	!LO:TX:a:t=3	!	!	!
4B\	7 3	.	4d/	.	8.a/L	.	.	.	.	.	1.r	.	1.r	.	2.ryy	2.ryy
.	.	.	.	.	32b/LL	.	.	.	.	.	.	.	.	.	.	.
.	.	.	.	.	32a/JJJ	.	.	.	.	.	.	.	.	.	.	.
!	!	!	!	!	!LO:TX:t=P:problem=mixed beam	!	!	!	!	!	!	!	!	!	!	!
4B\	6\ _	.	4d/	.	8g#X/L	.	.	.	.	.	.	.	.	.	.	.
.	.	.	.	.	16ee\L	.	.	.	.	.	.	.	.	.	.	.
.	.	.	.	.	16ff\JJ	.	.	.	.	.	.	.	.	.	.	.
8r	x	.	8r	.	16ee\LL	.	.	.	.	.	.	.	.	.	.	.
.	.	.	.	.	16dd\	.	.	.	.	.	.	.	.	.	.	.
8G#X\	6 5	.	8d/	.	16cc\	.	.	.	.	.	.	.	.	.	.	.
.	.	.	.	.	16b\JJ	.	.	.	.	.	.	.	.	.	.	.
!	!	!	!LO:LB:g=original	!	!	!	!	!	!	!	!	!	!	!	!	!
=153	=153	=153	=153	=153	=153	=153	=153	=153	=153	=153	=153	=153	=153	=153	=153	=153
4A\	9 4	.	8.d/L	.	8.b\L	.	1.r	.	1.r	.	.	.	.	.	2.ryy	2.ryy
.	.	.	32e/LL	.	32cc\LL	.	.	.	.	.	.	.	.	.	.	.
.	.	.	32d/JJJ	.	32b\JJJ	.	.	.	.	.	.	.	.	.	.	.
4AA/	8 3	.	4c/	.	16a\LL	.	.	.	.	.	.	.	.	.	.	.
.	.	.	.	.	16b\	.	.	.	.	.	.	.	.	.	.	.
.	.	.	.	.	16cc\	.	.	.	.	.	.	.	.	.	.	.
.	.	.	.	.	16dd\JJ	.	.	.	.	.	.	.	.	.	.	.
8r	.	.	8r	.	16ee\LL	.	.	.	.	.	.	.	.	.	.	.
.	.	.	.	.	16ff\	.	.	.	.	.	.	.	.	.	.	.
8C/	6	.	8ee\	.	16gg#X\	.	.	.	.	.	.	.	.	.	.	.
.	.	.	.	.	16aa\JJ	.	.	.	.	.	.	.	.	.	.	.
!	!	!	!	!	!LO:LB:g=original	!	!	!	!	!	!	!	!	!	!	!
=154	=154	=154	=154	=154	=154	=154	=154	=154	=154	=154	=154	=154	=154	=154	=154	=154
4D\	6	.	8dd\L	.	8ff\L	.	.	.	.	.	2.r	.	2.r	.	2.ryy	2.ryy
.	.	.	16cc\L	.	16ee\L	.	.	.	.	.	.	.	.	.	.	.
.	.	.	16b\JJ	.	16dd\JJ	.	.	.	.	.	.	.	.	.	.	.
!	!	!	!LO:TX:b:i:t=Solo	!	!LO:TX:t=P:problem=mixed beam	!	!	!	!	!	!	!	!	!	!	!
!	!	!	!LO:TX:t=P:problem=mixed beam	!	!	!	!	!	!	!	!	!	!	!	!	!
4E\	6 4	.	8a\L	.	8cc\L	.	.	.	.	.	.	.	.	.	.	.
.	.	.	8cc\	.	8ee\	.	.	.	.	.	.	.	.	.	.	.
4EE/	5 #	.	8e/	.	8g#X/	.	.	.	.	.	.	.	.	.	.	.
.	.	.	8d/J	.	8b/J	.	.	.	.	.	.	.	.	.	.	.
=155	=155	=155	=155	=155	=155	=155	=155	=155	=155	=155	=155	=155	=155	=155	=155	=155
!LO:TX:t=P:problem=mixed beam	!	!	!	!	!	!	!	!	!	!	!	!	!	!	!	!
8AA/L	.	.	16c/LL	.	4a/	.	8A\	Si-	8c\	Si-	8a\	Si-	8ee\	Sic-	2.ryy	2.ryy
.	.	.	16e/	.	.	.	.	.	.	.	.	.	.	.	.	.
!LO:TX:a:i:t=tutti	!	!	!	!	!	!	!	!	!	!	!	!	!	!	!	!
8A\	.	.	16c/	.	.	.	8A\	-cut	8c\	-cut	8a\	-cut	8ee\	-ut	.	.
.	.	.	16e/JJ	.	.	.	.	.	.	.	.	.	.	.	.	.
*	*	*	*rep	*	*	*	*	*	*	*	*	*	*	*	*	*
8A\	.	.	16c/LL	.	8r	.	4A\	e-	4c\	e-	4a\	e-	4ee\	e-	.	.
.	.	.	16e/	.	.	.	.	.	.	.	.	.	.	.	.	.
8A\	.	.	16c/	.	16a\LL	.	.	.	.	.	.	.	.	.	.	.
.	.	.	16e/JJ	.	16cc\JJ	.	.	.	.	.	.	.	.	.	.	.
*	*	*	*Xrep	*	*	*	*	*	*	*	*	*	*	*	*	*
*	*	*	*rep	*	*	*	*	*	*	*	*	*	*	*	*	*
8A\	.	.	16c/LL	.	8ee\L	.	4A\	-rat	4c\	-rat	4a\	-rat	4ee\	-rat	.	.
.	.	.	16e/	.	.	.	.	.	.	.	.	.	.	.	.	.
8A\J	.	.	16c/	.	8ee\J	.	.	.	.	.	.	.	.	.	.	.
.	.	.	16e/JJ	.	.	.	.	.	.	.	.	.	.	.	.	.
*	*	*	*Xrep	*	*	*	*	*	*	*	*	*	*	*	*	*
!	!	!	!	!	!	!	!LO:LB:g=original	!	!	!	!LO:LB:g=original	!	!	!	!	!
=156	=156	=156	=156	=156	=156	=156	=156	=156	=156	=156	=156	=156	=156	=156	=156	=156
*tremolo	*	*	*	*	*	*	*	*	*	*	*	*	*	*	*	*
8G#X\L	6 5	.	16d/LL	.	4.ee\	.	8G#X\	in	8d\	in	8b\	in	8ee\	in	2.ryy	2.ryy
.	.	.	16e/	.	.	.	.	.	.	.	.	.	.	.	.	.
8G#\	.	.	16d/	.	.	.	8G#\	prin-	8d\	prin-	8b\	prin-	8ee\	prin-	.	.
.	.	.	16e/JJ	.	.	.	.	.	.	.	.	.	.	.	.	.
*	*	*	*rep	*	*	*	*	*	*	*	*	*	*	*	*	*
8G#\	.	.	16d/LL	.	.	.	4G#\	-ci-	4d\	-ci-	4b\	-ci-	4ee\	-ci-	.	.
.	.	.	16e/	.	.	.	.	.	.	.	.	.	.	.	.	.
8G#\	.	.	16d/	.	16dd\LL	.	.	.	.	.	.	.	.	.	.	.
.	.	.	16e/JJ	.	16cc\JJ	.	.	.	.	.	.	.	.	.	.	.
*	*	*	*Xrep	*	*	*	*	*	*	*	*	*	*	*	*	*
*	*	*	*rep	*	*	*	*	*	*	*	*	*	*	*	*	*
8G#\	.	.	16d/LL	.	8b\L	.	4G#\	-pi-	4d\	-pi-	4b\	-pi-	4ee\	-pi-	.	.
.	.	.	16e/	.	.	.	.	.	.	.	.	.	.	.	.	.
8G#\J	.	.	16d/	.	8b\J	.	.	.	.	.	.	.	.	.	.	.
.	.	.	16e/JJ	.	.	.	.	.	.	.	.	.	.	.	.	.
*	*	*	*Xrep	*	*	*	*	*	*	*	*	*	*	*	*	*
=157	=157	=157	=157	=157	=157	=157	=157	=157	=157	=157	=157	=157	=157	=157	=157	=157
*	*	*	*tremolo	*	*	*	*	*	*	*	*	*	*	*	*	*
8A\L	3	.	16c/LL	.	4a/	.	8A\	-o	8c\	-o	8a\	-o	8ee\	-o	2.ryy	2.ryy
.	.	.	16e/	.	.	.	.	.	.	.	.	.	.	.	.	.
8A\	.	.	16c/	.	.	.	8A\	e(t)	8c\	(et)	8a\	e(t)	8ee\	e(t)	.	.
.	.	.	16e/	.	.	.	.	.	.	.	.	.	.	.	.	.
8A\	.	.	16c/	.	8r	.	4A\	nunc	4c\	nunc	4a\	nunc	4ee\	nunc	.	.
.	.	.	16e/	.	.	.	.	.	.	.	.	.	.	.	.	.
8A\	.	.	16c/	.	16a\LL	.	.	.	.	.	.	.	.	.	.	.
.	.	.	16e/	.	16cc\JJ	.	.	.	.	.	.	.	.	.	.	.
8A\	.	.	16c/	.	8ee\L	.	4A\	e(t)	4c\	(et)	4a\	(et)	4ee\	e(t)	.	.
.	.	.	16e/	.	.	.	.	.	.	.	.	.	.	.	.	.
8A\J	.	.	16c/	.	8ee\J	.	.	.	.	.	.	.	.	.	.	.
.	.	.	16e/JJ	.	.	.	.	.	.	.	.	.	.	.	.	.
!	!	!	!	!	!	!	!	!	!LO:LB:g=original	!	!	!	!LO:LB:g=original	!	!	!
=158	=158	=158	=158	=158	=158	=158	=158	=158	=158	=158	=158	=158	=158	=158	=158	=158
8G#X\L	6 5	.	16d/LL	.	4.ee\	.	4G#X\	Sem-	4d\	Sem-	4b\	Sem-	4ee\	Sem-	2.ryy	2.ryy
.	.	.	16e/	.	.	.	.	.	.	.	.	.	.	.	.	.
8G#\	.	.	16d/	.	.	.	.	.	.	.	.	.	.	.	.	.
.	.	.	16e/	.	.	.	.	.	.	.	.	.	.	.	.	.
8G#\	.	.	16d/	.	.	.	4G#\	-per	4d\	-per	4b\	-per	4ee\	-per	.	.
.	.	.	16e/	.	.	.	.	.	.	.	.	.	.	.	.	.
8G#\	.	.	16d/	.	16dd\LL	.	.	.	.	.	.	.	.	.	.	.
.	.	.	16e/	.	16cc\JJ	.	.	.	.	.	.	.	.	.	.	.
8G#\	.	.	16d/	.	8b\L	.	8G#\	e(t)	8d\	(et)	8b\	e(t)	8ee\	e(t)	.	.
.	.	.	16e/	.	.	.	.	.	.	.	.	.	.	.	.	.
8G#\J	.	.	16d/	.	8b\J	.	8G#\	in	8d\	in	8b\	in	8ee\	in	.	.
.	.	.	16e/JJ	.	.	.	.	.	.	.	.	.	.	.	.	.
*Xtremolo	*	*	*	*	*	*	*	*	*	*	*	*	*	*	*	*
=159	=159	=159	=159	=159	=159	=159	=159	=159	=159	=159	=159	=159	=159	=159	=159	=159
!LO:TX:t=P:problem=mixed beam	!	!	!	!	!	!	!	!	!	!	!	!	!	!	!	!
8A\L	.	.	16c/LL	.	4a/	.	4.A\	S(ae)-	4.c\	Se-	4.a\	S(ae)-	4.ee\	Se-	2.ryy	2.ryy
.	.	.	16e/	.	.	.	.	.	.	.	.	.	.	.	.	.
8A\	.	.	16c/	.	.	.	.	.	.	.	.	.	.	.	.	.
.	.	.	16e/	.	.	.	.	.	.	.	.	.	.	.	.	.
8A\	.	.	16c/	.	8r	.	.	.	.	.	.	.	.	.	.	.
.	.	.	16e/	.	.	.	.	.	.	.	.	.	.	.	.	.
8A\	.	.	16c/	.	16a\LL	.	8A\	-cu-	8c\	-cu-	8a\	-cu-	8ee\	-cu-	.	.
.	.	.	16e/	.	16cc\JJ	.	.	.	.	.	.	.	.	.	.	.
8C/	6	.	16c/	.	8ee\L	.	4c\	-la	4e\	-la	4a\	-la	4ee\	-la	.	.
.	.	.	16e/	.	.	.	.	.	.	.	.	.	.	.	.	.
8C/J	x	.	16c/	.	8aa\J	.	.	.	.	.	.	.	.	.	.	.
.	.	.	16e/JJ	.	.	.	.	.	.	.	.	.	.	.	.	.
*	*	*	*Xtremolo	*	*	*	*	*	*	*	*	*	*	*	*	*
!	!	!	!	!	!LO:LB:g=original	!	!	!	!	!	!LO:LB:g=original	!	!	!	!	!
=160	=160	=160	=160	=160	=160	=160	=160	=160	=160	=160	=160	=160	=160	=160	=160	=160
8D\L	6	.	16f/LL	.	8.ff\L	.	2d\	s(ae)-	2f\	S(ae)-	2b\	S(ae)-	2dd\	Se-	2.ryy	2.ryy
.	.	.	16f/	.	.	.	.	.	.	.	.	.	.	.	.	.
8D\	_	.	16f/	.	.	.	.	.	.	.	.	.	.	.	.	.
.	.	.	16f/JJ	.	16dd\Jk	.	.	.	.	.	.	.	.	.	.	.
*	*	*	*rep	*	*	*	*	*	*	*	*	*	*	*	*	*
8D\	.	.	16f/LL	.	8b\L	.	.	.	.	.	.	.	.	.	.	.
.	.	.	16f/	.	.	.	.	.	.	.	.	.	.	.	.	.
8D\	.	.	16f/	.	8b\	.	.	.	.	.	.	.	.	.	.	.
.	.	.	16f/JJ	.	.	.	.	.	.	.	.	.	.	.	.	.
*	*	*	*Xrep	*	*	*	*	*	*	*	*	*	*	*	*	*
*	*	*	*rep	*	*	*	*	*	*	*	*	*	*	*	*	*
8D\	5	.	16f/LL	.	8a\	.	4d\	-cu-	4f\	-cu-	4a\	-cu-	4cc\	-cu-	.	.
.	.	.	16f/	.	.	.	.	.	.	.	.	.	.	.	.	.
8D\J	.	.	16f/	.	8a\J	.	.	.	.	.	.	.	.	.	.	.
.	.	.	16f/JJ	.	.	.	.	.	.	.	.	.	.	.	.	.
*	*	*	*Xrep	*	*	*	*	*	*	*	*	*	*	*	*	*
!LO:LB:g=original	!	!	!	!	!	!LO:LB:g=original	!	!	!	!	!	!	!	!	!	!
=161	=161	=161	=161	=161	=161	=161	=161	=161	=161	=161	=161	=161	=161	=161	=161	=161
8E\L	#	.	16B/LL	.	8g#X/L	.	4e\	-lo-	2e\	-lo-	2g#X\	-lo-	2b\	-lo-	2.ryy	2.ryy
.	.	.	16e/	.	.	.	.	.	.	.	.	.	.	.	.	.
8E\	_	.	16B/	.	8b/J	.	.	.	.	.	.	.	.	.	.	.
.	.	.	16e/JJ	.	.	.	.	.	.	.	.	.	.	.	.	.
*	*	*	*rep	*	*	*	*	*	*	*	*	*	*	*	*	*
8D\	.	.	16B/LL	.	8e/L	.	4d\	.	.	.	.	.	.	.	.	.
.	.	.	16e/	.	.	.	.	.	.	.	.	.	.	.	.	.
8D\	.	.	16B/	.	16f/L	.	.	.	.	.	.	.	.	.	.	.
.	.	.	16e/JJ	.	16g#/JJ	.	.	.	.	.	.	.	.	.	.	.
*	*	*	*Xrep	*	*	*	*	*	*	*	*	*	*	*	*	*
8C\	6	.	16c/LL	.	8a/L	.	4c\	-rum	4e\	-rum	4a\	-rum	4cc\	-rum	.	.
.	.	.	16e/	.	.	.	.	.	.	.	.	.	.	.	.	.
8C\J	.	.	16c/	.	8cc/J	.	.	.	.	.	.	.	.	.	.	.
.	.	.	16e/JJ	.	.	.	.	.	.	.	.	.	.	.	.	.
!	!	!	!LO:LB:g=original	!	!	!	!	!	!	!	!	!	!	!	!	!
=162	=162	=162	=162	=162	=162	=162	=162	=162	=162	=162	=162	=162	=162	=162	=162	=162
!LO:TX:t=P:problem=mixed beam	!	!	!	!	!LO:TX:t=P:problem=mixed beam	!	!	!	!	!	!	!	!	!	!	!
8D\L	6	.	8d/L	.	8b\L	.	4d\	a-	4f\	a-	4b\	a-	4dd\	a-	2.ryy	2.ryy
8D\	.	.	8f/	.	8dd\	.	.	.	.	.	.	.	.	.	.	.
8E\	6 4	.	8e/	.	8cc\	.	4e\	.	2e\	.	4a\	.	4cc\	.	.	.
8E\	.	.	8c/	.	8ee\	.	.	.	.	.	.	.	.	.	.	.
8EE/	5 #	.	8B/	.	8g#X/	.	4E\	.	.	.	4g#X\	.	4b\	.	.	.
8EE/J	.	.	8d/J	.	8b/J	.	.	.	.	.	.	.	.	.	.	.
!	!	!	!	!	!	!	!	!	!LO:LB:g=original	!	!	!	!	!	!	!
=163	=163	=163	=163	=163	=163	=163	=163	=163	=163	=163	=163	=163	=163	=163	=163	=163
4AA/	.	.	4c/	.	4a/	.	4A\	-men	4e\	-men	4a\	-men	4cc\	-men	2.ryy	2.ryy
4A\	.	.	8r	.	8r	.	4r	.	4r	.	4r	.	4r	.	.	.
!	!	!	!	!	!LO:TX:rj:a:i:t=Solo	!	!	!	!	!	!	!	!	!	!	!
.	.	.	16a/LL	.	16cc\LL	.	.	.	.	.	.	.	.	.	.	.
.	.	.	16g#X/JJ	.	16b\JJ	.	.	.	.	.	.	.	.	.	.	.
!	!	!	!LO:TX:a:i:t=Solo	!	!	!	!	!	!	!	!	!	!	!	!	!
4r	.	.	8a/L	.	8cc\L	.	4r	.	4r	.	4r	.	4r	.	.	.
.	.	.	8b/J	.	8dd\J	.	.	.	.	.	.	.	.	.	.	.
!	!	!	!	!	!	!	!	!	!	!	!	!	!LO:LB:g=original	!	!	!
=164	=164	=164	=164	=164	=164	=164	=164	=164	=164	=164	=164	=164	=164	=164	=164	=164
!	!	!	!	!	!	!	!	!	!LO:TX:a:t=1	!	!	!	!	!	!	!
2.r	.	.	8.cc\L	.	8.ee\L	.	2.r	.	2.r	.	2.r	.	2.r	.	2.ryy	2.ryy
.	.	.	16dd\Jk	.	16ff\Jk	.	.	.	.	.	.	.	.	.	.	.
.	.	.	8b\L	.	8dd\L	.	.	.	.	.	.	.	.	.	.	.
.	.	.	8a\	.	8cc\	.	.	.	.	.	.	.	.	.	.	.
.	.	.	8b\	.	8dd\	.	.	.	.	.	.	.	.	.	.	.
.	.	.	8cc\J	.	8ee\J	.	.	.	.	.	.	.	.	.	.	.
=165	=165	=165	=165	=165	=165	=165	=165	=165	=165	=165	=165	=165	=165	=165	=165	=165
4r	.	.	4b\	.	4dd\	.	4r	.	4r	.	4r	.	4r	.	2.ryy	2.ryy
8r	.	.	8a\L	.	8cc\L	.	8r	.	8r	.	8r	.	8r	.	.	.
8A\L	8 3	.	8cc\	.	8aa\	.	8A\L	a-	4f\	a-	8a\L	a-	8cc\L	a-	.	.
8B\	6\ 3	.	8dd\	.	8gg#X\	.	8B\	.	.	.	8g#X\	.	8dd\	.	.	.
8c\J	5 3	.	8ee\J	.	8ggn\J	.	8c\J	.	8A\	-men	8gn\J	.	8ee\J	.	.	.
!	!	!	!	!	!LO:PB:g=original	!	!	!	!	!	!LO:LB:g=original	!	!	!	!	!
=166	=166	=166	=166	=166	=166	=166	=166	=166	=166	=166	=166	=166	=166	=166	=166	=166
4d\	6 n3	.	8dd\L	.	8ff\L	.	4d\	.	4f\	a-	8f\L	.	4dd\	.	2.ryy	2.ryy
.	.	.	16cc\L	.	16ee\L	.	.	.	.	.	8b\J	.	.	.	.	.
.	.	.	16b\JJ	.	16dd\JJ	.	.	.	.	.	.	.	.	.	.	.
!	!	!	!	!	!LO:TX:t=P:problem=mixed beam	!	!	!	!	!	!	!	!	!	!	!
4e\	6 4	.	8a/L	.	8cc\L	.	4e\	.	2e\	.	4a\	.	4cc\	.	.	.
.	.	.	8cc/	.	8ee\	.	.	.	.	.	.	.	.	.	.	.
4E\	5 #	.	8e/	.	8g#X/	.	4E\	.	.	.	4g#X\	.	4b\	.	.	.
.	.	.	8d/J	.	8b/J	.	.	.	.	.	.	.	.	.	.	.
=167	=167	=167	=167	=167	=167	=167	=167	=167	=167	=167	=167	=167	=167	=167	=167	=167
4A\	.	.	4c/	.	4a/	.	4A\	-men	4e\	-men	4a\	-men	4cc\	-men	2.ryy	2.ryy
4AA/	.	.	8r	.	8r	.	4r	.	4r	.	4r	.	4r	.	.	.
.	.	.	16a/LL	.	16cc\LL	.	.	.	.	.	.	.	.	.	.	.
.	.	.	16g#X/JJ	.	16b\JJ	.	.	.	.	.	.	.	.	.	.	.
!	!	!	!LO:TX:a:i:t=Solo	!	!	!	!	!	!	!	!	!	!	!	!	!
4r	.	.	8a/L	.	8cc\L	.	4r	.	4r	.	4r	.	4r	.	.	.
.	.	.	8b/J	.	8dd\J	.	.	.	.	.	.	.	.	.	.	.
!	!	!	!	!	!	!	!LO:LB:g=original	!	!	!	!	!	!	!	!	!
=168	=168	=168	=168	=168	=168	=168	=168	=168	=168	=168	=168	=168	=168	=168	=168	=168
2.r	.	.	8.cc\L	.	8.ee\L	.	2.r	.	2.r	.	2.r	.	2.r	.	2.ryy	2.ryy
.	.	.	16dd\Jk	.	16ff\Jk	.	.	.	.	.	.	.	.	.	.	.
.	.	.	8b\L	.	8dd\L	.	.	.	.	.	.	.	.	.	.	.
.	.	.	8a\	.	8cc\	.	.	.	.	.	.	.	.	.	.	.
.	.	.	8b\	.	8dd\	.	.	.	.	.	.	.	.	.	.	.
.	.	.	8cc\J	.	8ee\J	.	.	.	.	.	.	.	.	.	.	.
=169	=169	=169	=169	=169	=169	=169	=169	=169	=169	=169	=169	=169	=169	=169	=169	=169
4r	.	.	4b\	.	4dd\	.	4r	.	4r	.	4r	.	4r	.	2.ryy	2.ryy
8r	.	.	8a\L	.	8cc\L	.	8r	.	8r	.	8r	.	8r	.	.	.
*	*	*	*	*	*	*	*	*	*	*ij	*	*	*	*	*	*
8A\L	8 3	.	8cc\	.	8aa\	.	8A\L	a-	4e\	a-	8a\L	a-	8cc\L	a-	.	.
8B\	6\ 3	.	8dd\	.	8gg#X\	.	8B\	.	.	.	8g#X\	.	8dd\	.	.	.
8c\J	5n 3	.	8ee\J	.	8ggn\J	.	8c\J	.	8A\	.	8gn\J	.	8ee\J	.	.	.
!	!	!	!LO:LB:g=original	!	!	!	!	!	!	!	!	!	!	!	!	!
=170	=170	=170	=170	=170	=170	=170	=170	=170	=170	=170	=170	=170	=170	=170	=170	=170
4d\	6 3	.	8dd\L	.	8ff\L	.	4d\	.	4f\	-men	8f\L	.	4dd\	.	2.ryy	2.ryy
*	*	*	*	*	*	*	*	*	*	*Xij	*	*	*	*	*	*
.	.	.	16cc\L	.	16ee\L	.	.	.	.	.	8b\J	.	.	.	.	.
.	.	.	16b\JJ	.	16dd\JJ	.	.	.	.	.	.	.	.	.	.	.
!	!	!	!	!	!LO:TX:t=P:problem=mixed beam	!	!	!	!	!	!	!	!	!	!	!
4e\	6 4	.	8a/L	.	8cc\L	.	4e\	.	2e\	a-	4a\	.	4cc\	.	.	.
.	.	.	8cc/	.	8ee\	.	.	.	.	.	.	.	.	.	.	.
4E\	5 #	.	8e/	.	8g#X/	.	4E\	.	.	.	4g#X\	.	4b\	.	.	.
.	.	.	8d/J	.	8b/J	.	.	.	.	.	.	.	.	.	.	.
!LO:LB:g=original	!	!	!	!	!	!	!	!	!	!	!	!	!	!	!	!
=171	=171	=171	=171	=171	=171	=171	=171	=171	=171	=171	=171	=171	=171	=171	=171	=171
4A\	.	.	4c/	.	4a/	.	4A\	-men	2e\	-men	4a\	-men	4cc\	-men	2.ryy	2.ryy
4AA/	.	.	8r	.	8r	.	4r	.	.	.	4r	.	4r	.	.	.
.	.	.	16cc\LL	.	16ee\LL	.	.	.	.	.	.	.	.	.	.	.
.	.	.	16b\JJ	.	16dd\JJ	.	.	.	.	.	.	.	.	.	.	.
4r	.	.	8cc\L	.	8ee\L	.	4r	.	4r	.	4r	.	4r	.	.	.
.	.	.	8dd\J	.	8ff\J	.	.	.	.	.	.	.	.	.	.	.
!	!	!	!	!	!LO:LB:g=original	!	!	!	!	!	!	!	!LO:LB:g=original	!	!	!
=172	=172	=172	=172	=172	=172	=172	=172	=172	=172	=172	=172	=172	=172	=172	=172	=172
!	!	!	!	!	!	!	!	!	!LO:TX:a:t=4	!	!	!	!LO:TX:a:t=4	!	!	!
1.r	.	.	4cc\	.	4ee\	.	0.r	.	0.r	.	0.r	.	0.r	.	2.ryy	2.ryy
.	.	.	8b\L	.	8dd\L	.	.	.	.	.	.	.	.	.	.	.
.	.	.	16b\L	.	16dd\L	.	.	.	.	.	.	.	.	.	.	.
.	.	.	16a\JJ	.	16cc\JJ	.	.	.	.	.	.	.	.	.	.	.
.	.	.	8b\L	.	8dd\L	.	.	.	.	.	.	.	.	.	.	.
.	.	.	8cc\J	.	8ee\J	.	.	.	.	.	.	.	.	.	.	.
=173	=173	=173	=173	=173	=173	=173	=173	=173	=173	=173	=173	=173	=173	=173	=173	=173
.	.	.	4b\	.	4dd\	.	.	.	.	.	.	.	.	.	2.ryy	2.ryy
.	.	.	8a\L	.	8cc\L	.	.	.	.	.	.	.	.	.	.	.
.	.	.	8cc\	.	8aa\	.	.	.	.	.	.	.	.	.	.	.
.	.	.	8dd\	.	8gg#X\	.	.	.	.	.	.	.	.	.	.	.
.	.	.	8ee\J	.	8ggn\J	.	.	.	.	.	.	.	.	.	.	.
=174	=174	=174	=174	=174	=174	=174	=174	=174	=174	=174	=174	=174	=174	=174	=174	=174
!LO:TX:a:i:t=pedale	!	!	!	!	!	!	!	!	!	!	!	!	!	!	!	!
2.AA/	.	.	8dd\L	.	8ff\L	.	.	.	.	.	.	.	.	.	2.ryy	2.ryy
.	.	.	8cc#X\	.	8ee\	.	.	.	.	.	.	.	.	.	.	.
.	.	.	8dd\	.	8ff\	.	.	.	.	.	.	.	.	.	.	.
.	.	.	8cc#\	.	8ee\	.	.	.	.	.	.	.	.	.	.	.
.	.	.	8dd\	.	8ff\	.	.	.	.	.	.	.	.	.	.	.
.	.	.	8b\J	.	8gg#X\J	.	.	.	.	.	.	.	.	.	.	.
=175	=175	=175	=175	=175	=175	=175	=175	=175	=175	=175	=175	=175	=175	=175	=175	=175
4AA/	.	.	8dd\L	.	8gg#X\L	.	.	.	.	.	.	.	.	.	2.ryy	2.ryy
.	.	.	8cc#X\J	.	8aa\J	.	.	.	.	.	.	.	.	.	.	.
4AA/	.	.	4cc#\	.	4aa\	.	.	.	.	.	.	.	.	.	.	.
4r	.	.	4r	.	4r	.	.	.	.	.	.	.	.	.	.	.
==;	==	==	==;	==	==;	==	==;	==	==;	==	==;	==	==;	==	==	==
*-	*-	*-	*-	*-	*-	*-	*-	*-	*-	*-	*-	*-	*-	*-	*-	*-
!!!system-decoration: [(s1,s2)][(s3,s4,s5,s6)][(s7,s8)]s9
!!!AIN: 1 alto 3 empty 1 organ 1 tenor 2 violn 1 vox
!!!ENC: Mateusz Solarz
!!!END: 2021-11-30
!!!ENC: Leszek Kubiak
!!!END: 2021-12-08
